( PCB Contour )
( Generated by Rapid-PCB.com )
( Material Size)
( X= 72.290, Y= 100.000, Z= 1.490)
()
G00
G17
G21
G40
G49
G54
G80
G90
G94
G00 F3000 Z3.000
M03 S9000
G00 F3000 X27.874 Y59.007
G00 F1500 Z0
G01 F600 Z-0.200
G01 F600 X27.669 Y58.964
G01 F600 X27.479 Y58.879
G01 F600 X27.310 Y58.756
G01 F600 X27.170 Y58.601
G01 F600 X27.065 Y58.420
G01 F600 X27.001 Y58.221
G01 F600 X26.979 Y58.014
G01 F600 X27.001 Y57.806
G01 F600 X27.065 Y57.607
G01 F600 X27.170 Y57.426
G01 F600 X27.310 Y57.271
G01 F600 X27.479 Y57.148
G01 F600 X27.669 Y57.063
G01 F600 X27.874 Y57.020
G01 F600 X28.082 Y57.020
G01 F600 X28.287 Y57.063
G01 F600 X28.478 Y57.148
G01 F600 X28.647 Y57.271
G01 F600 X28.786 Y57.426
G01 F600 X28.891 Y57.607
G01 F600 X28.955 Y57.806
G01 F600 X28.977 Y58.014
G01 F600 X28.955 Y58.221
G01 F600 X28.891 Y58.420
G01 F600 X28.786 Y58.601
G01 F600 X28.647 Y58.756
G01 F600 X28.478 Y58.879
G01 F600 X28.287 Y58.964
G01 F600 X28.082 Y59.007
G01 F600 X27.874 Y59.007
G00 F3000 Z3.000
G00 F3000 X32.954 Y59.007
G00 F1500 Z0
G01 F600 Z-0.200
G01 F600 X32.749 Y58.964
G01 F600 X32.559 Y58.879
G01 F600 X32.390 Y58.756
G01 F600 X32.250 Y58.601
G01 F600 X32.145 Y58.420
G01 F600 X32.081 Y58.221
G01 F600 X32.059 Y58.014
G01 F600 X32.081 Y57.806
G01 F600 X32.145 Y57.607
G01 F600 X32.250 Y57.426
G01 F600 X32.390 Y57.271
G01 F600 X32.559 Y57.148
G01 F600 X32.749 Y57.063
G01 F600 X32.954 Y57.020
G01 F600 X33.163 Y57.020
G01 F600 X33.367 Y57.063
G01 F600 X33.558 Y57.148
G01 F600 X33.727 Y57.271
G01 F600 X33.866 Y57.426
G01 F600 X33.971 Y57.607
G01 F600 X34.035 Y57.806
G01 F600 X34.057 Y58.014
G01 F600 X34.035 Y58.221
G01 F600 X33.971 Y58.420
G01 F600 X33.866 Y58.601
G01 F600 X33.727 Y58.756
G01 F600 X33.558 Y58.879
G01 F600 X33.367 Y58.964
G01 F600 X33.163 Y59.007
G01 F600 X32.954 Y59.007
G00 F3000 Z3.000
G00 F3000 X45.654 Y59.007
G00 F1500 Z0
G01 F600 Z-0.200
G01 F600 X45.449 Y58.964
G01 F600 X45.259 Y58.879
G01 F600 X45.090 Y58.756
G01 F600 X44.950 Y58.601
G01 F600 X44.845 Y58.420
G01 F600 X44.781 Y58.221
G01 F600 X44.759 Y58.014
G01 F600 X44.781 Y57.806
G01 F600 X44.845 Y57.607
G01 F600 X44.950 Y57.426
G01 F600 X45.090 Y57.271
G01 F600 X45.259 Y57.148
G01 F600 X45.449 Y57.063
G01 F600 X45.654 Y57.020
G01 F600 X45.863 Y57.020
G01 F600 X46.067 Y57.063
G01 F600 X46.258 Y57.148
G01 F600 X46.427 Y57.271
G01 F600 X46.566 Y57.426
G01 F600 X46.671 Y57.607
G01 F600 X46.735 Y57.806
G01 F600 X46.757 Y58.014
G01 F600 X46.735 Y58.221
G01 F600 X46.671 Y58.420
G01 F600 X46.566 Y58.601
G01 F600 X46.427 Y58.756
G01 F600 X46.258 Y58.879
G01 F600 X46.067 Y58.964
G01 F600 X45.863 Y59.007
G01 F600 X45.654 Y59.007
G00 F3000 Z3.000
G00 F3000 X15.174 Y59.007
G00 F1500 Z0
G01 F600 Z-0.200
G01 F600 X14.969 Y58.964
G01 F600 X14.779 Y58.879
G01 F600 X14.610 Y58.756
G01 F600 X14.470 Y58.601
G01 F600 X14.365 Y58.420
G01 F600 X14.301 Y58.221
G01 F600 X14.279 Y58.014
G01 F600 X14.301 Y57.806
G01 F600 X14.365 Y57.607
G01 F600 X14.470 Y57.426
G01 F600 X14.610 Y57.271
G01 F600 X14.779 Y57.148
G01 F600 X14.969 Y57.063
G01 F600 X15.174 Y57.020
G01 F600 X15.383 Y57.020
G01 F600 X15.587 Y57.063
G01 F600 X15.778 Y57.148
G01 F600 X15.947 Y57.271
G01 F600 X16.086 Y57.426
G01 F600 X16.191 Y57.607
G01 F600 X16.255 Y57.806
G01 F600 X16.277 Y58.014
G01 F600 X16.255 Y58.221
G01 F600 X16.191 Y58.420
G01 F600 X16.086 Y58.601
G01 F600 X15.947 Y58.756
G01 F600 X15.778 Y58.879
G01 F600 X15.587 Y58.964
G01 F600 X15.383 Y59.007
G01 F600 X15.174 Y59.007
G00 F3000 Z3.000
G00 F3000 X30.414 Y59.007
G00 F1500 Z0
G01 F600 Z-0.200
G01 F600 X30.210 Y58.964
G01 F600 X30.019 Y58.879
G01 F600 X29.850 Y58.756
G01 F600 X29.710 Y58.601
G01 F600 X29.606 Y58.420
G01 F600 X29.541 Y58.221
G01 F600 X29.519 Y58.014
G01 F600 X29.541 Y57.806
G01 F600 X29.606 Y57.607
G01 F600 X29.710 Y57.427
G01 F600 X29.850 Y57.271
G01 F600 X30.019 Y57.149
G01 F600 X30.210 Y57.064
G01 F600 X30.414 Y57.020
G01 F600 X30.623 Y57.020
G01 F600 X30.827 Y57.064
G01 F600 X31.018 Y57.149
G01 F600 X31.186 Y57.271
G01 F600 X31.326 Y57.427
G01 F600 X31.431 Y57.607
G01 F600 X31.495 Y57.806
G01 F600 X31.517 Y58.014
G01 F600 X31.495 Y58.221
G01 F600 X31.431 Y58.420
G01 F600 X31.326 Y58.601
G01 F600 X31.186 Y58.756
G01 F600 X31.018 Y58.879
G01 F600 X30.827 Y58.964
G01 F600 X30.623 Y59.007
G01 F600 X30.414 Y59.007
G00 F3000 Z3.000
G00 F3000 X35.494 Y59.007
G00 F1500 Z0
G01 F600 Z-0.200
G01 F600 X35.290 Y58.964
G01 F600 X35.099 Y58.879
G01 F600 X34.930 Y58.756
G01 F600 X34.790 Y58.601
G01 F600 X34.686 Y58.420
G01 F600 X34.621 Y58.221
G01 F600 X34.599 Y58.014
G01 F600 X34.621 Y57.806
G01 F600 X34.686 Y57.607
G01 F600 X34.790 Y57.427
G01 F600 X34.930 Y57.271
G01 F600 X35.099 Y57.149
G01 F600 X35.290 Y57.064
G01 F600 X35.494 Y57.020
G01 F600 X35.703 Y57.020
G01 F600 X35.907 Y57.064
G01 F600 X36.098 Y57.149
G01 F600 X36.266 Y57.271
G01 F600 X36.406 Y57.427
G01 F600 X36.511 Y57.607
G01 F600 X36.575 Y57.806
G01 F600 X36.597 Y58.014
G01 F600 X36.575 Y58.221
G01 F600 X36.511 Y58.420
G01 F600 X36.406 Y58.601
G01 F600 X36.266 Y58.756
G01 F600 X36.098 Y58.879
G01 F600 X35.907 Y58.964
G01 F600 X35.703 Y59.007
G01 F600 X35.494 Y59.007
G00 F3000 Z3.000
G00 F3000 X20.254 Y59.007
G00 F1500 Z0
G01 F600 Z-0.200
G01 F600 X20.050 Y58.964
G01 F600 X19.859 Y58.879
G01 F600 X19.690 Y58.756
G01 F600 X19.550 Y58.601
G01 F600 X19.446 Y58.420
G01 F600 X19.381 Y58.221
G01 F600 X19.359 Y58.014
G01 F600 X19.381 Y57.806
G01 F600 X19.446 Y57.607
G01 F600 X19.550 Y57.427
G01 F600 X19.690 Y57.271
G01 F600 X19.859 Y57.149
G01 F600 X20.050 Y57.064
G01 F600 X20.254 Y57.020
G01 F600 X20.463 Y57.020
G01 F600 X20.667 Y57.064
G01 F600 X20.858 Y57.149
G01 F600 X21.026 Y57.271
G01 F600 X21.166 Y57.427
G01 F600 X21.271 Y57.607
G01 F600 X21.335 Y57.806
G01 F600 X21.357 Y58.014
G01 F600 X21.335 Y58.221
G01 F600 X21.271 Y58.420
G01 F600 X21.166 Y58.601
G01 F600 X21.026 Y58.756
G01 F600 X20.858 Y58.879
G01 F600 X20.667 Y58.964
G01 F600 X20.463 Y59.007
G01 F600 X20.254 Y59.007
G00 F3000 Z3.000
G00 F3000 X17.714 Y59.007
G00 F1500 Z0
G01 F600 Z-0.200
G01 F600 X17.509 Y58.964
G01 F600 X17.319 Y58.879
G01 F600 X17.150 Y58.756
G01 F600 X17.010 Y58.601
G01 F600 X16.906 Y58.420
G01 F600 X16.841 Y58.221
G01 F600 X16.819 Y58.014
G01 F600 X16.841 Y57.806
G01 F600 X16.906 Y57.607
G01 F600 X17.010 Y57.427
G01 F600 X17.150 Y57.271
G01 F600 X17.319 Y57.149
G01 F600 X17.509 Y57.064
G01 F600 X17.714 Y57.020
G01 F600 X17.922 Y57.020
G01 F600 X18.127 Y57.064
G01 F600 X18.318 Y57.149
G01 F600 X18.486 Y57.271
G01 F600 X18.626 Y57.427
G01 F600 X18.730 Y57.607
G01 F600 X18.795 Y57.806
G01 F600 X18.817 Y58.014
G01 F600 X18.795 Y58.221
G01 F600 X18.730 Y58.420
G01 F600 X18.626 Y58.601
G01 F600 X18.486 Y58.756
G01 F600 X18.318 Y58.879
G01 F600 X18.127 Y58.964
G01 F600 X17.922 Y59.007
G01 F600 X17.714 Y59.007
G00 F3000 Z3.000
G00 F3000 X25.334 Y59.007
G00 F1500 Z0
G01 F600 Z-0.200
G01 F600 X25.130 Y58.964
G01 F600 X24.939 Y58.879
G01 F600 X24.770 Y58.756
G01 F600 X24.630 Y58.601
G01 F600 X24.526 Y58.420
G01 F600 X24.461 Y58.221
G01 F600 X24.439 Y58.014
G01 F600 X24.461 Y57.806
G01 F600 X24.526 Y57.607
G01 F600 X24.630 Y57.427
G01 F600 X24.770 Y57.271
G01 F600 X24.939 Y57.149
G01 F600 X25.130 Y57.064
G01 F600 X25.334 Y57.020
G01 F600 X25.543 Y57.020
G01 F600 X25.747 Y57.064
G01 F600 X25.938 Y57.149
G01 F600 X26.106 Y57.271
G01 F600 X26.246 Y57.427
G01 F600 X26.351 Y57.607
G01 F600 X26.415 Y57.806
G01 F600 X26.437 Y58.014
G01 F600 X26.415 Y58.221
G01 F600 X26.351 Y58.420
G01 F600 X26.246 Y58.601
G01 F600 X26.106 Y58.756
G01 F600 X25.938 Y58.879
G01 F600 X25.747 Y58.964
G01 F600 X25.543 Y59.007
G01 F600 X25.334 Y59.007
G00 F3000 Z3.000
G00 F3000 X22.794 Y59.007
G00 F1500 Z0
G01 F600 Z-0.200
G01 F600 X22.590 Y58.964
G01 F600 X22.399 Y58.879
G01 F600 X22.230 Y58.756
G01 F600 X22.090 Y58.601
G01 F600 X21.986 Y58.420
G01 F600 X21.921 Y58.221
G01 F600 X21.899 Y58.014
G01 F600 X21.921 Y57.806
G01 F600 X21.986 Y57.607
G01 F600 X22.090 Y57.427
G01 F600 X22.230 Y57.271
G01 F600 X22.399 Y57.149
G01 F600 X22.590 Y57.064
G01 F600 X22.794 Y57.020
G01 F600 X23.003 Y57.020
G01 F600 X23.207 Y57.064
G01 F600 X23.398 Y57.149
G01 F600 X23.566 Y57.271
G01 F600 X23.706 Y57.427
G01 F600 X23.811 Y57.607
G01 F600 X23.875 Y57.806
G01 F600 X23.897 Y58.014
G01 F600 X23.875 Y58.221
G01 F600 X23.811 Y58.420
G01 F600 X23.706 Y58.601
G01 F600 X23.566 Y58.756
G01 F600 X23.398 Y58.879
G01 F600 X23.207 Y58.964
G01 F600 X23.003 Y59.007
G01 F600 X22.794 Y59.007
G00 F3000 Z3.000
G00 F3000 X50.734 Y59.007
G00 F1500 Z0
G01 F600 Z-0.200
G01 F600 X50.530 Y58.964
G01 F600 X50.339 Y58.879
G01 F600 X50.170 Y58.756
G01 F600 X50.030 Y58.601
G01 F600 X49.926 Y58.420
G01 F600 X49.861 Y58.221
G01 F600 X49.839 Y58.014
G01 F600 X49.861 Y57.806
G01 F600 X49.926 Y57.607
G01 F600 X50.030 Y57.427
G01 F600 X50.170 Y57.271
G01 F600 X50.339 Y57.149
G01 F600 X50.530 Y57.064
G01 F600 X50.734 Y57.020
G01 F600 X50.943 Y57.020
G01 F600 X51.147 Y57.064
G01 F600 X51.338 Y57.149
G01 F600 X51.506 Y57.271
G01 F600 X51.646 Y57.427
G01 F600 X51.751 Y57.607
G01 F600 X51.815 Y57.806
G01 F600 X51.837 Y58.014
G01 F600 X51.815 Y58.221
G01 F600 X51.751 Y58.420
G01 F600 X51.646 Y58.601
G01 F600 X51.506 Y58.756
G01 F600 X51.338 Y58.879
G01 F600 X51.147 Y58.964
G01 F600 X50.943 Y59.007
G01 F600 X50.734 Y59.007
G00 F3000 Z3.000
G00 F3000 X48.194 Y59.007
G00 F1500 Z0
G01 F600 Z-0.200
G01 F600 X47.989 Y58.964
G01 F600 X47.799 Y58.879
G01 F600 X47.630 Y58.756
G01 F600 X47.490 Y58.601
G01 F600 X47.386 Y58.420
G01 F600 X47.321 Y58.221
G01 F600 X47.299 Y58.014
G01 F600 X47.321 Y57.806
G01 F600 X47.386 Y57.607
G01 F600 X47.490 Y57.427
G01 F600 X47.630 Y57.271
G01 F600 X47.799 Y57.149
G01 F600 X47.989 Y57.064
G01 F600 X48.194 Y57.020
G01 F600 X48.403 Y57.020
G01 F600 X48.607 Y57.064
G01 F600 X48.797 Y57.149
G01 F600 X48.966 Y57.271
G01 F600 X49.106 Y57.427
G01 F600 X49.211 Y57.607
G01 F600 X49.275 Y57.806
G01 F600 X49.297 Y58.014
G01 F600 X49.275 Y58.221
G01 F600 X49.211 Y58.420
G01 F600 X49.106 Y58.601
G01 F600 X48.966 Y58.756
G01 F600 X48.797 Y58.879
G01 F600 X48.607 Y58.964
G01 F600 X48.403 Y59.007
G01 F600 X48.194 Y59.007
G00 F3000 Z3.000
G00 F3000 X55.814 Y59.007
G00 F1500 Z0
G01 F600 Z-0.200
G01 F600 X55.610 Y58.964
G01 F600 X55.419 Y58.879
G01 F600 X55.250 Y58.756
G01 F600 X55.110 Y58.601
G01 F600 X55.006 Y58.420
G01 F600 X54.941 Y58.221
G01 F600 X54.919 Y58.014
G01 F600 X54.941 Y57.806
G01 F600 X55.006 Y57.607
G01 F600 X55.110 Y57.427
G01 F600 X55.250 Y57.271
G01 F600 X55.419 Y57.149
G01 F600 X55.610 Y57.064
G01 F600 X55.814 Y57.020
G01 F600 X56.023 Y57.020
G01 F600 X56.227 Y57.064
G01 F600 X56.290 Y57.092
G01 F600 X58.068 Y55.336
G01 F600 X58.068 Y53.322
G01 F600 X53.541 Y53.322
G01 F600 X52.168 Y54.695
G01 F600 X51.769 Y55.124
G01 F600 X51.815 Y55.266
G01 F600 X51.837 Y55.474
G01 F600 X51.815 Y55.681
G01 F600 X51.751 Y55.880
G01 F600 X51.646 Y56.061
G01 F600 X51.506 Y56.216
G01 F600 X51.338 Y56.339
G01 F600 X51.147 Y56.424
G01 F600 X50.943 Y56.467
G01 F600 X50.734 Y56.467
G01 F600 X50.530 Y56.424
G01 F600 X50.339 Y56.339
G01 F600 X50.170 Y56.216
G01 F600 X50.030 Y56.061
G01 F600 X49.926 Y55.880
G01 F600 X49.861 Y55.681
G01 F600 X49.839 Y55.474
G01 F600 X49.861 Y55.266
G01 F600 X49.926 Y55.067
G01 F600 X50.030 Y54.887
G01 F600 X50.170 Y54.731
G01 F600 X50.339 Y54.609
G01 F600 X50.530 Y54.524
G01 F600 X50.734 Y54.480
G01 F600 X50.943 Y54.480
G01 F600 X51.147 Y54.524
G01 F600 X51.209 Y54.552
G01 F600 X52.988 Y52.773
G01 F600 X52.988 Y45.500
G01 F600 X50.547 Y43.059
G01 F600 X50.497 Y43.003
G01 F600 X50.456 Y42.933
G01 F600 X50.431 Y42.855
G01 F600 X50.423 Y42.778
G01 F600 X50.447 Y36.096
G01 F600 X50.325 Y36.042
G01 F600 X50.152 Y35.916
G01 F600 X50.008 Y35.756
G01 F600 X49.901 Y35.571
G01 F600 X49.835 Y35.367
G01 F600 X49.813 Y35.154
G01 F600 X49.835 Y34.940
G01 F600 X49.901 Y34.736
G01 F600 X50.008 Y34.551
G01 F600 X50.152 Y34.392
G01 F600 X50.325 Y34.265
G01 F600 X50.521 Y34.178
G01 F600 X50.731 Y34.134
G01 F600 X50.945 Y34.134
G01 F600 X51.155 Y34.178
G01 F600 X51.351 Y34.265
G01 F600 X51.524 Y34.392
G01 F600 X51.668 Y34.551
G01 F600 X51.739 Y34.673
G01 F600 X52.402 Y34.604
G01 F600 X52.441 Y34.483
G01 F600 X52.548 Y34.297
G01 F600 X52.692 Y34.138
G01 F600 X52.865 Y34.011
G01 F600 X53.061 Y33.924
G01 F600 X53.271 Y33.880
G01 F600 X53.485 Y33.880
G01 F600 X53.695 Y33.924
G01 F600 X53.891 Y34.011
G01 F600 X54.064 Y34.138
G01 F600 X54.208 Y34.297
G01 F600 X54.315 Y34.483
G01 F600 X54.381 Y34.686
G01 F600 X54.404 Y34.900
G01 F600 X54.381 Y35.113
G01 F600 X54.315 Y35.317
G01 F600 X54.208 Y35.502
G01 F600 X54.064 Y35.662
G01 F600 X53.891 Y35.788
G01 F600 X53.695 Y35.875
G01 F600 X53.485 Y35.920
G01 F600 X53.271 Y35.920
G01 F600 X53.061 Y35.875
G01 F600 X52.865 Y35.788
G01 F600 X52.692 Y35.662
G01 F600 X52.548 Y35.502
G01 F600 X52.478 Y35.380
G01 F600 X51.814 Y35.450
G01 F600 X51.775 Y35.571
G01 F600 X51.668 Y35.756
G01 F600 X51.524 Y35.916
G01 F600 X51.351 Y36.042
G01 F600 X51.228 Y36.097
G01 F600 X51.203 Y42.613
G01 F600 X53.644 Y45.054
G01 F600 X53.694 Y45.109
G01 F600 X53.735 Y45.180
G01 F600 X53.760 Y45.258
G01 F600 X53.768 Y45.335
G01 F600 X53.768 Y52.545
G01 F600 X58.499 Y52.545
G01 F600 X58.579 Y52.562
G01 F600 X58.653 Y52.595
G01 F600 X58.719 Y52.643
G01 F600 X58.774 Y52.704
G01 F600 X58.815 Y52.775
G01 F600 X58.840 Y52.852
G01 F600 X58.848 Y52.929
G01 F600 X58.848 Y55.504
G01 F600 X58.840 Y55.580
G01 F600 X58.815 Y55.658
G01 F600 X58.774 Y55.729
G01 F600 X58.724 Y55.784
G01 F600 X56.849 Y57.666
G01 F600 X56.895 Y57.806
G01 F600 X56.917 Y58.014
G01 F600 X56.895 Y58.221
G01 F600 X56.831 Y58.420
G01 F600 X56.726 Y58.601
G01 F600 X56.586 Y58.756
G01 F600 X56.418 Y58.879
G01 F600 X56.227 Y58.964
G01 F600 X56.023 Y59.007
G01 F600 X55.814 Y59.007
G00 F3000 Z3.000
G00 F3000 X53.274 Y59.007
G00 F1500 Z0
G01 F600 Z-0.200
G01 F600 X53.070 Y58.964
G01 F600 X52.879 Y58.879
G01 F600 X52.710 Y58.756
G01 F600 X52.570 Y58.601
G01 F600 X52.466 Y58.420
G01 F600 X52.401 Y58.221
G01 F600 X52.379 Y58.014
G01 F600 X52.401 Y57.806
G01 F600 X52.466 Y57.607
G01 F600 X52.570 Y57.427
G01 F600 X52.710 Y57.271
G01 F600 X52.879 Y57.149
G01 F600 X53.070 Y57.064
G01 F600 X53.274 Y57.020
G01 F600 X53.483 Y57.020
G01 F600 X53.687 Y57.064
G01 F600 X53.878 Y57.149
G01 F600 X54.046 Y57.271
G01 F600 X54.186 Y57.427
G01 F600 X54.291 Y57.607
G01 F600 X54.355 Y57.806
G01 F600 X54.377 Y58.014
G01 F600 X54.355 Y58.221
G01 F600 X54.291 Y58.420
G01 F600 X54.186 Y58.601
G01 F600 X54.046 Y58.756
G01 F600 X53.878 Y58.879
G01 F600 X53.687 Y58.964
G01 F600 X53.483 Y59.007
G01 F600 X53.274 Y59.007
G00 F3000 Z3.000
G00 F3000 X40.574 Y59.007
G00 F1500 Z0
G01 F600 Z-0.200
G01 F600 X40.370 Y58.964
G01 F600 X40.179 Y58.879
G01 F600 X40.010 Y58.756
G01 F600 X39.870 Y58.601
G01 F600 X39.766 Y58.420
G01 F600 X39.701 Y58.221
G01 F600 X39.679 Y58.014
G01 F600 X39.701 Y57.806
G01 F600 X39.766 Y57.607
G01 F600 X39.870 Y57.427
G01 F600 X40.010 Y57.271
G01 F600 X40.179 Y57.149
G01 F600 X40.370 Y57.064
G01 F600 X40.574 Y57.020
G01 F600 X40.782 Y57.020
G01 F600 X40.987 Y57.064
G01 F600 X41.178 Y57.149
G01 F600 X41.346 Y57.271
G01 F600 X41.486 Y57.427
G01 F600 X41.590 Y57.607
G01 F600 X41.655 Y57.806
G01 F600 X41.677 Y58.014
G01 F600 X41.655 Y58.221
G01 F600 X41.590 Y58.420
G01 F600 X41.486 Y58.601
G01 F600 X41.346 Y58.756
G01 F600 X41.178 Y58.879
G01 F600 X40.987 Y58.964
G01 F600 X40.782 Y59.007
G01 F600 X40.574 Y59.007
G00 F3000 Z3.000
G00 F3000 X38.034 Y59.007
G00 F1500 Z0
G01 F600 Z-0.200
G01 F600 X37.830 Y58.964
G01 F600 X37.639 Y58.879
G01 F600 X37.470 Y58.756
G01 F600 X37.330 Y58.601
G01 F600 X37.226 Y58.420
G01 F600 X37.161 Y58.221
G01 F600 X37.139 Y58.014
G01 F600 X37.161 Y57.806
G01 F600 X37.226 Y57.607
G01 F600 X37.330 Y57.427
G01 F600 X37.470 Y57.271
G01 F600 X37.639 Y57.149
G01 F600 X37.830 Y57.064
G01 F600 X38.034 Y57.020
G01 F600 X38.242 Y57.020
G01 F600 X38.447 Y57.064
G01 F600 X38.638 Y57.149
G01 F600 X38.806 Y57.271
G01 F600 X38.946 Y57.427
G01 F600 X39.050 Y57.607
G01 F600 X39.115 Y57.806
G01 F600 X39.137 Y58.014
G01 F600 X39.115 Y58.221
G01 F600 X39.050 Y58.420
G01 F600 X38.946 Y58.601
G01 F600 X38.806 Y58.756
G01 F600 X38.638 Y58.879
G01 F600 X38.447 Y58.964
G01 F600 X38.242 Y59.007
G01 F600 X38.034 Y59.007
G00 F3000 Z3.000
G00 F3000 X43.114 Y59.007
G00 F1500 Z0
G01 F600 Z-0.200
G01 F600 X42.910 Y58.964
G01 F600 X42.719 Y58.879
G01 F600 X42.550 Y58.756
G01 F600 X42.410 Y58.601
G01 F600 X42.306 Y58.420
G01 F600 X42.241 Y58.221
G01 F600 X42.219 Y58.014
G01 F600 X42.241 Y57.806
G01 F600 X42.306 Y57.607
G01 F600 X42.410 Y57.427
G01 F600 X42.550 Y57.271
G01 F600 X42.719 Y57.149
G01 F600 X42.910 Y57.064
G01 F600 X43.114 Y57.020
G01 F600 X43.323 Y57.020
G01 F600 X43.527 Y57.064
G01 F600 X43.718 Y57.149
G01 F600 X43.886 Y57.271
G01 F600 X44.026 Y57.427
G01 F600 X44.131 Y57.607
G01 F600 X44.195 Y57.806
G01 F600 X44.217 Y58.014
G01 F600 X44.195 Y58.221
G01 F600 X44.131 Y58.420
G01 F600 X44.026 Y58.601
G01 F600 X43.886 Y58.756
G01 F600 X43.718 Y58.879
G01 F600 X43.527 Y58.964
G01 F600 X43.323 Y59.007
G01 F600 X43.114 Y59.007
G00 F3000 Z3.000
G00 F3000 X10.094 Y59.007
G00 F1500 Z0
G01 F600 Z-0.200
G01 F600 X9.889 Y58.964
G01 F600 X9.699 Y58.879
G01 F600 X9.530 Y58.756
G01 F600 X9.390 Y58.601
G01 F600 X9.286 Y58.420
G01 F600 X9.221 Y58.221
G01 F600 X9.199 Y58.014
G01 F600 X9.221 Y57.806
G01 F600 X9.286 Y57.607
G01 F600 X9.390 Y57.427
G01 F600 X9.530 Y57.271
G01 F600 X9.699 Y57.149
G01 F600 X9.889 Y57.064
G01 F600 X10.094 Y57.020
G01 F600 X10.303 Y57.020
G01 F600 X10.507 Y57.064
G01 F600 X10.697 Y57.149
G01 F600 X10.866 Y57.271
G01 F600 X11.006 Y57.427
G01 F600 X11.111 Y57.607
G01 F600 X11.175 Y57.806
G01 F600 X11.197 Y58.014
G01 F600 X11.175 Y58.221
G01 F600 X11.111 Y58.420
G01 F600 X11.006 Y58.601
G01 F600 X10.866 Y58.756
G01 F600 X10.697 Y58.879
G01 F600 X10.507 Y58.964
G01 F600 X10.303 Y59.007
G01 F600 X10.094 Y59.007
G00 F3000 Z3.000
G00 F3000 X7.554 Y59.007
G00 F1500 Z0
G01 F600 Z-0.200
G01 F600 X7.349 Y58.964
G01 F600 X7.159 Y58.879
G01 F600 X6.990 Y58.756
G01 F600 X6.850 Y58.601
G01 F600 X6.746 Y58.420
G01 F600 X6.681 Y58.221
G01 F600 X6.659 Y58.014
G01 F600 X6.681 Y57.806
G01 F600 X6.746 Y57.607
G01 F600 X6.850 Y57.427
G01 F600 X6.990 Y57.271
G01 F600 X7.159 Y57.149
G01 F600 X7.349 Y57.064
G01 F600 X7.554 Y57.020
G01 F600 X7.763 Y57.020
G01 F600 X7.967 Y57.064
G01 F600 X8.158 Y57.149
G01 F600 X8.326 Y57.271
G01 F600 X8.466 Y57.427
G01 F600 X8.571 Y57.607
G01 F600 X8.635 Y57.806
G01 F600 X8.657 Y58.014
G01 F600 X8.635 Y58.221
G01 F600 X8.571 Y58.420
G01 F600 X8.466 Y58.601
G01 F600 X8.326 Y58.756
G01 F600 X8.158 Y58.879
G01 F600 X7.967 Y58.964
G01 F600 X7.763 Y59.007
G01 F600 X7.554 Y59.007
G00 F3000 Z3.000
G00 F3000 X12.634 Y59.007
G00 F1500 Z0
G01 F600 Z-0.200
G01 F600 X12.430 Y58.964
G01 F600 X12.239 Y58.879
G01 F600 X12.070 Y58.756
G01 F600 X11.930 Y58.601
G01 F600 X11.826 Y58.420
G01 F600 X11.761 Y58.221
G01 F600 X11.739 Y58.014
G01 F600 X11.761 Y57.806
G01 F600 X11.826 Y57.607
G01 F600 X11.930 Y57.427
G01 F600 X12.070 Y57.271
G01 F600 X12.239 Y57.149
G01 F600 X12.430 Y57.064
G01 F600 X12.634 Y57.020
G01 F600 X12.843 Y57.020
G01 F600 X13.047 Y57.064
G01 F600 X13.238 Y57.149
G01 F600 X13.406 Y57.271
G01 F600 X13.546 Y57.427
G01 F600 X13.651 Y57.607
G01 F600 X13.715 Y57.806
G01 F600 X13.737 Y58.014
G01 F600 X13.715 Y58.221
G01 F600 X13.651 Y58.420
G01 F600 X13.546 Y58.601
G01 F600 X13.406 Y58.756
G01 F600 X13.238 Y58.879
G01 F600 X13.047 Y58.964
G01 F600 X12.843 Y59.007
G01 F600 X12.634 Y59.007
G00 F3000 Z3.000
G00 F3000 X45.654 Y56.467
G00 F1500 Z0
G01 F600 Z-0.200
G01 F600 X45.449 Y56.424
G01 F600 X45.259 Y56.339
G01 F600 X45.090 Y56.216
G01 F600 X44.950 Y56.061
G01 F600 X44.845 Y55.880
G01 F600 X44.781 Y55.681
G01 F600 X44.759 Y55.474
G01 F600 X44.781 Y55.266
G01 F600 X44.845 Y55.067
G01 F600 X44.950 Y54.886
G01 F600 X45.090 Y54.731
G01 F600 X45.259 Y54.608
G01 F600 X45.368 Y54.560
G01 F600 X45.368 Y42.769
G01 F600 X45.376 Y42.692
G01 F600 X45.401 Y42.615
G01 F600 X45.442 Y42.544
G01 F600 X45.492 Y42.489
G01 F600 X47.331 Y40.598
G01 F600 X47.282 Y40.450
G01 F600 X47.260 Y40.234
G01 F600 X47.282 Y40.018
G01 F600 X47.350 Y39.811
G01 F600 X47.458 Y39.623
G01 F600 X47.603 Y39.462
G01 F600 X47.779 Y39.334
G01 F600 X47.977 Y39.246
G01 F600 X48.190 Y39.201
G01 F600 X48.407 Y39.201
G01 F600 X48.619 Y39.246
G01 F600 X48.817 Y39.334
G01 F600 X48.993 Y39.462
G01 F600 X49.138 Y39.623
G01 F600 X49.247 Y39.811
G01 F600 X49.314 Y40.018
G01 F600 X49.336 Y40.234
G01 F600 X49.314 Y40.450
G01 F600 X49.247 Y40.656
G01 F600 X49.138 Y40.844
G01 F600 X48.993 Y41.005
G01 F600 X48.817 Y41.133
G01 F600 X48.619 Y41.221
G01 F600 X48.407 Y41.266
G01 F600 X48.190 Y41.266
G01 F600 X47.977 Y41.221
G01 F600 X47.881 Y41.178
G01 F600 X46.148 Y42.933
G01 F600 X46.148 Y54.560
G01 F600 X46.258 Y54.608
G01 F600 X46.427 Y54.731
G01 F600 X46.566 Y54.886
G01 F600 X46.671 Y55.067
G01 F600 X46.735 Y55.266
G01 F600 X46.757 Y55.474
G01 F600 X46.735 Y55.681
G01 F600 X46.671 Y55.880
G01 F600 X46.566 Y56.061
G01 F600 X46.427 Y56.216
G01 F600 X46.258 Y56.339
G01 F600 X46.067 Y56.424
G01 F600 X45.863 Y56.467
G01 F600 X45.654 Y56.467
G00 F3000 Z3.000
G00 F3000 X32.954 Y56.467
G00 F1500 Z0
G01 F600 Z-0.200
G01 F600 X32.749 Y56.424
G01 F600 X32.559 Y56.339
G01 F600 X32.390 Y56.216
G01 F600 X32.250 Y56.061
G01 F600 X32.145 Y55.880
G01 F600 X32.081 Y55.681
G01 F600 X32.059 Y55.474
G01 F600 X32.081 Y55.266
G01 F600 X32.145 Y55.067
G01 F600 X32.250 Y54.886
G01 F600 X32.390 Y54.731
G01 F600 X32.559 Y54.608
G01 F600 X32.749 Y54.523
G01 F600 X32.954 Y54.480
G01 F600 X33.163 Y54.480
G01 F600 X33.367 Y54.523
G01 F600 X33.558 Y54.608
G01 F600 X33.727 Y54.731
G01 F600 X33.866 Y54.886
G01 F600 X33.971 Y55.067
G01 F600 X34.035 Y55.266
G01 F600 X34.057 Y55.474
G01 F600 X34.035 Y55.681
G01 F600 X33.971 Y55.880
G01 F600 X33.866 Y56.061
G01 F600 X33.727 Y56.216
G01 F600 X33.558 Y56.339
G01 F600 X33.367 Y56.424
G01 F600 X33.163 Y56.467
G01 F600 X32.954 Y56.467
G00 F3000 Z3.000
G00 F3000 X27.874 Y56.467
G00 F1500 Z0
G01 F600 Z-0.200
G01 F600 X27.669 Y56.424
G01 F600 X27.479 Y56.339
G01 F600 X27.310 Y56.216
G01 F600 X27.170 Y56.061
G01 F600 X27.065 Y55.880
G01 F600 X27.001 Y55.681
G01 F600 X26.979 Y55.474
G01 F600 X27.001 Y55.266
G01 F600 X27.065 Y55.067
G01 F600 X27.170 Y54.886
G01 F600 X27.310 Y54.731
G01 F600 X27.479 Y54.608
G01 F600 X27.669 Y54.523
G01 F600 X27.874 Y54.480
G01 F600 X28.082 Y54.480
G01 F600 X28.287 Y54.523
G01 F600 X28.478 Y54.608
G01 F600 X28.647 Y54.731
G01 F600 X28.786 Y54.886
G01 F600 X28.891 Y55.067
G01 F600 X28.955 Y55.266
G01 F600 X28.977 Y55.474
G01 F600 X28.955 Y55.681
G01 F600 X28.891 Y55.880
G01 F600 X28.786 Y56.061
G01 F600 X28.647 Y56.216
G01 F600 X28.478 Y56.339
G01 F600 X28.287 Y56.424
G01 F600 X28.082 Y56.467
G01 F600 X27.874 Y56.467
G00 F3000 Z3.000
G00 F3000 X15.174 Y56.467
G00 F1500 Z0
G01 F600 Z-0.200
G01 F600 X14.969 Y56.424
G01 F600 X14.779 Y56.339
G01 F600 X14.610 Y56.216
G01 F600 X14.470 Y56.061
G01 F600 X14.365 Y55.880
G01 F600 X14.301 Y55.681
G01 F600 X14.279 Y55.474
G01 F600 X14.301 Y55.266
G01 F600 X14.365 Y55.067
G01 F600 X14.470 Y54.886
G01 F600 X14.610 Y54.731
G01 F600 X14.779 Y54.608
G01 F600 X14.969 Y54.523
G01 F600 X15.174 Y54.480
G01 F600 X15.383 Y54.480
G01 F600 X15.587 Y54.523
G01 F600 X15.778 Y54.608
G01 F600 X15.947 Y54.731
G01 F600 X16.086 Y54.886
G01 F600 X16.191 Y55.067
G01 F600 X16.255 Y55.266
G01 F600 X16.277 Y55.474
G01 F600 X16.255 Y55.681
G01 F600 X16.191 Y55.880
G01 F600 X16.086 Y56.061
G01 F600 X15.947 Y56.216
G01 F600 X15.778 Y56.339
G01 F600 X15.587 Y56.424
G01 F600 X15.383 Y56.467
G01 F600 X15.174 Y56.467
G00 F3000 Z3.000
G00 F3000 X43.114 Y56.467
G00 F1500 Z0
G01 F600 Z-0.200
G01 F600 X42.910 Y56.424
G01 F600 X42.719 Y56.339
G01 F600 X42.550 Y56.216
G01 F600 X42.410 Y56.061
G01 F600 X42.306 Y55.880
G01 F600 X42.241 Y55.681
G01 F600 X42.219 Y55.474
G01 F600 X42.241 Y55.266
G01 F600 X42.306 Y55.067
G01 F600 X42.410 Y54.887
G01 F600 X42.550 Y54.731
G01 F600 X42.719 Y54.609
G01 F600 X42.910 Y54.524
G01 F600 X43.114 Y54.480
G01 F600 X43.323 Y54.480
G01 F600 X43.527 Y54.524
G01 F600 X43.718 Y54.609
G01 F600 X43.886 Y54.731
G01 F600 X44.026 Y54.887
G01 F600 X44.131 Y55.067
G01 F600 X44.195 Y55.266
G01 F600 X44.217 Y55.474
G01 F600 X44.195 Y55.681
G01 F600 X44.131 Y55.880
G01 F600 X44.026 Y56.061
G01 F600 X43.886 Y56.216
G01 F600 X43.718 Y56.339
G01 F600 X43.527 Y56.424
G01 F600 X43.323 Y56.467
G01 F600 X43.114 Y56.467
G00 F3000 Z3.000
G00 F3000 X38.034 Y56.467
G00 F1500 Z0
G01 F600 Z-0.200
G01 F600 X37.830 Y56.424
G01 F600 X37.639 Y56.339
G01 F600 X37.470 Y56.216
G01 F600 X37.330 Y56.061
G01 F600 X37.226 Y55.880
G01 F600 X37.161 Y55.681
G01 F600 X37.139 Y55.474
G01 F600 X37.161 Y55.266
G01 F600 X37.226 Y55.067
G01 F600 X37.330 Y54.887
G01 F600 X37.470 Y54.731
G01 F600 X37.639 Y54.609
G01 F600 X37.830 Y54.524
G01 F600 X38.034 Y54.480
G01 F600 X38.242 Y54.480
G01 F600 X38.447 Y54.524
G01 F600 X38.638 Y54.609
G01 F600 X38.806 Y54.731
G01 F600 X38.946 Y54.887
G01 F600 X39.050 Y55.067
G01 F600 X39.115 Y55.266
G01 F600 X39.137 Y55.474
G01 F600 X39.115 Y55.681
G01 F600 X39.050 Y55.880
G01 F600 X38.946 Y56.061
G01 F600 X38.806 Y56.216
G01 F600 X38.638 Y56.339
G01 F600 X38.447 Y56.424
G01 F600 X38.242 Y56.467
G01 F600 X38.034 Y56.467
G00 F3000 Z3.000
G00 F3000 X40.574 Y56.467
G00 F1500 Z0
G01 F600 Z-0.200
G01 F600 X40.370 Y56.424
G01 F600 X40.179 Y56.339
G01 F600 X40.010 Y56.216
G01 F600 X39.870 Y56.061
G01 F600 X39.766 Y55.880
G01 F600 X39.701 Y55.681
G01 F600 X39.679 Y55.474
G01 F600 X39.701 Y55.266
G01 F600 X39.749 Y55.120
G01 F600 X37.974 Y53.322
G01 F600 X17.777 Y53.322
G01 F600 X17.697 Y53.305
G01 F600 X17.623 Y53.272
G01 F600 X17.559 Y53.225
G01 F600 X15.012 Y50.679
G01 F600 X14.962 Y50.623
G01 F600 X14.921 Y50.553
G01 F600 X14.896 Y50.475
G01 F600 X14.888 Y50.398
G01 F600 X14.888 Y48.714
G01 F600 X14.393 Y48.714
G01 F600 X14.393 Y48.217
G01 F600 X10.157 Y48.217
G01 F600 X10.077 Y48.200
G01 F600 X10.003 Y48.166
G01 F600 X9.939 Y48.120
G01 F600 X7.392 Y45.573
G01 F600 X7.342 Y45.518
G01 F600 X7.301 Y45.447
G01 F600 X7.276 Y45.369
G01 F600 X7.268 Y45.293
G01 F600 X7.268 Y35.842
G01 F600 X7.145 Y35.788
G01 F600 X6.972 Y35.662
G01 F600 X6.828 Y35.502
G01 F600 X6.721 Y35.317
G01 F600 X6.655 Y35.113
G01 F600 X6.633 Y34.900
G01 F600 X6.655 Y34.686
G01 F600 X6.721 Y34.483
G01 F600 X6.828 Y34.297
G01 F600 X6.972 Y34.138
G01 F600 X7.145 Y34.011
G01 F600 X7.341 Y33.924
G01 F600 X7.551 Y33.880
G01 F600 X7.765 Y33.880
G01 F600 X7.975 Y33.924
G01 F600 X8.171 Y34.011
G01 F600 X8.344 Y34.138
G01 F600 X8.488 Y34.297
G01 F600 X8.595 Y34.483
G01 F600 X8.661 Y34.686
G01 F600 X8.684 Y34.900
G01 F600 X8.661 Y35.113
G01 F600 X8.595 Y35.317
G01 F600 X8.488 Y35.502
G01 F600 X8.344 Y35.662
G01 F600 X8.171 Y35.788
G01 F600 X8.048 Y35.842
G01 F600 X8.048 Y45.127
G01 F600 X10.361 Y47.440
G01 F600 X14.393 Y47.440
G01 F600 X14.393 Y46.943
G01 F600 X16.163 Y46.943
G01 F600 X16.163 Y48.714
G01 F600 X15.668 Y48.714
G01 F600 X15.668 Y50.233
G01 F600 X17.981 Y52.545
G01 F600 X38.179 Y52.545
G01 F600 X38.259 Y52.562
G01 F600 X38.333 Y52.595
G01 F600 X38.398 Y52.642
G01 F600 X40.290 Y54.559
G01 F600 X40.370 Y54.524
G01 F600 X40.574 Y54.480
G01 F600 X40.782 Y54.480
G01 F600 X40.987 Y54.524
G01 F600 X41.178 Y54.609
G01 F600 X41.346 Y54.731
G01 F600 X41.486 Y54.887
G01 F600 X41.590 Y55.067
G01 F600 X41.655 Y55.266
G01 F600 X41.677 Y55.474
G01 F600 X41.655 Y55.681
G01 F600 X41.590 Y55.880
G01 F600 X41.486 Y56.061
G01 F600 X41.346 Y56.216
G01 F600 X41.178 Y56.339
G01 F600 X40.987 Y56.424
G01 F600 X40.782 Y56.467
G01 F600 X40.574 Y56.467
G00 F3000 Z3.000
G00 F3000 X53.274 Y56.467
G00 F1500 Z0
G01 F600 Z-0.200
G01 F600 X53.070 Y56.424
G01 F600 X52.879 Y56.339
G01 F600 X52.710 Y56.216
G01 F600 X52.570 Y56.061
G01 F600 X52.466 Y55.880
G01 F600 X52.401 Y55.681
G01 F600 X52.379 Y55.474
G01 F600 X52.401 Y55.266
G01 F600 X52.466 Y55.067
G01 F600 X52.570 Y54.887
G01 F600 X52.710 Y54.731
G01 F600 X52.879 Y54.609
G01 F600 X53.070 Y54.524
G01 F600 X53.274 Y54.480
G01 F600 X53.483 Y54.480
G01 F600 X53.687 Y54.524
G01 F600 X53.878 Y54.609
G01 F600 X54.046 Y54.731
G01 F600 X54.186 Y54.887
G01 F600 X54.291 Y55.067
G01 F600 X54.355 Y55.266
G01 F600 X54.377 Y55.474
G01 F600 X54.355 Y55.681
G01 F600 X54.291 Y55.880
G01 F600 X54.186 Y56.061
G01 F600 X54.046 Y56.216
G01 F600 X53.878 Y56.339
G01 F600 X53.687 Y56.424
G01 F600 X53.483 Y56.467
G01 F600 X53.274 Y56.467
G00 F3000 Z3.000
G00 F3000 X55.814 Y56.467
G00 F1500 Z0
G01 F600 Z-0.200
G01 F600 X55.610 Y56.424
G01 F600 X55.419 Y56.339
G01 F600 X55.250 Y56.216
G01 F600 X55.110 Y56.061
G01 F600 X55.006 Y55.880
G01 F600 X54.941 Y55.681
G01 F600 X54.919 Y55.474
G01 F600 X54.941 Y55.266
G01 F600 X55.006 Y55.067
G01 F600 X55.110 Y54.887
G01 F600 X55.250 Y54.731
G01 F600 X55.419 Y54.609
G01 F600 X55.610 Y54.524
G01 F600 X55.814 Y54.480
G01 F600 X56.023 Y54.480
G01 F600 X56.227 Y54.524
G01 F600 X56.418 Y54.609
G01 F600 X56.586 Y54.731
G01 F600 X56.726 Y54.887
G01 F600 X56.831 Y55.067
G01 F600 X56.895 Y55.266
G01 F600 X56.917 Y55.474
G01 F600 X56.895 Y55.681
G01 F600 X56.831 Y55.880
G01 F600 X56.726 Y56.061
G01 F600 X56.586 Y56.216
G01 F600 X56.418 Y56.339
G01 F600 X56.227 Y56.424
G01 F600 X56.023 Y56.467
G01 F600 X55.814 Y56.467
G00 F3000 Z3.000
G00 F3000 X48.194 Y56.467
G00 F1500 Z0
G01 F600 Z-0.200
G01 F600 X47.989 Y56.424
G01 F600 X47.799 Y56.339
G01 F600 X47.630 Y56.216
G01 F600 X47.490 Y56.061
G01 F600 X47.386 Y55.880
G01 F600 X47.321 Y55.681
G01 F600 X47.299 Y55.474
G01 F600 X47.321 Y55.266
G01 F600 X47.386 Y55.067
G01 F600 X47.490 Y54.887
G01 F600 X47.630 Y54.731
G01 F600 X47.799 Y54.609
G01 F600 X47.908 Y54.560
G01 F600 X47.883 Y50.389
G01 F600 X47.891 Y50.312
G01 F600 X47.916 Y50.235
G01 F600 X47.957 Y50.164
G01 F600 X48.007 Y50.108
G01 F600 X49.953 Y48.162
G01 F600 X49.953 Y46.943
G01 F600 X51.723 Y46.943
G01 F600 X51.723 Y48.714
G01 F600 X50.504 Y48.714
G01 F600 X48.664 Y50.554
G01 F600 X48.688 Y54.560
G01 F600 X48.797 Y54.609
G01 F600 X48.966 Y54.731
G01 F600 X49.106 Y54.887
G01 F600 X49.211 Y55.067
G01 F600 X49.275 Y55.266
G01 F600 X49.297 Y55.474
G01 F600 X49.275 Y55.681
G01 F600 X49.211 Y55.880
G01 F600 X49.106 Y56.061
G01 F600 X48.966 Y56.216
G01 F600 X48.797 Y56.339
G01 F600 X48.607 Y56.424
G01 F600 X48.403 Y56.467
G01 F600 X48.194 Y56.467
G00 F3000 Z3.000
G00 F3000 X22.794 Y56.467
G00 F1500 Z0
G01 F600 Z-0.200
G01 F600 X22.590 Y56.424
G01 F600 X22.399 Y56.339
G01 F600 X22.230 Y56.216
G01 F600 X22.090 Y56.061
G01 F600 X21.986 Y55.880
G01 F600 X21.921 Y55.681
G01 F600 X21.899 Y55.474
G01 F600 X21.921 Y55.266
G01 F600 X21.986 Y55.067
G01 F600 X22.090 Y54.887
G01 F600 X22.230 Y54.731
G01 F600 X22.399 Y54.609
G01 F600 X22.590 Y54.524
G01 F600 X22.794 Y54.480
G01 F600 X23.003 Y54.480
G01 F600 X23.207 Y54.524
G01 F600 X23.398 Y54.609
G01 F600 X23.566 Y54.731
G01 F600 X23.706 Y54.887
G01 F600 X23.811 Y55.067
G01 F600 X23.875 Y55.266
G01 F600 X23.897 Y55.474
G01 F600 X23.875 Y55.681
G01 F600 X23.811 Y55.880
G01 F600 X23.706 Y56.061
G01 F600 X23.566 Y56.216
G01 F600 X23.398 Y56.339
G01 F600 X23.207 Y56.424
G01 F600 X23.003 Y56.467
G01 F600 X22.794 Y56.467
G00 F3000 Z3.000
G00 F3000 X25.334 Y56.467
G00 F1500 Z0
G01 F600 Z-0.200
G01 F600 X25.130 Y56.424
G01 F600 X24.939 Y56.339
G01 F600 X24.770 Y56.216
G01 F600 X24.630 Y56.061
G01 F600 X24.526 Y55.880
G01 F600 X24.461 Y55.681
G01 F600 X24.439 Y55.474
G01 F600 X24.461 Y55.266
G01 F600 X24.526 Y55.067
G01 F600 X24.630 Y54.887
G01 F600 X24.770 Y54.731
G01 F600 X24.939 Y54.609
G01 F600 X25.130 Y54.524
G01 F600 X25.334 Y54.480
G01 F600 X25.543 Y54.480
G01 F600 X25.747 Y54.524
G01 F600 X25.938 Y54.609
G01 F600 X26.106 Y54.731
G01 F600 X26.246 Y54.887
G01 F600 X26.351 Y55.067
G01 F600 X26.415 Y55.266
G01 F600 X26.437 Y55.474
G01 F600 X26.415 Y55.681
G01 F600 X26.351 Y55.880
G01 F600 X26.246 Y56.061
G01 F600 X26.106 Y56.216
G01 F600 X25.938 Y56.339
G01 F600 X25.747 Y56.424
G01 F600 X25.543 Y56.467
G01 F600 X25.334 Y56.467
G00 F3000 Z3.000
G00 F3000 X17.714 Y56.467
G00 F1500 Z0
G01 F600 Z-0.200
G01 F600 X17.509 Y56.424
G01 F600 X17.319 Y56.339
G01 F600 X17.150 Y56.216
G01 F600 X17.010 Y56.061
G01 F600 X16.906 Y55.880
G01 F600 X16.841 Y55.681
G01 F600 X16.819 Y55.474
G01 F600 X16.841 Y55.266
G01 F600 X16.906 Y55.067
G01 F600 X17.010 Y54.887
G01 F600 X17.150 Y54.731
G01 F600 X17.319 Y54.609
G01 F600 X17.509 Y54.524
G01 F600 X17.714 Y54.480
G01 F600 X17.922 Y54.480
G01 F600 X18.127 Y54.524
G01 F600 X18.318 Y54.609
G01 F600 X18.486 Y54.731
G01 F600 X18.626 Y54.887
G01 F600 X18.730 Y55.067
G01 F600 X18.795 Y55.266
G01 F600 X18.817 Y55.474
G01 F600 X18.795 Y55.681
G01 F600 X18.730 Y55.880
G01 F600 X18.626 Y56.061
G01 F600 X18.486 Y56.216
G01 F600 X18.318 Y56.339
G01 F600 X18.127 Y56.424
G01 F600 X17.922 Y56.467
G01 F600 X17.714 Y56.467
G00 F3000 Z3.000
G00 F3000 X20.254 Y56.467
G00 F1500 Z0
G01 F600 Z-0.200
G01 F600 X20.050 Y56.424
G01 F600 X19.859 Y56.339
G01 F600 X19.690 Y56.216
G01 F600 X19.550 Y56.061
G01 F600 X19.446 Y55.880
G01 F600 X19.381 Y55.681
G01 F600 X19.359 Y55.474
G01 F600 X19.381 Y55.266
G01 F600 X19.446 Y55.067
G01 F600 X19.550 Y54.887
G01 F600 X19.690 Y54.731
G01 F600 X19.859 Y54.609
G01 F600 X20.050 Y54.524
G01 F600 X20.254 Y54.480
G01 F600 X20.463 Y54.480
G01 F600 X20.667 Y54.524
G01 F600 X20.858 Y54.609
G01 F600 X21.026 Y54.731
G01 F600 X21.166 Y54.887
G01 F600 X21.271 Y55.067
G01 F600 X21.335 Y55.266
G01 F600 X21.357 Y55.474
G01 F600 X21.335 Y55.681
G01 F600 X21.271 Y55.880
G01 F600 X21.166 Y56.061
G01 F600 X21.026 Y56.216
G01 F600 X20.858 Y56.339
G01 F600 X20.667 Y56.424
G01 F600 X20.463 Y56.467
G01 F600 X20.254 Y56.467
G00 F3000 Z3.000
G00 F3000 X35.494 Y56.467
G00 F1500 Z0
G01 F600 Z-0.200
G01 F600 X35.290 Y56.424
G01 F600 X35.099 Y56.339
G01 F600 X34.930 Y56.216
G01 F600 X34.790 Y56.061
G01 F600 X34.686 Y55.880
G01 F600 X34.621 Y55.681
G01 F600 X34.599 Y55.474
G01 F600 X34.621 Y55.266
G01 F600 X34.686 Y55.067
G01 F600 X34.790 Y54.887
G01 F600 X34.930 Y54.731
G01 F600 X35.099 Y54.609
G01 F600 X35.290 Y54.524
G01 F600 X35.494 Y54.480
G01 F600 X35.703 Y54.480
G01 F600 X35.907 Y54.524
G01 F600 X36.098 Y54.609
G01 F600 X36.266 Y54.731
G01 F600 X36.406 Y54.887
G01 F600 X36.511 Y55.067
G01 F600 X36.575 Y55.266
G01 F600 X36.597 Y55.474
G01 F600 X36.575 Y55.681
G01 F600 X36.511 Y55.880
G01 F600 X36.406 Y56.061
G01 F600 X36.266 Y56.216
G01 F600 X36.098 Y56.339
G01 F600 X35.907 Y56.424
G01 F600 X35.703 Y56.467
G01 F600 X35.494 Y56.467
G00 F3000 Z3.000
G00 F3000 X30.414 Y56.467
G00 F1500 Z0
G01 F600 Z-0.200
G01 F600 X30.210 Y56.424
G01 F600 X30.019 Y56.339
G01 F600 X29.850 Y56.216
G01 F600 X29.710 Y56.061
G01 F600 X29.606 Y55.880
G01 F600 X29.541 Y55.681
G01 F600 X29.519 Y55.474
G01 F600 X29.541 Y55.266
G01 F600 X29.606 Y55.067
G01 F600 X29.710 Y54.887
G01 F600 X29.850 Y54.731
G01 F600 X30.019 Y54.609
G01 F600 X30.210 Y54.524
G01 F600 X30.414 Y54.480
G01 F600 X30.623 Y54.480
G01 F600 X30.827 Y54.524
G01 F600 X31.018 Y54.609
G01 F600 X31.186 Y54.731
G01 F600 X31.326 Y54.887
G01 F600 X31.431 Y55.067
G01 F600 X31.495 Y55.266
G01 F600 X31.517 Y55.474
G01 F600 X31.495 Y55.681
G01 F600 X31.431 Y55.880
G01 F600 X31.326 Y56.061
G01 F600 X31.186 Y56.216
G01 F600 X31.018 Y56.339
G01 F600 X30.827 Y56.424
G01 F600 X30.623 Y56.467
G01 F600 X30.414 Y56.467
G00 F3000 Z3.000
G00 F3000 X12.634 Y56.467
G00 F1500 Z0
G01 F600 Z-0.200
G01 F600 X12.430 Y56.424
G01 F600 X12.239 Y56.339
G01 F600 X12.070 Y56.216
G01 F600 X11.930 Y56.061
G01 F600 X11.826 Y55.880
G01 F600 X11.761 Y55.681
G01 F600 X11.739 Y55.474
G01 F600 X11.761 Y55.266
G01 F600 X11.826 Y55.067
G01 F600 X11.930 Y54.887
G01 F600 X12.070 Y54.731
G01 F600 X12.239 Y54.609
G01 F600 X12.430 Y54.524
G01 F600 X12.634 Y54.480
G01 F600 X12.843 Y54.480
G01 F600 X13.047 Y54.524
G01 F600 X13.238 Y54.609
G01 F600 X13.406 Y54.731
G01 F600 X13.546 Y54.887
G01 F600 X13.651 Y55.067
G01 F600 X13.715 Y55.266
G01 F600 X13.737 Y55.474
G01 F600 X13.715 Y55.681
G01 F600 X13.651 Y55.880
G01 F600 X13.546 Y56.061
G01 F600 X13.406 Y56.216
G01 F600 X13.238 Y56.339
G01 F600 X13.047 Y56.424
G01 F600 X12.843 Y56.467
G01 F600 X12.634 Y56.467
G00 F3000 Z3.000
G00 F3000 X7.554 Y56.467
G00 F1500 Z0
G01 F600 Z-0.200
G01 F600 X7.349 Y56.424
G01 F600 X7.159 Y56.339
G01 F600 X6.990 Y56.216
G01 F600 X6.850 Y56.061
G01 F600 X6.746 Y55.880
G01 F600 X6.681 Y55.681
G01 F600 X6.659 Y55.474
G01 F600 X6.681 Y55.266
G01 F600 X6.746 Y55.067
G01 F600 X6.850 Y54.887
G01 F600 X6.990 Y54.731
G01 F600 X7.159 Y54.609
G01 F600 X7.349 Y54.524
G01 F600 X7.554 Y54.480
G01 F600 X7.763 Y54.480
G01 F600 X7.967 Y54.524
G01 F600 X8.158 Y54.609
G01 F600 X8.326 Y54.731
G01 F600 X8.466 Y54.887
G01 F600 X8.571 Y55.067
G01 F600 X8.635 Y55.266
G01 F600 X8.657 Y55.474
G01 F600 X8.635 Y55.681
G01 F600 X8.571 Y55.880
G01 F600 X8.466 Y56.061
G01 F600 X8.326 Y56.216
G01 F600 X8.158 Y56.339
G01 F600 X7.967 Y56.424
G01 F600 X7.763 Y56.467
G01 F600 X7.554 Y56.467
G00 F3000 Z3.000
G00 F3000 X10.094 Y56.467
G00 F1500 Z0
G01 F600 Z-0.200
G01 F600 X9.889 Y56.424
G01 F600 X9.699 Y56.339
G01 F600 X9.530 Y56.216
G01 F600 X9.390 Y56.061
G01 F600 X9.286 Y55.880
G01 F600 X9.221 Y55.681
G01 F600 X9.199 Y55.474
G01 F600 X9.221 Y55.266
G01 F600 X9.286 Y55.067
G01 F600 X9.390 Y54.887
G01 F600 X9.530 Y54.731
G01 F600 X9.699 Y54.609
G01 F600 X9.889 Y54.524
G01 F600 X10.094 Y54.480
G01 F600 X10.303 Y54.480
G01 F600 X10.507 Y54.524
G01 F600 X10.697 Y54.609
G01 F600 X10.866 Y54.731
G01 F600 X11.006 Y54.887
G01 F600 X11.111 Y55.067
G01 F600 X11.175 Y55.266
G01 F600 X11.197 Y55.474
G01 F600 X11.175 Y55.681
G01 F600 X11.111 Y55.880
G01 F600 X11.006 Y56.061
G01 F600 X10.866 Y56.216
G01 F600 X10.697 Y56.339
G01 F600 X10.507 Y56.424
G01 F600 X10.303 Y56.467
G01 F600 X10.094 Y56.467
G00 F3000 Z3.000
G00 F3000 X32.949 Y51.432
G00 F1500 Z0
G01 F600 Z-0.200
G01 F600 X32.736 Y51.386
G01 F600 X32.536 Y51.297
G01 F600 X32.360 Y51.169
G01 F600 X32.214 Y51.007
G01 F600 X32.105 Y50.818
G01 F600 X32.037 Y50.611
G01 F600 X32.014 Y50.394
G01 F600 X32.037 Y50.177
G01 F600 X32.105 Y49.969
G01 F600 X32.214 Y49.780
G01 F600 X32.360 Y49.618
G01 F600 X32.536 Y49.490
G01 F600 X32.736 Y49.401
G01 F600 X32.949 Y49.355
G01 F600 X33.167 Y49.355
G01 F600 X33.381 Y49.401
G01 F600 X33.580 Y49.490
G01 F600 X33.757 Y49.618
G01 F600 X33.903 Y49.780
G01 F600 X34.012 Y49.969
G01 F600 X34.023 Y50.005
G01 F600 X40.515 Y50.005
G01 F600 X42.828 Y47.693
G01 F600 X42.828 Y40.395
G01 F600 X40.412 Y37.979
G01 F600 X40.362 Y37.923
G01 F600 X40.321 Y37.852
G01 F600 X40.296 Y37.775
G01 F600 X40.288 Y37.698
G01 F600 X40.288 Y32.635
G01 F600 X40.296 Y32.558
G01 F600 X40.321 Y32.480
G01 F600 X40.362 Y32.409
G01 F600 X40.412 Y32.354
G01 F600 X42.933 Y29.808
G01 F600 X42.997 Y29.761
G01 F600 X43.072 Y29.728
G01 F600 X43.152 Y29.711
G01 F600 X48.088 Y29.711
G01 F600 X50.471 Y27.396
G01 F600 X50.451 Y25.854
G01 F600 X49.953 Y25.854
G01 F600 X49.953 Y24.724
G01 F600 X46.053 Y21.421
G01 F600 X46.001 Y21.362
G01 F600 X45.960 Y21.292
G01 F600 X45.935 Y21.214
G01 F600 X45.927 Y21.137
G01 F600 X45.927 Y14.816
G01 F600 X43.228 Y14.816
G01 F600 X43.148 Y14.799
G01 F600 X43.074 Y14.765
G01 F600 X43.008 Y14.717
G01 F600 X42.953 Y14.657
G01 F600 X42.912 Y14.586
G01 F600 X42.887 Y14.508
G01 F600 X42.879 Y14.433
G01 F600 X42.833 Y12.985
G01 F600 X42.705 Y12.928
G01 F600 X42.532 Y12.802
G01 F600 X42.388 Y12.642
G01 F600 X42.281 Y12.457
G01 F600 X42.215 Y12.253
G01 F600 X42.193 Y12.040
G01 F600 X42.215 Y11.826
G01 F600 X42.281 Y11.623
G01 F600 X42.388 Y11.437
G01 F600 X42.532 Y11.277
G01 F600 X42.705 Y11.151
G01 F600 X42.901 Y11.064
G01 F600 X43.111 Y11.020
G01 F600 X43.325 Y11.020
G01 F600 X43.535 Y11.064
G01 F600 X43.731 Y11.151
G01 F600 X43.904 Y11.277
G01 F600 X44.048 Y11.437
G01 F600 X44.155 Y11.623
G01 F600 X44.221 Y11.826
G01 F600 X44.244 Y12.040
G01 F600 X44.221 Y12.253
G01 F600 X44.155 Y12.457
G01 F600 X44.048 Y12.642
G01 F600 X43.904 Y12.802
G01 F600 X43.731 Y12.928
G01 F600 X43.613 Y12.980
G01 F600 X43.647 Y14.039
G01 F600 X46.358 Y14.039
G01 F600 X46.438 Y14.056
G01 F600 X46.512 Y14.089
G01 F600 X46.578 Y14.137
G01 F600 X46.633 Y14.198
G01 F600 X46.674 Y14.268
G01 F600 X46.699 Y14.346
G01 F600 X46.707 Y14.423
G01 F600 X46.707 Y20.952
G01 F600 X50.403 Y24.083
G01 F600 X51.723 Y24.083
G01 F600 X51.723 Y25.854
G01 F600 X51.231 Y25.854
G01 F600 X51.254 Y27.563
G01 F600 X51.245 Y27.640
G01 F600 X51.220 Y27.718
G01 F600 X51.180 Y27.789
G01 F600 X51.129 Y27.845
G01 F600 X48.506 Y30.391
G01 F600 X48.443 Y30.437
G01 F600 X48.368 Y30.471
G01 F600 X48.288 Y30.487
G01 F600 X43.356 Y30.487
G01 F600 X41.068 Y32.799
G01 F600 X41.068 Y37.533
G01 F600 X43.484 Y39.948
G01 F600 X43.534 Y40.004
G01 F600 X43.575 Y40.075
G01 F600 X43.600 Y40.152
G01 F600 X43.608 Y40.229
G01 F600 X43.608 Y47.858
G01 F600 X43.600 Y47.935
G01 F600 X43.575 Y48.013
G01 F600 X43.534 Y48.083
G01 F600 X43.484 Y48.139
G01 F600 X40.938 Y50.685
G01 F600 X40.873 Y50.732
G01 F600 X40.799 Y50.765
G01 F600 X40.719 Y50.782
G01 F600 X34.023 Y50.782
G01 F600 X34.012 Y50.818
G01 F600 X33.903 Y51.007
G01 F600 X33.757 Y51.169
G01 F600 X33.580 Y51.297
G01 F600 X33.381 Y51.386
G01 F600 X33.167 Y51.432
G01 F600 X32.949 Y51.432
G00 F3000 Z3.000
G00 F3000 X38.029 Y48.892
G00 F1500 Z0
G01 F600 Z-0.200
G01 F600 X37.816 Y48.846
G01 F600 X37.616 Y48.758
G01 F600 X37.440 Y48.629
G01 F600 X37.294 Y48.467
G01 F600 X37.185 Y48.278
G01 F600 X37.117 Y48.071
G01 F600 X37.094 Y47.854
G01 F600 X37.117 Y47.637
G01 F600 X37.185 Y47.429
G01 F600 X37.294 Y47.240
G01 F600 X37.440 Y47.078
G01 F600 X37.616 Y46.950
G01 F600 X37.748 Y46.891
G01 F600 X37.748 Y36.096
G01 F600 X37.747 Y36.096
G01 F600 X35.858 Y37.985
G01 F600 X35.793 Y38.032
G01 F600 X35.719 Y38.065
G01 F600 X35.639 Y38.082
G01 F600 X22.857 Y38.082
G01 F600 X22.777 Y38.065
G01 F600 X22.703 Y38.032
G01 F600 X22.639 Y37.985
G01 F600 X20.749 Y36.096
G01 F600 X20.675 Y36.129
G01 F600 X20.465 Y36.174
G01 F600 X20.251 Y36.174
G01 F600 X20.041 Y36.129
G01 F600 X19.845 Y36.042
G01 F600 X19.672 Y35.916
G01 F600 X19.528 Y35.756
G01 F600 X19.421 Y35.571
G01 F600 X19.355 Y35.367
G01 F600 X19.332 Y35.154
G01 F600 X19.355 Y34.940
G01 F600 X19.421 Y34.736
G01 F600 X19.528 Y34.551
G01 F600 X19.672 Y34.392
G01 F600 X19.845 Y34.265
G01 F600 X20.041 Y34.178
G01 F600 X20.251 Y34.134
G01 F600 X20.465 Y34.134
G01 F600 X20.675 Y34.178
G01 F600 X20.871 Y34.265
G01 F600 X21.044 Y34.392
G01 F600 X21.188 Y34.551
G01 F600 X21.295 Y34.736
G01 F600 X21.361 Y34.940
G01 F600 X21.384 Y35.154
G01 F600 X21.361 Y35.367
G01 F600 X21.303 Y35.547
G01 F600 X23.061 Y37.305
G01 F600 X35.435 Y37.305
G01 F600 X37.117 Y35.598
G01 F600 X37.121 Y35.555
G01 F600 X37.146 Y35.477
G01 F600 X37.162 Y35.450
G01 F600 X37.135 Y35.367
G01 F600 X37.113 Y35.154
G01 F600 X37.135 Y34.940
G01 F600 X37.201 Y34.736
G01 F600 X37.308 Y34.551
G01 F600 X37.452 Y34.392
G01 F600 X37.625 Y34.265
G01 F600 X37.821 Y34.178
G01 F600 X38.031 Y34.134
G01 F600 X38.245 Y34.134
G01 F600 X38.455 Y34.178
G01 F600 X38.651 Y34.265
G01 F600 X38.824 Y34.392
G01 F600 X38.968 Y34.551
G01 F600 X39.075 Y34.736
G01 F600 X39.141 Y34.940
G01 F600 X39.164 Y35.154
G01 F600 X39.141 Y35.367
G01 F600 X39.075 Y35.571
G01 F600 X38.968 Y35.756
G01 F600 X38.824 Y35.916
G01 F600 X38.651 Y36.042
G01 F600 X38.528 Y36.096
G01 F600 X38.528 Y46.891
G01 F600 X38.660 Y46.950
G01 F600 X38.837 Y47.078
G01 F600 X38.983 Y47.240
G01 F600 X39.092 Y47.429
G01 F600 X39.159 Y47.637
G01 F600 X39.182 Y47.854
G01 F600 X39.159 Y48.071
G01 F600 X39.092 Y48.278
G01 F600 X38.983 Y48.467
G01 F600 X38.837 Y48.629
G01 F600 X38.660 Y48.758
G01 F600 X38.461 Y48.846
G01 F600 X38.247 Y48.892
G01 F600 X38.029 Y48.892
G00 F3000 Z3.000
G00 F3000 X32.173 Y48.714
G00 F1500 Z0
G01 F600 Z-0.200
G01 F600 X32.173 Y46.943
G01 F600 X33.943 Y46.943
G01 F600 X33.943 Y48.714
G01 F600 X32.173 Y48.714
G00 F3000 Z3.000
G00 F3000 X32.965 Y46.195
G00 F1500 Z0
G01 F600 Z-0.200
G01 F600 X32.784 Y46.156
G01 F600 X32.615 Y46.081
G01 F600 X32.465 Y45.972
G01 F600 X32.342 Y45.834
G01 F600 X32.249 Y45.674
G01 F600 X32.192 Y45.498
G01 F600 X32.172 Y45.314
G01 F600 X32.192 Y45.129
G01 F600 X32.249 Y44.953
G01 F600 X32.342 Y44.793
G01 F600 X32.465 Y44.655
G01 F600 X32.615 Y44.547
G01 F600 X32.784 Y44.471
G01 F600 X32.965 Y44.433
G01 F600 X33.151 Y44.433
G01 F600 X33.332 Y44.471
G01 F600 X33.501 Y44.547
G01 F600 X33.651 Y44.655
G01 F600 X33.775 Y44.793
G01 F600 X33.867 Y44.953
G01 F600 X33.925 Y45.129
G01 F600 X33.944 Y45.314
G01 F600 X33.925 Y45.498
G01 F600 X33.867 Y45.674
G01 F600 X33.775 Y45.834
G01 F600 X33.651 Y45.972
G01 F600 X33.501 Y46.081
G01 F600 X33.332 Y46.156
G01 F600 X33.151 Y46.195
G01 F600 X32.965 Y46.195
G00 F3000 Z3.000
G00 F3000 X50.745 Y46.195
G00 F1500 Z0
G01 F600 Z-0.200
G01 F600 X50.564 Y46.156
G01 F600 X50.395 Y46.081
G01 F600 X50.245 Y45.972
G01 F600 X50.122 Y45.834
G01 F600 X50.029 Y45.674
G01 F600 X49.972 Y45.498
G01 F600 X49.952 Y45.314
G01 F600 X49.972 Y45.129
G01 F600 X50.029 Y44.953
G01 F600 X50.122 Y44.793
G01 F600 X50.245 Y44.655
G01 F600 X50.395 Y44.547
G01 F600 X50.564 Y44.471
G01 F600 X50.745 Y44.433
G01 F600 X50.931 Y44.433
G01 F600 X51.112 Y44.471
G01 F600 X51.281 Y44.547
G01 F600 X51.431 Y44.655
G01 F600 X51.555 Y44.793
G01 F600 X51.647 Y44.953
G01 F600 X51.705 Y45.129
G01 F600 X51.724 Y45.314
G01 F600 X51.705 Y45.498
G01 F600 X51.647 Y45.674
G01 F600 X51.555 Y45.834
G01 F600 X51.431 Y45.972
G01 F600 X51.281 Y46.081
G01 F600 X51.112 Y46.156
G01 F600 X50.931 Y46.195
G01 F600 X50.745 Y46.195
G00 F3000 Z3.000
G00 F3000 X15.186 Y46.195
G00 F1500 Z0
G01 F600 Z-0.200
G01 F600 X15.004 Y46.156
G01 F600 X14.835 Y46.081
G01 F600 X14.685 Y45.972
G01 F600 X14.562 Y45.834
G01 F600 X14.469 Y45.674
G01 F600 X14.412 Y45.498
G01 F600 X14.392 Y45.314
G01 F600 X14.412 Y45.129
G01 F600 X14.469 Y44.953
G01 F600 X14.562 Y44.793
G01 F600 X14.685 Y44.655
G01 F600 X14.835 Y44.547
G01 F600 X15.004 Y44.471
G01 F600 X15.186 Y44.433
G01 F600 X15.371 Y44.433
G01 F600 X15.552 Y44.471
G01 F600 X15.721 Y44.547
G01 F600 X15.871 Y44.655
G01 F600 X15.995 Y44.793
G01 F600 X16.087 Y44.953
G01 F600 X16.145 Y45.129
G01 F600 X16.164 Y45.314
G01 F600 X16.145 Y45.498
G01 F600 X16.087 Y45.674
G01 F600 X15.995 Y45.834
G01 F600 X15.871 Y45.972
G01 F600 X15.721 Y46.081
G01 F600 X15.552 Y46.156
G01 F600 X15.371 Y46.195
G01 F600 X15.186 Y46.195
G00 F3000 Z3.000
G00 F3000 X15.212 Y43.162
G00 F1500 Z0
G01 F600 Z-0.200
G01 F600 X15.132 Y43.145
G01 F600 X15.057 Y43.112
G01 F600 X14.993 Y43.065
G01 F600 X13.138 Y41.186
G01 F600 X13.059 Y41.221
G01 F600 X12.847 Y41.266
G01 F600 X12.630 Y41.266
G01 F600 X12.417 Y41.221
G01 F600 X12.219 Y41.133
G01 F600 X12.043 Y41.005
G01 F600 X11.898 Y40.844
G01 F600 X11.790 Y40.656
G01 F600 X11.723 Y40.450
G01 F600 X11.700 Y40.234
G01 F600 X11.723 Y40.018
G01 F600 X11.790 Y39.811
G01 F600 X11.898 Y39.623
G01 F600 X12.043 Y39.462
G01 F600 X12.219 Y39.334
G01 F600 X12.348 Y39.277
G01 F600 X12.348 Y35.842
G01 F600 X12.225 Y35.788
G01 F600 X12.052 Y35.662
G01 F600 X11.908 Y35.502
G01 F600 X11.801 Y35.317
G01 F600 X11.735 Y35.113
G01 F600 X11.713 Y34.900
G01 F600 X11.735 Y34.686
G01 F600 X11.801 Y34.483
G01 F600 X11.908 Y34.297
G01 F600 X12.052 Y34.138
G01 F600 X12.225 Y34.011
G01 F600 X12.421 Y33.924
G01 F600 X12.631 Y33.880
G01 F600 X12.845 Y33.880
G01 F600 X13.055 Y33.924
G01 F600 X13.251 Y34.011
G01 F600 X13.424 Y34.138
G01 F600 X13.568 Y34.297
G01 F600 X13.675 Y34.483
G01 F600 X13.741 Y34.686
G01 F600 X13.764 Y34.900
G01 F600 X13.741 Y35.113
G01 F600 X13.675 Y35.317
G01 F600 X13.568 Y35.502
G01 F600 X13.424 Y35.662
G01 F600 X13.251 Y35.788
G01 F600 X13.128 Y35.842
G01 F600 X13.128 Y39.277
G01 F600 X13.257 Y39.334
G01 F600 X13.433 Y39.462
G01 F600 X13.578 Y39.623
G01 F600 X13.687 Y39.811
G01 F600 X13.754 Y40.018
G01 F600 X13.776 Y40.234
G01 F600 X13.754 Y40.450
G01 F600 X13.692 Y40.639
G01 F600 X15.417 Y42.385
G01 F600 X27.790 Y42.385
G01 F600 X29.551 Y40.598
G01 F600 X29.503 Y40.450
G01 F600 X29.480 Y40.234
G01 F600 X29.503 Y40.018
G01 F600 X29.570 Y39.811
G01 F600 X29.678 Y39.623
G01 F600 X29.823 Y39.462
G01 F600 X29.999 Y39.334
G01 F600 X30.197 Y39.246
G01 F600 X30.410 Y39.201
G01 F600 X30.627 Y39.201
G01 F600 X30.839 Y39.246
G01 F600 X31.037 Y39.334
G01 F600 X31.213 Y39.462
G01 F600 X31.358 Y39.623
G01 F600 X31.467 Y39.811
G01 F600 X31.534 Y40.018
G01 F600 X31.556 Y40.234
G01 F600 X31.534 Y40.450
G01 F600 X31.467 Y40.656
G01 F600 X31.358 Y40.844
G01 F600 X31.213 Y41.005
G01 F600 X31.037 Y41.133
G01 F600 X30.839 Y41.221
G01 F600 X30.627 Y41.266
G01 F600 X30.410 Y41.266
G01 F600 X30.197 Y41.221
G01 F600 X30.100 Y41.178
G01 F600 X28.212 Y43.065
G01 F600 X28.148 Y43.112
G01 F600 X28.073 Y43.145
G01 F600 X27.994 Y43.162
G01 F600 X15.212 Y43.162
G00 F3000 Z3.000
G00 F3000 X40.570 Y41.266
G00 F1500 Z0
G01 F600 Z-0.200
G01 F600 X40.357 Y41.221
G01 F600 X40.159 Y41.133
G01 F600 X39.983 Y41.005
G01 F600 X39.838 Y40.844
G01 F600 X39.730 Y40.656
G01 F600 X39.663 Y40.450
G01 F600 X39.640 Y40.234
G01 F600 X39.663 Y40.018
G01 F600 X39.730 Y39.811
G01 F600 X39.838 Y39.623
G01 F600 X39.983 Y39.462
G01 F600 X40.159 Y39.334
G01 F600 X40.357 Y39.246
G01 F600 X40.570 Y39.201
G01 F600 X40.787 Y39.201
G01 F600 X40.999 Y39.246
G01 F600 X41.197 Y39.334
G01 F600 X41.373 Y39.462
G01 F600 X41.518 Y39.623
G01 F600 X41.627 Y39.811
G01 F600 X41.694 Y40.018
G01 F600 X41.716 Y40.234
G01 F600 X41.694 Y40.450
G01 F600 X41.627 Y40.656
G01 F600 X41.518 Y40.844
G01 F600 X41.373 Y41.005
G01 F600 X41.197 Y41.133
G01 F600 X40.999 Y41.221
G01 F600 X40.787 Y41.266
G01 F600 X40.570 Y41.266
G00 F3000 Z3.000
G00 F3000 X58.350 Y41.266
G00 F1500 Z0
G01 F600 Z-0.200
G01 F600 X58.137 Y41.221
G01 F600 X57.939 Y41.133
G01 F600 X57.763 Y41.005
G01 F600 X57.618 Y40.844
G01 F600 X57.510 Y40.656
G01 F600 X57.443 Y40.450
G01 F600 X57.420 Y40.234
G01 F600 X57.443 Y40.018
G01 F600 X57.510 Y39.811
G01 F600 X57.618 Y39.623
G01 F600 X57.763 Y39.462
G01 F600 X57.939 Y39.334
G01 F600 X58.137 Y39.246
G01 F600 X58.350 Y39.201
G01 F600 X58.567 Y39.201
G01 F600 X58.779 Y39.246
G01 F600 X58.977 Y39.334
G01 F600 X59.153 Y39.462
G01 F600 X59.298 Y39.623
G01 F600 X59.407 Y39.811
G01 F600 X59.474 Y40.018
G01 F600 X59.496 Y40.234
G01 F600 X59.474 Y40.450
G01 F600 X59.407 Y40.656
G01 F600 X59.298 Y40.844
G01 F600 X59.153 Y41.005
G01 F600 X58.977 Y41.133
G01 F600 X58.779 Y41.221
G01 F600 X58.567 Y41.266
G01 F600 X58.350 Y41.266
G00 F3000 Z3.000
G00 F3000 X22.790 Y41.266
G00 F1500 Z0
G01 F600 Z-0.200
G01 F600 X22.577 Y41.221
G01 F600 X22.379 Y41.133
G01 F600 X22.203 Y41.005
G01 F600 X22.058 Y40.844
G01 F600 X21.950 Y40.656
G01 F600 X21.883 Y40.450
G01 F600 X21.860 Y40.234
G01 F600 X21.883 Y40.018
G01 F600 X21.950 Y39.811
G01 F600 X22.058 Y39.623
G01 F600 X22.203 Y39.462
G01 F600 X22.379 Y39.334
G01 F600 X22.577 Y39.246
G01 F600 X22.790 Y39.201
G01 F600 X23.007 Y39.201
G01 F600 X23.219 Y39.246
G01 F600 X23.417 Y39.334
G01 F600 X23.593 Y39.462
G01 F600 X23.738 Y39.623
G01 F600 X23.847 Y39.811
G01 F600 X23.914 Y40.018
G01 F600 X23.936 Y40.234
G01 F600 X23.914 Y40.450
G01 F600 X23.847 Y40.656
G01 F600 X23.738 Y40.844
G01 F600 X23.593 Y41.005
G01 F600 X23.417 Y41.133
G01 F600 X23.219 Y41.221
G01 F600 X23.007 Y41.266
G01 F600 X22.790 Y41.266
G00 F3000 Z3.000
G00 F3000 X55.811 Y36.174
G00 F1500 Z0
G01 F600 Z-0.200
G01 F600 X55.601 Y36.129
G01 F600 X55.405 Y36.042
G01 F600 X55.232 Y35.916
G01 F600 X55.088 Y35.756
G01 F600 X54.981 Y35.571
G01 F600 X54.915 Y35.367
G01 F600 X54.893 Y35.154
G01 F600 X54.915 Y34.940
G01 F600 X54.981 Y34.736
G01 F600 X55.088 Y34.551
G01 F600 X55.232 Y34.392
G01 F600 X55.405 Y34.265
G01 F600 X55.601 Y34.178
G01 F600 X55.811 Y34.134
G01 F600 X56.025 Y34.134
G01 F600 X56.235 Y34.178
G01 F600 X56.431 Y34.265
G01 F600 X56.604 Y34.392
G01 F600 X56.748 Y34.551
G01 F600 X56.855 Y34.736
G01 F600 X56.921 Y34.940
G01 F600 X56.944 Y35.154
G01 F600 X56.921 Y35.367
G01 F600 X56.855 Y35.571
G01 F600 X56.748 Y35.756
G01 F600 X56.604 Y35.916
G01 F600 X56.431 Y36.042
G01 F600 X56.235 Y36.129
G01 F600 X56.025 Y36.174
G01 F600 X55.811 Y36.174
G00 F3000 Z3.000
G00 F3000 X27.871 Y36.174
G00 F1500 Z0
G01 F600 Z-0.200
G01 F600 X27.661 Y36.129
G01 F600 X27.465 Y36.042
G01 F600 X27.292 Y35.916
G01 F600 X27.148 Y35.756
G01 F600 X27.041 Y35.571
G01 F600 X26.975 Y35.367
G01 F600 X26.953 Y35.154
G01 F600 X26.975 Y34.940
G01 F600 X27.041 Y34.736
G01 F600 X27.148 Y34.551
G01 F600 X27.292 Y34.392
G01 F600 X27.465 Y34.265
G01 F600 X27.661 Y34.178
G01 F600 X27.871 Y34.134
G01 F600 X28.085 Y34.134
G01 F600 X28.295 Y34.178
G01 F600 X28.491 Y34.265
G01 F600 X28.664 Y34.392
G01 F600 X28.808 Y34.551
G01 F600 X28.915 Y34.736
G01 F600 X28.981 Y34.940
G01 F600 X29.004 Y35.154
G01 F600 X28.981 Y35.367
G01 F600 X28.915 Y35.571
G01 F600 X28.808 Y35.756
G01 F600 X28.664 Y35.916
G01 F600 X28.491 Y36.042
G01 F600 X28.295 Y36.129
G01 F600 X28.085 Y36.174
G01 F600 X27.871 Y36.174
G00 F3000 Z3.000
G00 F3000 X45.651 Y36.174
G00 F1500 Z0
G01 F600 Z-0.200
G01 F600 X45.441 Y36.129
G01 F600 X45.245 Y36.042
G01 F600 X45.072 Y35.916
G01 F600 X44.928 Y35.756
G01 F600 X44.821 Y35.571
G01 F600 X44.755 Y35.367
G01 F600 X44.733 Y35.154
G01 F600 X44.755 Y34.940
G01 F600 X44.821 Y34.736
G01 F600 X44.928 Y34.551
G01 F600 X45.072 Y34.392
G01 F600 X45.245 Y34.265
G01 F600 X45.441 Y34.178
G01 F600 X45.651 Y34.134
G01 F600 X45.865 Y34.134
G01 F600 X46.075 Y34.178
G01 F600 X46.271 Y34.265
G01 F600 X46.444 Y34.392
G01 F600 X46.588 Y34.551
G01 F600 X46.695 Y34.736
G01 F600 X46.761 Y34.940
G01 F600 X46.784 Y35.154
G01 F600 X46.761 Y35.367
G01 F600 X46.695 Y35.571
G01 F600 X46.588 Y35.756
G01 F600 X46.444 Y35.916
G01 F600 X46.271 Y36.042
G01 F600 X46.075 Y36.129
G01 F600 X45.865 Y36.174
G01 F600 X45.651 Y36.174
G00 F3000 Z3.000
G00 F3000 X10.091 Y36.174
G00 F1500 Z0
G01 F600 Z-0.200
G01 F600 X9.881 Y36.129
G01 F600 X9.685 Y36.042
G01 F600 X9.512 Y35.916
G01 F600 X9.368 Y35.756
G01 F600 X9.261 Y35.571
G01 F600 X9.195 Y35.367
G01 F600 X9.173 Y35.154
G01 F600 X9.195 Y34.940
G01 F600 X9.261 Y34.736
G01 F600 X9.368 Y34.551
G01 F600 X9.512 Y34.392
G01 F600 X9.685 Y34.265
G01 F600 X9.881 Y34.178
G01 F600 X10.091 Y34.134
G01 F600 X10.305 Y34.134
G01 F600 X10.515 Y34.178
G01 F600 X10.711 Y34.265
G01 F600 X10.884 Y34.392
G01 F600 X11.028 Y34.551
G01 F600 X11.135 Y34.736
G01 F600 X11.201 Y34.940
G01 F600 X11.224 Y35.154
G01 F600 X11.201 Y35.367
G01 F600 X11.135 Y35.571
G01 F600 X11.028 Y35.756
G01 F600 X10.884 Y35.916
G01 F600 X10.711 Y36.042
G01 F600 X10.515 Y36.129
G01 F600 X10.305 Y36.174
G01 F600 X10.091 Y36.174
G00 F3000 Z3.000
G00 F3000 X15.171 Y36.174
G00 F1500 Z0
G01 F600 Z-0.200
G01 F600 X14.961 Y36.129
G01 F600 X14.765 Y36.042
G01 F600 X14.592 Y35.916
G01 F600 X14.448 Y35.756
G01 F600 X14.341 Y35.571
G01 F600 X14.275 Y35.367
G01 F600 X14.253 Y35.154
G01 F600 X14.275 Y34.940
G01 F600 X14.341 Y34.736
G01 F600 X14.448 Y34.551
G01 F600 X14.592 Y34.392
G01 F600 X14.765 Y34.265
G01 F600 X14.961 Y34.178
G01 F600 X15.171 Y34.134
G01 F600 X15.385 Y34.134
G01 F600 X15.595 Y34.178
G01 F600 X15.791 Y34.265
G01 F600 X15.964 Y34.392
G01 F600 X16.108 Y34.551
G01 F600 X16.215 Y34.736
G01 F600 X16.224 Y34.765
G01 F600 X16.807 Y34.765
G01 F600 X16.815 Y34.686
G01 F600 X16.881 Y34.483
G01 F600 X16.988 Y34.297
G01 F600 X17.132 Y34.138
G01 F600 X17.305 Y34.011
G01 F600 X17.501 Y33.924
G01 F600 X17.711 Y33.880
G01 F600 X17.925 Y33.880
G01 F600 X18.135 Y33.924
G01 F600 X18.253 Y33.977
G01 F600 X19.968 Y32.440
G01 F600 X19.968 Y17.535
G01 F600 X17.552 Y15.119
G01 F600 X17.502 Y15.063
G01 F600 X17.461 Y14.993
G01 F600 X17.436 Y14.915
G01 F600 X17.428 Y14.838
G01 F600 X17.428 Y12.982
G01 F600 X17.305 Y12.928
G01 F600 X17.132 Y12.802
G01 F600 X16.988 Y12.642
G01 F600 X16.918 Y12.520
G01 F600 X16.254 Y12.590
G01 F600 X16.215 Y12.711
G01 F600 X16.108 Y12.896
G01 F600 X15.964 Y13.056
G01 F600 X15.791 Y13.182
G01 F600 X15.595 Y13.269
G01 F600 X15.385 Y13.314
G01 F600 X15.171 Y13.314
G01 F600 X14.961 Y13.269
G01 F600 X14.765 Y13.182
G01 F600 X14.592 Y13.056
G01 F600 X14.448 Y12.896
G01 F600 X14.341 Y12.711
G01 F600 X14.275 Y12.507
G01 F600 X14.253 Y12.294
G01 F600 X14.275 Y12.080
G01 F600 X14.341 Y11.877
G01 F600 X14.448 Y11.691
G01 F600 X14.592 Y11.532
G01 F600 X14.765 Y11.405
G01 F600 X14.961 Y11.318
G01 F600 X15.171 Y11.274
G01 F600 X15.385 Y11.274
G01 F600 X15.595 Y11.318
G01 F600 X15.791 Y11.405
G01 F600 X15.964 Y11.532
G01 F600 X16.108 Y11.691
G01 F600 X16.178 Y11.813
G01 F600 X16.842 Y11.744
G01 F600 X16.881 Y11.623
G01 F600 X16.988 Y11.437
G01 F600 X17.132 Y11.277
G01 F600 X17.305 Y11.151
G01 F600 X17.501 Y11.064
G01 F600 X17.711 Y11.020
G01 F600 X17.925 Y11.020
G01 F600 X18.135 Y11.064
G01 F600 X18.331 Y11.151
G01 F600 X18.504 Y11.277
G01 F600 X18.648 Y11.437
G01 F600 X18.755 Y11.623
G01 F600 X18.821 Y11.826
G01 F600 X18.844 Y12.040
G01 F600 X18.821 Y12.253
G01 F600 X18.755 Y12.457
G01 F600 X18.648 Y12.642
G01 F600 X18.504 Y12.802
G01 F600 X18.331 Y12.928
G01 F600 X18.208 Y12.982
G01 F600 X18.208 Y14.673
G01 F600 X20.624 Y17.088
G01 F600 X20.674 Y17.144
G01 F600 X20.715 Y17.215
G01 F600 X20.740 Y17.292
G01 F600 X20.748 Y17.369
G01 F600 X20.748 Y32.251
G01 F600 X32.870 Y32.251
G01 F600 X35.208 Y29.913
G01 F600 X35.208 Y22.615
G01 F600 X32.792 Y20.199
G01 F600 X32.742 Y20.143
G01 F600 X32.701 Y20.073
G01 F600 X32.676 Y19.995
G01 F600 X32.668 Y19.918
G01 F600 X32.668 Y13.236
G01 F600 X32.545 Y13.182
G01 F600 X32.372 Y13.056
G01 F600 X32.228 Y12.896
G01 F600 X32.121 Y12.711
G01 F600 X32.055 Y12.507
G01 F600 X32.032 Y12.294
G01 F600 X32.055 Y12.080
G01 F600 X32.121 Y11.877
G01 F600 X32.228 Y11.691
G01 F600 X32.372 Y11.532
G01 F600 X32.545 Y11.405
G01 F600 X32.741 Y11.318
G01 F600 X32.951 Y11.274
G01 F600 X33.165 Y11.274
G01 F600 X33.375 Y11.318
G01 F600 X33.571 Y11.405
G01 F600 X33.744 Y11.532
G01 F600 X33.888 Y11.691
G01 F600 X33.995 Y11.877
G01 F600 X34.061 Y12.080
G01 F600 X34.084 Y12.294
G01 F600 X34.061 Y12.507
G01 F600 X33.995 Y12.711
G01 F600 X33.888 Y12.896
G01 F600 X33.744 Y13.056
G01 F600 X33.571 Y13.182
G01 F600 X33.448 Y13.236
G01 F600 X33.448 Y19.753
G01 F600 X35.864 Y22.168
G01 F600 X35.914 Y22.224
G01 F600 X35.955 Y22.295
G01 F600 X35.980 Y22.372
G01 F600 X35.988 Y22.449
G01 F600 X35.988 Y30.078
G01 F600 X35.980 Y30.155
G01 F600 X35.955 Y30.233
G01 F600 X35.914 Y30.303
G01 F600 X35.864 Y30.359
G01 F600 X33.448 Y32.775
G01 F600 X33.448 Y34.211
G01 F600 X33.571 Y34.265
G01 F600 X33.744 Y34.392
G01 F600 X33.888 Y34.551
G01 F600 X33.959 Y34.673
G01 F600 X34.622 Y34.604
G01 F600 X34.661 Y34.483
G01 F600 X34.768 Y34.297
G01 F600 X34.912 Y34.138
G01 F600 X35.085 Y34.011
G01 F600 X35.208 Y33.957
G01 F600 X35.208 Y32.635
G01 F600 X35.216 Y32.558
G01 F600 X35.241 Y32.480
G01 F600 X35.282 Y32.409
G01 F600 X35.332 Y32.354
G01 F600 X37.853 Y29.782
G01 F600 X37.917 Y29.735
G01 F600 X37.992 Y29.702
G01 F600 X38.072 Y29.685
G01 F600 X40.515 Y29.685
G01 F600 X42.828 Y27.373
G01 F600 X42.828 Y17.535
G01 F600 X40.412 Y15.119
G01 F600 X40.362 Y15.063
G01 F600 X40.321 Y14.993
G01 F600 X40.296 Y14.915
G01 F600 X40.288 Y14.838
G01 F600 X40.288 Y9.774
G01 F600 X40.296 Y9.698
G01 F600 X40.321 Y9.620
G01 F600 X40.362 Y9.549
G01 F600 X40.417 Y9.489
G01 F600 X40.483 Y9.441
G01 F600 X40.557 Y9.408
G01 F600 X40.637 Y9.391
G01 F600 X50.854 Y9.391
G01 F600 X50.933 Y9.408
G01 F600 X51.008 Y9.441
G01 F600 X51.074 Y9.489
G01 F600 X51.129 Y9.549
G01 F600 X51.169 Y9.620
G01 F600 X51.195 Y9.698
G01 F600 X51.203 Y9.774
G01 F600 X51.213 Y11.344
G01 F600 X51.351 Y11.405
G01 F600 X51.524 Y11.532
G01 F600 X51.668 Y11.691
G01 F600 X51.775 Y11.877
G01 F600 X51.841 Y12.080
G01 F600 X51.864 Y12.294
G01 F600 X51.841 Y12.507
G01 F600 X51.775 Y12.711
G01 F600 X51.668 Y12.896
G01 F600 X51.524 Y13.056
G01 F600 X51.351 Y13.182
G01 F600 X51.155 Y13.269
G01 F600 X50.945 Y13.314
G01 F600 X50.731 Y13.314
G01 F600 X50.521 Y13.269
G01 F600 X50.325 Y13.182
G01 F600 X50.152 Y13.056
G01 F600 X50.008 Y12.896
G01 F600 X49.901 Y12.711
G01 F600 X49.835 Y12.507
G01 F600 X49.813 Y12.294
G01 F600 X49.835 Y12.080
G01 F600 X49.901 Y11.877
G01 F600 X50.008 Y11.691
G01 F600 X50.152 Y11.532
G01 F600 X50.325 Y11.405
G01 F600 X50.423 Y11.362
G01 F600 X50.423 Y10.167
G01 F600 X41.068 Y10.167
G01 F600 X41.068 Y14.673
G01 F600 X43.484 Y17.088
G01 F600 X43.534 Y17.144
G01 F600 X43.575 Y17.215
G01 F600 X43.600 Y17.292
G01 F600 X43.608 Y17.369
G01 F600 X43.608 Y27.538
G01 F600 X43.600 Y27.615
G01 F600 X43.575 Y27.693
G01 F600 X43.534 Y27.763
G01 F600 X43.484 Y27.819
G01 F600 X40.938 Y30.365
G01 F600 X40.873 Y30.412
G01 F600 X40.799 Y30.445
G01 F600 X40.719 Y30.462
G01 F600 X38.277 Y30.462
G01 F600 X35.988 Y32.797
G01 F600 X35.988 Y33.957
G01 F600 X36.111 Y34.011
G01 F600 X36.284 Y34.138
G01 F600 X36.428 Y34.297
G01 F600 X36.535 Y34.483
G01 F600 X36.601 Y34.686
G01 F600 X36.624 Y34.900
G01 F600 X36.601 Y35.113
G01 F600 X36.535 Y35.317
G01 F600 X36.428 Y35.502
G01 F600 X36.284 Y35.662
G01 F600 X36.111 Y35.788
G01 F600 X35.915 Y35.875
G01 F600 X35.705 Y35.920
G01 F600 X35.491 Y35.920
G01 F600 X35.281 Y35.875
G01 F600 X35.085 Y35.788
G01 F600 X34.912 Y35.662
G01 F600 X34.768 Y35.502
G01 F600 X34.698 Y35.380
G01 F600 X34.034 Y35.450
G01 F600 X33.995 Y35.571
G01 F600 X33.888 Y35.756
G01 F600 X33.744 Y35.916
G01 F600 X33.571 Y36.042
G01 F600 X33.375 Y36.129
G01 F600 X33.165 Y36.174
G01 F600 X32.951 Y36.174
G01 F600 X32.741 Y36.129
G01 F600 X32.545 Y36.042
G01 F600 X32.372 Y35.916
G01 F600 X32.228 Y35.756
G01 F600 X32.121 Y35.571
G01 F600 X32.055 Y35.367
G01 F600 X32.032 Y35.154
G01 F600 X32.055 Y34.940
G01 F600 X32.121 Y34.736
G01 F600 X32.228 Y34.551
G01 F600 X32.372 Y34.392
G01 F600 X32.545 Y34.265
G01 F600 X32.668 Y34.211
G01 F600 X32.668 Y33.027
G01 F600 X20.509 Y33.027
G01 F600 X18.784 Y34.573
G01 F600 X18.821 Y34.686
G01 F600 X18.844 Y34.900
G01 F600 X18.821 Y35.113
G01 F600 X18.755 Y35.317
G01 F600 X18.648 Y35.502
G01 F600 X18.504 Y35.662
G01 F600 X18.331 Y35.788
G01 F600 X18.135 Y35.875
G01 F600 X17.925 Y35.920
G01 F600 X17.711 Y35.920
G01 F600 X17.501 Y35.875
G01 F600 X17.305 Y35.788
G01 F600 X17.132 Y35.662
G01 F600 X17.024 Y35.542
G01 F600 X16.224 Y35.542
G01 F600 X16.215 Y35.571
G01 F600 X16.108 Y35.756
G01 F600 X15.964 Y35.916
G01 F600 X15.791 Y36.042
G01 F600 X15.595 Y36.129
G01 F600 X15.385 Y36.174
G01 F600 X15.171 Y36.174
G00 F3000 Z3.000
G00 F3000 X25.331 Y35.920
G00 F1500 Z0
G01 F600 Z-0.200
G01 F600 X25.121 Y35.875
G01 F600 X24.925 Y35.788
G01 F600 X24.752 Y35.662
G01 F600 X24.608 Y35.502
G01 F600 X24.501 Y35.317
G01 F600 X24.435 Y35.113
G01 F600 X24.413 Y34.900
G01 F600 X24.435 Y34.686
G01 F600 X24.501 Y34.483
G01 F600 X24.608 Y34.297
G01 F600 X24.752 Y34.138
G01 F600 X24.925 Y34.011
G01 F600 X25.121 Y33.924
G01 F600 X25.331 Y33.880
G01 F600 X25.545 Y33.880
G01 F600 X25.755 Y33.924
G01 F600 X25.951 Y34.011
G01 F600 X26.124 Y34.138
G01 F600 X26.268 Y34.297
G01 F600 X26.375 Y34.483
G01 F600 X26.441 Y34.686
G01 F600 X26.464 Y34.900
G01 F600 X26.441 Y35.113
G01 F600 X26.375 Y35.317
G01 F600 X26.268 Y35.502
G01 F600 X26.124 Y35.662
G01 F600 X25.951 Y35.788
G01 F600 X25.755 Y35.875
G01 F600 X25.545 Y35.920
G01 F600 X25.331 Y35.920
G00 F3000 Z3.000
G00 F3000 X43.111 Y35.920
G00 F1500 Z0
G01 F600 Z-0.200
G01 F600 X42.901 Y35.875
G01 F600 X42.705 Y35.788
G01 F600 X42.532 Y35.662
G01 F600 X42.388 Y35.502
G01 F600 X42.281 Y35.317
G01 F600 X42.215 Y35.113
G01 F600 X42.193 Y34.900
G01 F600 X42.215 Y34.686
G01 F600 X42.281 Y34.483
G01 F600 X42.388 Y34.297
G01 F600 X42.532 Y34.138
G01 F600 X42.705 Y34.011
G01 F600 X42.901 Y33.924
G01 F600 X43.111 Y33.880
G01 F600 X43.325 Y33.880
G01 F600 X43.535 Y33.924
G01 F600 X43.731 Y34.011
G01 F600 X43.904 Y34.138
G01 F600 X44.048 Y34.297
G01 F600 X44.155 Y34.483
G01 F600 X44.221 Y34.686
G01 F600 X44.244 Y34.900
G01 F600 X44.221 Y35.113
G01 F600 X44.155 Y35.317
G01 F600 X44.048 Y35.502
G01 F600 X43.904 Y35.662
G01 F600 X43.731 Y35.788
G01 F600 X43.535 Y35.875
G01 F600 X43.325 Y35.920
G01 F600 X43.111 Y35.920
G00 F3000 Z3.000
G00 F3000 X48.191 Y35.920
G00 F1500 Z0
G01 F600 Z-0.200
G01 F600 X47.981 Y35.875
G01 F600 X47.785 Y35.788
G01 F600 X47.612 Y35.662
G01 F600 X47.468 Y35.502
G01 F600 X47.361 Y35.317
G01 F600 X47.295 Y35.113
G01 F600 X47.273 Y34.900
G01 F600 X47.295 Y34.686
G01 F600 X47.361 Y34.483
G01 F600 X47.468 Y34.297
G01 F600 X47.612 Y34.138
G01 F600 X47.785 Y34.011
G01 F600 X47.981 Y33.924
G01 F600 X48.191 Y33.880
G01 F600 X48.405 Y33.880
G01 F600 X48.615 Y33.924
G01 F600 X48.811 Y34.011
G01 F600 X48.984 Y34.138
G01 F600 X49.128 Y34.297
G01 F600 X49.235 Y34.483
G01 F600 X49.301 Y34.686
G01 F600 X49.324 Y34.900
G01 F600 X49.301 Y35.113
G01 F600 X49.235 Y35.317
G01 F600 X49.128 Y35.502
G01 F600 X48.984 Y35.662
G01 F600 X48.811 Y35.788
G01 F600 X48.615 Y35.875
G01 F600 X48.405 Y35.920
G01 F600 X48.191 Y35.920
G00 F3000 Z3.000
G00 F3000 X30.411 Y35.920
G00 F1500 Z0
G01 F600 Z-0.200
G01 F600 X30.201 Y35.875
G01 F600 X30.005 Y35.788
G01 F600 X29.832 Y35.662
G01 F600 X29.688 Y35.502
G01 F600 X29.581 Y35.317
G01 F600 X29.515 Y35.113
G01 F600 X29.492 Y34.900
G01 F600 X29.515 Y34.686
G01 F600 X29.581 Y34.483
G01 F600 X29.688 Y34.297
G01 F600 X29.832 Y34.138
G01 F600 X30.005 Y34.011
G01 F600 X30.201 Y33.924
G01 F600 X30.411 Y33.880
G01 F600 X30.625 Y33.880
G01 F600 X30.835 Y33.924
G01 F600 X31.031 Y34.011
G01 F600 X31.204 Y34.138
G01 F600 X31.348 Y34.297
G01 F600 X31.455 Y34.483
G01 F600 X31.521 Y34.686
G01 F600 X31.544 Y34.900
G01 F600 X31.521 Y35.113
G01 F600 X31.455 Y35.317
G01 F600 X31.348 Y35.502
G01 F600 X31.204 Y35.662
G01 F600 X31.031 Y35.788
G01 F600 X30.835 Y35.875
G01 F600 X30.625 Y35.920
G01 F600 X30.411 Y35.920
G00 F3000 Z3.000
G00 F3000 X22.789 Y26.032
G00 F1500 Z0
G01 F600 Z-0.200
G01 F600 X22.576 Y25.986
G01 F600 X22.376 Y25.898
G01 F600 X22.200 Y25.769
G01 F600 X22.054 Y25.607
G01 F600 X21.945 Y25.418
G01 F600 X21.877 Y25.211
G01 F600 X21.854 Y24.994
G01 F600 X21.877 Y24.777
G01 F600 X21.945 Y24.569
G01 F600 X22.054 Y24.380
G01 F600 X22.200 Y24.218
G01 F600 X22.376 Y24.090
G01 F600 X22.576 Y24.001
G01 F600 X22.789 Y23.956
G01 F600 X23.007 Y23.956
G01 F600 X23.221 Y24.001
G01 F600 X23.420 Y24.090
G01 F600 X23.597 Y24.218
G01 F600 X23.742 Y24.380
G01 F600 X23.852 Y24.569
G01 F600 X23.873 Y24.634
G01 F600 X25.073 Y24.650
G01 F600 X25.048 Y12.982
G01 F600 X24.925 Y12.928
G01 F600 X24.752 Y12.802
G01 F600 X24.608 Y12.642
G01 F600 X24.501 Y12.457
G01 F600 X24.435 Y12.253
G01 F600 X24.413 Y12.040
G01 F600 X24.435 Y11.826
G01 F600 X24.501 Y11.623
G01 F600 X24.608 Y11.437
G01 F600 X24.752 Y11.277
G01 F600 X24.925 Y11.151
G01 F600 X25.121 Y11.064
G01 F600 X25.331 Y11.020
G01 F600 X25.545 Y11.020
G01 F600 X25.755 Y11.064
G01 F600 X25.951 Y11.151
G01 F600 X26.124 Y11.277
G01 F600 X26.268 Y11.437
G01 F600 X26.375 Y11.623
G01 F600 X26.441 Y11.826
G01 F600 X26.464 Y12.040
G01 F600 X26.441 Y12.253
G01 F600 X26.375 Y12.457
G01 F600 X26.268 Y12.642
G01 F600 X26.124 Y12.802
G01 F600 X25.951 Y12.928
G01 F600 X25.829 Y12.982
G01 F600 X25.853 Y24.651
G01 F600 X32.173 Y24.582
G01 F600 X32.173 Y24.083
G01 F600 X33.943 Y24.083
G01 F600 X33.943 Y25.854
G01 F600 X32.173 Y25.854
G01 F600 X32.173 Y25.359
G01 F600 X25.496 Y25.433
G01 F600 X25.431 Y25.433
G01 F600 X23.854 Y25.411
G01 F600 X23.852 Y25.418
G01 F600 X23.742 Y25.607
G01 F600 X23.597 Y25.769
G01 F600 X23.420 Y25.898
G01 F600 X23.221 Y25.986
G01 F600 X23.007 Y26.032
G01 F600 X22.789 Y26.032
G00 F3000 Z3.000
G00 F3000 X14.393 Y25.854
G00 F1500 Z0
G01 F600 Z-0.200
G01 F600 X14.393 Y25.358
G01 F600 X10.205 Y25.382
G01 F600 X10.132 Y25.382
G01 F600 X10.052 Y25.365
G01 F600 X9.977 Y25.332
G01 F600 X9.913 Y25.285
G01 F600 X7.367 Y22.739
G01 F600 X7.317 Y22.683
G01 F600 X7.276 Y22.613
G01 F600 X7.251 Y22.535
G01 F600 X7.243 Y22.458
G01 F600 X7.268 Y12.982
G01 F600 X7.145 Y12.928
G01 F600 X6.972 Y12.802
G01 F600 X6.828 Y12.642
G01 F600 X6.721 Y12.457
G01 F600 X6.655 Y12.253
G01 F600 X6.633 Y12.040
G01 F600 X6.655 Y11.826
G01 F600 X6.721 Y11.623
G01 F600 X6.828 Y11.437
G01 F600 X6.972 Y11.277
G01 F600 X7.145 Y11.151
G01 F600 X7.341 Y11.064
G01 F600 X7.551 Y11.020
G01 F600 X7.765 Y11.020
G01 F600 X7.975 Y11.064
G01 F600 X8.171 Y11.151
G01 F600 X8.344 Y11.277
G01 F600 X8.488 Y11.437
G01 F600 X8.595 Y11.623
G01 F600 X8.661 Y11.826
G01 F600 X8.684 Y12.040
G01 F600 X8.661 Y12.253
G01 F600 X8.595 Y12.457
G01 F600 X8.488 Y12.642
G01 F600 X8.344 Y12.802
G01 F600 X8.171 Y12.928
G01 F600 X8.048 Y12.983
G01 F600 X8.023 Y22.293
G01 F600 X10.334 Y24.604
G01 F600 X14.393 Y24.581
G01 F600 X14.393 Y24.083
G01 F600 X16.163 Y24.083
G01 F600 X16.163 Y25.854
G01 F600 X14.393 Y25.854
G00 F3000 Z3.000
G00 F3000 X15.186 Y23.335
G00 F1500 Z0
G01 F600 Z-0.200
G01 F600 X15.004 Y23.296
G01 F600 X14.835 Y23.221
G01 F600 X14.685 Y23.112
G01 F600 X14.562 Y22.974
G01 F600 X14.469 Y22.814
G01 F600 X14.412 Y22.638
G01 F600 X14.392 Y22.454
G01 F600 X14.412 Y22.269
G01 F600 X14.469 Y22.093
G01 F600 X14.562 Y21.933
G01 F600 X14.685 Y21.795
G01 F600 X14.835 Y21.687
G01 F600 X15.004 Y21.611
G01 F600 X15.186 Y21.573
G01 F600 X15.371 Y21.573
G01 F600 X15.552 Y21.611
G01 F600 X15.721 Y21.687
G01 F600 X15.871 Y21.795
G01 F600 X15.995 Y21.933
G01 F600 X16.087 Y22.093
G01 F600 X16.145 Y22.269
G01 F600 X16.164 Y22.454
G01 F600 X16.145 Y22.638
G01 F600 X16.087 Y22.814
G01 F600 X15.995 Y22.974
G01 F600 X15.871 Y23.112
G01 F600 X15.721 Y23.221
G01 F600 X15.552 Y23.296
G01 F600 X15.371 Y23.335
G01 F600 X15.186 Y23.335
G00 F3000 Z3.000
G00 F3000 X32.965 Y23.335
G00 F1500 Z0
G01 F600 Z-0.200
G01 F600 X32.784 Y23.296
G01 F600 X32.615 Y23.221
G01 F600 X32.465 Y23.112
G01 F600 X32.342 Y22.974
G01 F600 X32.249 Y22.814
G01 F600 X32.192 Y22.638
G01 F600 X32.172 Y22.454
G01 F600 X32.192 Y22.269
G01 F600 X32.249 Y22.093
G01 F600 X32.342 Y21.933
G01 F600 X32.465 Y21.795
G01 F600 X32.615 Y21.687
G01 F600 X32.784 Y21.611
G01 F600 X32.965 Y21.573
G01 F600 X33.151 Y21.573
G01 F600 X33.332 Y21.611
G01 F600 X33.501 Y21.687
G01 F600 X33.651 Y21.795
G01 F600 X33.775 Y21.933
G01 F600 X33.867 Y22.093
G01 F600 X33.925 Y22.269
G01 F600 X33.944 Y22.454
G01 F600 X33.925 Y22.638
G01 F600 X33.867 Y22.814
G01 F600 X33.775 Y22.974
G01 F600 X33.651 Y23.112
G01 F600 X33.501 Y23.221
G01 F600 X33.332 Y23.296
G01 F600 X33.151 Y23.335
G01 F600 X32.965 Y23.335
G00 F3000 Z3.000
G00 F3000 X50.745 Y23.335
G00 F1500 Z0
G01 F600 Z-0.200
G01 F600 X50.564 Y23.296
G01 F600 X50.395 Y23.221
G01 F600 X50.245 Y23.112
G01 F600 X50.122 Y22.974
G01 F600 X50.029 Y22.814
G01 F600 X49.972 Y22.638
G01 F600 X49.952 Y22.454
G01 F600 X49.972 Y22.269
G01 F600 X50.029 Y22.093
G01 F600 X50.122 Y21.933
G01 F600 X50.245 Y21.795
G01 F600 X50.395 Y21.687
G01 F600 X50.564 Y21.611
G01 F600 X50.745 Y21.573
G01 F600 X50.931 Y21.573
G01 F600 X51.112 Y21.611
G01 F600 X51.281 Y21.687
G01 F600 X51.431 Y21.795
G01 F600 X51.555 Y21.933
G01 F600 X51.647 Y22.093
G01 F600 X51.705 Y22.269
G01 F600 X51.724 Y22.454
G01 F600 X51.705 Y22.638
G01 F600 X51.647 Y22.814
G01 F600 X51.555 Y22.974
G01 F600 X51.431 Y23.112
G01 F600 X51.281 Y23.221
G01 F600 X51.112 Y23.296
G01 F600 X50.931 Y23.335
G01 F600 X50.745 Y23.335
G00 F3000 Z3.000
G00 F3000 X12.630 Y18.406
G00 F1500 Z0
G01 F600 Z-0.200
G01 F600 X12.417 Y18.361
G01 F600 X12.219 Y18.273
G01 F600 X12.043 Y18.145
G01 F600 X11.898 Y17.984
G01 F600 X11.790 Y17.796
G01 F600 X11.723 Y17.590
G01 F600 X11.700 Y17.374
G01 F600 X11.723 Y17.158
G01 F600 X11.790 Y16.951
G01 F600 X11.898 Y16.763
G01 F600 X12.043 Y16.602
G01 F600 X12.219 Y16.474
G01 F600 X12.417 Y16.386
G01 F600 X12.630 Y16.341
G01 F600 X12.847 Y16.341
G01 F600 X13.059 Y16.386
G01 F600 X13.257 Y16.474
G01 F600 X13.433 Y16.602
G01 F600 X13.578 Y16.763
G01 F600 X13.687 Y16.951
G01 F600 X13.754 Y17.158
G01 F600 X13.776 Y17.374
G01 F600 X13.754 Y17.590
G01 F600 X13.687 Y17.796
G01 F600 X13.578 Y17.984
G01 F600 X13.433 Y18.145
G01 F600 X13.257 Y18.273
G01 F600 X13.059 Y18.361
G01 F600 X12.847 Y18.406
G01 F600 X12.630 Y18.406
G00 F3000 Z3.000
G00 F3000 X22.790 Y18.406
G00 F1500 Z0
G01 F600 Z-0.200
G01 F600 X22.577 Y18.361
G01 F600 X22.379 Y18.273
G01 F600 X22.203 Y18.145
G01 F600 X22.058 Y17.984
G01 F600 X21.950 Y17.796
G01 F600 X21.883 Y17.590
G01 F600 X21.860 Y17.374
G01 F600 X21.883 Y17.158
G01 F600 X21.950 Y16.951
G01 F600 X22.058 Y16.763
G01 F600 X22.203 Y16.602
G01 F600 X22.379 Y16.474
G01 F600 X22.577 Y16.386
G01 F600 X22.790 Y16.341
G01 F600 X23.007 Y16.341
G01 F600 X23.219 Y16.386
G01 F600 X23.417 Y16.474
G01 F600 X23.593 Y16.602
G01 F600 X23.738 Y16.763
G01 F600 X23.847 Y16.951
G01 F600 X23.914 Y17.158
G01 F600 X23.936 Y17.374
G01 F600 X23.914 Y17.590
G01 F600 X23.847 Y17.796
G01 F600 X23.738 Y17.984
G01 F600 X23.593 Y18.145
G01 F600 X23.417 Y18.273
G01 F600 X23.219 Y18.361
G01 F600 X23.007 Y18.406
G01 F600 X22.790 Y18.406
G00 F3000 Z3.000
G00 F3000 X30.410 Y18.406
G00 F1500 Z0
G01 F600 Z-0.200
G01 F600 X30.197 Y18.361
G01 F600 X29.999 Y18.273
G01 F600 X29.823 Y18.145
G01 F600 X29.678 Y17.984
G01 F600 X29.570 Y17.796
G01 F600 X29.503 Y17.590
G01 F600 X29.480 Y17.374
G01 F600 X29.503 Y17.158
G01 F600 X29.570 Y16.951
G01 F600 X29.678 Y16.763
G01 F600 X29.823 Y16.602
G01 F600 X29.999 Y16.474
G01 F600 X30.197 Y16.386
G01 F600 X30.410 Y16.341
G01 F600 X30.627 Y16.341
G01 F600 X30.839 Y16.386
G01 F600 X31.037 Y16.474
G01 F600 X31.213 Y16.602
G01 F600 X31.358 Y16.763
G01 F600 X31.467 Y16.951
G01 F600 X31.534 Y17.158
G01 F600 X31.556 Y17.374
G01 F600 X31.534 Y17.590
G01 F600 X31.467 Y17.796
G01 F600 X31.358 Y17.984
G01 F600 X31.213 Y18.145
G01 F600 X31.037 Y18.273
G01 F600 X30.839 Y18.361
G01 F600 X30.627 Y18.406
G01 F600 X30.410 Y18.406
G00 F3000 Z3.000
G00 F3000 X40.570 Y18.406
G00 F1500 Z0
G01 F600 Z-0.200
G01 F600 X40.357 Y18.361
G01 F600 X40.159 Y18.273
G01 F600 X39.983 Y18.145
G01 F600 X39.838 Y17.984
G01 F600 X39.730 Y17.796
G01 F600 X39.663 Y17.590
G01 F600 X39.640 Y17.374
G01 F600 X39.663 Y17.158
G01 F600 X39.730 Y16.951
G01 F600 X39.838 Y16.763
G01 F600 X39.983 Y16.602
G01 F600 X40.159 Y16.474
G01 F600 X40.357 Y16.386
G01 F600 X40.570 Y16.341
G01 F600 X40.787 Y16.341
G01 F600 X40.999 Y16.386
G01 F600 X41.197 Y16.474
G01 F600 X41.373 Y16.602
G01 F600 X41.518 Y16.763
G01 F600 X41.627 Y16.951
G01 F600 X41.694 Y17.158
G01 F600 X41.716 Y17.374
G01 F600 X41.694 Y17.590
G01 F600 X41.627 Y17.796
G01 F600 X41.518 Y17.984
G01 F600 X41.373 Y18.145
G01 F600 X41.197 Y18.273
G01 F600 X40.999 Y18.361
G01 F600 X40.787 Y18.406
G01 F600 X40.570 Y18.406
G00 F3000 Z3.000
G00 F3000 X48.190 Y18.406
G00 F1500 Z0
G01 F600 Z-0.200
G01 F600 X47.977 Y18.361
G01 F600 X47.779 Y18.273
G01 F600 X47.603 Y18.145
G01 F600 X47.458 Y17.984
G01 F600 X47.350 Y17.796
G01 F600 X47.282 Y17.590
G01 F600 X47.260 Y17.374
G01 F600 X47.282 Y17.158
G01 F600 X47.350 Y16.951
G01 F600 X47.458 Y16.763
G01 F600 X47.603 Y16.602
G01 F600 X47.779 Y16.474
G01 F600 X47.977 Y16.386
G01 F600 X48.190 Y16.341
G01 F600 X48.407 Y16.341
G01 F600 X48.619 Y16.386
G01 F600 X48.817 Y16.474
G01 F600 X48.993 Y16.602
G01 F600 X49.138 Y16.763
G01 F600 X49.247 Y16.951
G01 F600 X49.314 Y17.158
G01 F600 X49.336 Y17.374
G01 F600 X49.314 Y17.590
G01 F600 X49.247 Y17.796
G01 F600 X49.138 Y17.984
G01 F600 X48.993 Y18.145
G01 F600 X48.817 Y18.273
G01 F600 X48.619 Y18.361
G01 F600 X48.407 Y18.406
G01 F600 X48.190 Y18.406
G00 F3000 Z3.000
G00 F3000 X58.350 Y18.406
G00 F1500 Z0
G01 F600 Z-0.200
G01 F600 X58.137 Y18.361
G01 F600 X57.939 Y18.273
G01 F600 X57.763 Y18.145
G01 F600 X57.618 Y17.984
G01 F600 X57.510 Y17.796
G01 F600 X57.443 Y17.590
G01 F600 X57.420 Y17.374
G01 F600 X57.443 Y17.158
G01 F600 X57.510 Y16.951
G01 F600 X57.618 Y16.763
G01 F600 X57.763 Y16.602
G01 F600 X57.939 Y16.474
G01 F600 X58.137 Y16.386
G01 F600 X58.350 Y16.341
G01 F600 X58.567 Y16.341
G01 F600 X58.779 Y16.386
G01 F600 X58.977 Y16.474
G01 F600 X59.153 Y16.602
G01 F600 X59.298 Y16.763
G01 F600 X59.407 Y16.951
G01 F600 X59.474 Y17.158
G01 F600 X59.496 Y17.374
G01 F600 X59.474 Y17.590
G01 F600 X59.407 Y17.796
G01 F600 X59.298 Y17.984
G01 F600 X59.153 Y18.145
G01 F600 X58.977 Y18.273
G01 F600 X58.779 Y18.361
G01 F600 X58.567 Y18.406
G01 F600 X58.350 Y18.406
G00 F3000 Z3.000
G00 F3000 X55.811 Y13.314
G00 F1500 Z0
G01 F600 Z-0.200
G01 F600 X55.601 Y13.269
G01 F600 X55.405 Y13.182
G01 F600 X55.232 Y13.056
G01 F600 X55.088 Y12.896
G01 F600 X54.981 Y12.711
G01 F600 X54.915 Y12.507
G01 F600 X54.893 Y12.294
G01 F600 X54.915 Y12.080
G01 F600 X54.981 Y11.877
G01 F600 X55.088 Y11.691
G01 F600 X55.232 Y11.532
G01 F600 X55.405 Y11.405
G01 F600 X55.601 Y11.318
G01 F600 X55.811 Y11.274
G01 F600 X56.025 Y11.274
G01 F600 X56.235 Y11.318
G01 F600 X56.431 Y11.405
G01 F600 X56.604 Y11.532
G01 F600 X56.748 Y11.691
G01 F600 X56.855 Y11.877
G01 F600 X56.921 Y12.080
G01 F600 X56.944 Y12.294
G01 F600 X56.921 Y12.507
G01 F600 X56.855 Y12.711
G01 F600 X56.748 Y12.896
G01 F600 X56.604 Y13.056
G01 F600 X56.431 Y13.182
G01 F600 X56.235 Y13.269
G01 F600 X56.025 Y13.314
G01 F600 X55.811 Y13.314
G00 F3000 Z3.000
G00 F3000 X45.651 Y13.314
G00 F1500 Z0
G01 F600 Z-0.200
G01 F600 X45.441 Y13.269
G01 F600 X45.245 Y13.182
G01 F600 X45.072 Y13.056
G01 F600 X44.928 Y12.896
G01 F600 X44.821 Y12.711
G01 F600 X44.755 Y12.507
G01 F600 X44.733 Y12.294
G01 F600 X44.755 Y12.080
G01 F600 X44.821 Y11.877
G01 F600 X44.928 Y11.691
G01 F600 X45.072 Y11.532
G01 F600 X45.245 Y11.405
G01 F600 X45.441 Y11.318
G01 F600 X45.651 Y11.274
G01 F600 X45.865 Y11.274
G01 F600 X46.075 Y11.318
G01 F600 X46.271 Y11.405
G01 F600 X46.444 Y11.532
G01 F600 X46.588 Y11.691
G01 F600 X46.695 Y11.877
G01 F600 X46.761 Y12.080
G01 F600 X46.784 Y12.294
G01 F600 X46.761 Y12.507
G01 F600 X46.695 Y12.711
G01 F600 X46.588 Y12.896
G01 F600 X46.444 Y13.056
G01 F600 X46.271 Y13.182
G01 F600 X46.075 Y13.269
G01 F600 X45.865 Y13.314
G01 F600 X45.651 Y13.314
G00 F3000 Z3.000
G00 F3000 X38.031 Y13.314
G00 F1500 Z0
G01 F600 Z-0.200
G01 F600 X37.821 Y13.269
G01 F600 X37.625 Y13.182
G01 F600 X37.452 Y13.056
G01 F600 X37.308 Y12.896
G01 F600 X37.201 Y12.711
G01 F600 X37.135 Y12.507
G01 F600 X37.113 Y12.294
G01 F600 X37.135 Y12.080
G01 F600 X37.201 Y11.877
G01 F600 X37.308 Y11.691
G01 F600 X37.452 Y11.532
G01 F600 X37.625 Y11.405
G01 F600 X37.821 Y11.318
G01 F600 X38.031 Y11.274
G01 F600 X38.245 Y11.274
G01 F600 X38.455 Y11.318
G01 F600 X38.651 Y11.405
G01 F600 X38.824 Y11.532
G01 F600 X38.968 Y11.691
G01 F600 X39.075 Y11.877
G01 F600 X39.141 Y12.080
G01 F600 X39.164 Y12.294
G01 F600 X39.141 Y12.507
G01 F600 X39.075 Y12.711
G01 F600 X38.968 Y12.896
G01 F600 X38.824 Y13.056
G01 F600 X38.651 Y13.182
G01 F600 X38.455 Y13.269
G01 F600 X38.245 Y13.314
G01 F600 X38.031 Y13.314
G00 F3000 Z3.000
G00 F3000 X10.091 Y13.314
G00 F1500 Z0
G01 F600 Z-0.200
G01 F600 X9.881 Y13.269
G01 F600 X9.685 Y13.182
G01 F600 X9.512 Y13.056
G01 F600 X9.368 Y12.896
G01 F600 X9.261 Y12.711
G01 F600 X9.195 Y12.507
G01 F600 X9.173 Y12.294
G01 F600 X9.195 Y12.080
G01 F600 X9.261 Y11.877
G01 F600 X9.368 Y11.691
G01 F600 X9.512 Y11.532
G01 F600 X9.685 Y11.405
G01 F600 X9.881 Y11.318
G01 F600 X10.091 Y11.274
G01 F600 X10.305 Y11.274
G01 F600 X10.515 Y11.318
G01 F600 X10.711 Y11.405
G01 F600 X10.884 Y11.532
G01 F600 X11.028 Y11.691
G01 F600 X11.135 Y11.877
G01 F600 X11.201 Y12.080
G01 F600 X11.224 Y12.294
G01 F600 X11.201 Y12.507
G01 F600 X11.135 Y12.711
G01 F600 X11.028 Y12.896
G01 F600 X10.884 Y13.056
G01 F600 X10.711 Y13.182
G01 F600 X10.515 Y13.269
G01 F600 X10.305 Y13.314
G01 F600 X10.091 Y13.314
G00 F3000 Z3.000
G00 F3000 X27.871 Y13.314
G00 F1500 Z0
G01 F600 Z-0.200
G01 F600 X27.661 Y13.269
G01 F600 X27.465 Y13.182
G01 F600 X27.292 Y13.056
G01 F600 X27.148 Y12.896
G01 F600 X27.041 Y12.711
G01 F600 X26.975 Y12.507
G01 F600 X26.953 Y12.294
G01 F600 X26.975 Y12.080
G01 F600 X27.041 Y11.877
G01 F600 X27.148 Y11.691
G01 F600 X27.292 Y11.532
G01 F600 X27.465 Y11.405
G01 F600 X27.661 Y11.318
G01 F600 X27.871 Y11.274
G01 F600 X28.085 Y11.274
G01 F600 X28.295 Y11.318
G01 F600 X28.491 Y11.405
G01 F600 X28.664 Y11.532
G01 F600 X28.808 Y11.691
G01 F600 X28.915 Y11.877
G01 F600 X28.981 Y12.080
G01 F600 X29.004 Y12.294
G01 F600 X28.981 Y12.507
G01 F600 X28.915 Y12.711
G01 F600 X28.808 Y12.896
G01 F600 X28.664 Y13.056
G01 F600 X28.491 Y13.182
G01 F600 X28.295 Y13.269
G01 F600 X28.085 Y13.314
G01 F600 X27.871 Y13.314
G00 F3000 Z3.000
G00 F3000 X20.251 Y13.314
G00 F1500 Z0
G01 F600 Z-0.200
G01 F600 X20.041 Y13.269
G01 F600 X19.845 Y13.182
G01 F600 X19.672 Y13.056
G01 F600 X19.528 Y12.896
G01 F600 X19.421 Y12.711
G01 F600 X19.355 Y12.507
G01 F600 X19.332 Y12.294
G01 F600 X19.355 Y12.080
G01 F600 X19.421 Y11.877
G01 F600 X19.528 Y11.691
G01 F600 X19.672 Y11.532
G01 F600 X19.845 Y11.405
G01 F600 X20.041 Y11.318
G01 F600 X20.251 Y11.274
G01 F600 X20.465 Y11.274
G01 F600 X20.675 Y11.318
G01 F600 X20.871 Y11.405
G01 F600 X21.044 Y11.532
G01 F600 X21.188 Y11.691
G01 F600 X21.295 Y11.877
G01 F600 X21.361 Y12.080
G01 F600 X21.384 Y12.294
G01 F600 X21.361 Y12.507
G01 F600 X21.295 Y12.711
G01 F600 X21.188 Y12.896
G01 F600 X21.044 Y13.056
G01 F600 X20.871 Y13.182
G01 F600 X20.675 Y13.269
G01 F600 X20.465 Y13.314
G01 F600 X20.251 Y13.314
G00 F3000 Z3.000
G00 F3000 X48.191 Y13.060
G00 F1500 Z0
G01 F600 Z-0.200
G01 F600 X47.981 Y13.015
G01 F600 X47.785 Y12.928
G01 F600 X47.612 Y12.802
G01 F600 X47.468 Y12.642
G01 F600 X47.361 Y12.457
G01 F600 X47.295 Y12.253
G01 F600 X47.273 Y12.040
G01 F600 X47.295 Y11.826
G01 F600 X47.361 Y11.623
G01 F600 X47.468 Y11.437
G01 F600 X47.612 Y11.277
G01 F600 X47.785 Y11.151
G01 F600 X47.981 Y11.064
G01 F600 X48.191 Y11.020
G01 F600 X48.405 Y11.020
G01 F600 X48.615 Y11.064
G01 F600 X48.811 Y11.151
G01 F600 X48.984 Y11.277
G01 F600 X49.128 Y11.437
G01 F600 X49.235 Y11.623
G01 F600 X49.301 Y11.826
G01 F600 X49.324 Y12.040
G01 F600 X49.301 Y12.253
G01 F600 X49.235 Y12.457
G01 F600 X49.128 Y12.642
G01 F600 X48.984 Y12.802
G01 F600 X48.811 Y12.928
G01 F600 X48.615 Y13.015
G01 F600 X48.405 Y13.060
G01 F600 X48.191 Y13.060
G00 F3000 Z3.000
G00 F3000 X35.491 Y13.060
G00 F1500 Z0
G01 F600 Z-0.200
G01 F600 X35.281 Y13.015
G01 F600 X35.085 Y12.928
G01 F600 X34.912 Y12.802
G01 F600 X34.768 Y12.642
G01 F600 X34.661 Y12.457
G01 F600 X34.595 Y12.253
G01 F600 X34.573 Y12.040
G01 F600 X34.595 Y11.826
G01 F600 X34.661 Y11.623
G01 F600 X34.768 Y11.437
G01 F600 X34.912 Y11.277
G01 F600 X35.085 Y11.151
G01 F600 X35.281 Y11.064
G01 F600 X35.491 Y11.020
G01 F600 X35.705 Y11.020
G01 F600 X35.915 Y11.064
G01 F600 X36.033 Y11.117
G01 F600 X37.850 Y9.491
G01 F600 X40.419 Y6.922
G01 F600 X40.483 Y6.875
G01 F600 X40.557 Y6.842
G01 F600 X40.637 Y6.825
G01 F600 X40.710 Y6.825
G01 F600 X50.930 Y6.851
G01 F600 X51.010 Y6.868
G01 F600 X51.084 Y6.901
G01 F600 X51.149 Y6.948
G01 F600 X53.670 Y9.494
G01 F600 X53.720 Y9.549
G01 F600 X53.760 Y9.620
G01 F600 X53.786 Y9.698
G01 F600 X53.794 Y9.775
G01 F600 X53.771 Y11.098
G01 F600 X53.891 Y11.151
G01 F600 X54.064 Y11.277
G01 F600 X54.208 Y11.437
G01 F600 X54.315 Y11.623
G01 F600 X54.381 Y11.826
G01 F600 X54.404 Y12.040
G01 F600 X54.381 Y12.253
G01 F600 X54.315 Y12.457
G01 F600 X54.208 Y12.642
G01 F600 X54.064 Y12.802
G01 F600 X53.891 Y12.928
G01 F600 X53.695 Y13.015
G01 F600 X53.485 Y13.060
G01 F600 X53.271 Y13.060
G01 F600 X53.061 Y13.015
G01 F600 X52.865 Y12.928
G01 F600 X52.692 Y12.802
G01 F600 X52.548 Y12.642
G01 F600 X52.441 Y12.457
G01 F600 X52.375 Y12.253
G01 F600 X52.352 Y12.040
G01 F600 X52.375 Y11.826
G01 F600 X52.441 Y11.623
G01 F600 X52.548 Y11.437
G01 F600 X52.692 Y11.277
G01 F600 X52.865 Y11.151
G01 F600 X52.991 Y11.096
G01 F600 X53.011 Y9.936
G01 F600 X50.725 Y7.627
G01 F600 X40.840 Y7.603
G01 F600 X38.375 Y10.068
G01 F600 X36.558 Y11.694
G01 F600 X36.601 Y11.826
G01 F600 X36.624 Y12.040
G01 F600 X36.601 Y12.253
G01 F600 X36.535 Y12.457
G01 F600 X36.428 Y12.642
G01 F600 X36.284 Y12.802
G01 F600 X36.111 Y12.928
G01 F600 X35.915 Y13.015
G01 F600 X35.705 Y13.060
G01 F600 X35.491 Y13.060
G00 F3000 Z3.000
G00 F3000 X30.411 Y13.060
G00 F1500 Z0
G01 F600 Z-0.200
G01 F600 X30.201 Y13.015
G01 F600 X30.005 Y12.928
G01 F600 X29.832 Y12.802
G01 F600 X29.688 Y12.642
G01 F600 X29.581 Y12.457
G01 F600 X29.515 Y12.253
G01 F600 X29.492 Y12.040
G01 F600 X29.515 Y11.826
G01 F600 X29.581 Y11.623
G01 F600 X29.688 Y11.437
G01 F600 X29.832 Y11.277
G01 F600 X30.005 Y11.151
G01 F600 X30.201 Y11.064
G01 F600 X30.411 Y11.020
G01 F600 X30.625 Y11.020
G01 F600 X30.835 Y11.064
G01 F600 X31.031 Y11.151
G01 F600 X31.204 Y11.277
G01 F600 X31.348 Y11.437
G01 F600 X31.455 Y11.623
G01 F600 X31.521 Y11.826
G01 F600 X31.544 Y12.040
G01 F600 X31.521 Y12.253
G01 F600 X31.455 Y12.457
G01 F600 X31.348 Y12.642
G01 F600 X31.204 Y12.802
G01 F600 X31.031 Y12.928
G01 F600 X30.835 Y13.015
G01 F600 X30.625 Y13.060
G01 F600 X30.411 Y13.060
G00 F3000 Z3.000
G00 F3000 X12.631 Y13.060
G00 F1500 Z0
G01 F600 Z-0.200
G01 F600 X12.421 Y13.015
G01 F600 X12.225 Y12.928
G01 F600 X12.052 Y12.802
G01 F600 X11.908 Y12.642
G01 F600 X11.801 Y12.457
G01 F600 X11.735 Y12.253
G01 F600 X11.713 Y12.040
G01 F600 X11.735 Y11.826
G01 F600 X11.801 Y11.623
G01 F600 X11.908 Y11.437
G01 F600 X12.052 Y11.277
G01 F600 X12.225 Y11.151
G01 F600 X12.421 Y11.064
G01 F600 X12.631 Y11.020
G01 F600 X12.845 Y11.020
G01 F600 X13.055 Y11.064
G01 F600 X13.251 Y11.151
G01 F600 X13.424 Y11.277
G01 F600 X13.568 Y11.437
G01 F600 X13.675 Y11.623
G01 F600 X13.741 Y11.826
G01 F600 X13.764 Y12.040
G01 F600 X13.741 Y12.253
G01 F600 X13.675 Y12.457
G01 F600 X13.568 Y12.642
G01 F600 X13.424 Y12.802
G01 F600 X13.251 Y12.928
G01 F600 X13.055 Y13.015
G01 F600 X12.845 Y13.060
G01 F600 X12.631 Y13.060
G00 F3000 Z3.000
G00 F3000 X15.163 Y59.107
G00 F1500 Z0
G01 F600 Z-0.200
G01 F600 X14.938 Y59.059
G01 F600 X14.728 Y58.966
G01 F600 X14.542 Y58.831
G01 F600 X14.389 Y58.660
G01 F600 X14.274 Y58.461
G01 F600 X14.202 Y58.242
G01 F600 X14.179 Y58.014
G01 F600 X14.202 Y57.785
G01 F600 X14.274 Y57.566
G01 F600 X14.389 Y57.367
G01 F600 X14.542 Y57.196
G01 F600 X14.728 Y57.061
G01 F600 X14.938 Y56.968
G01 F600 X15.163 Y56.920
G01 F600 X15.393 Y56.920
G01 F600 X15.618 Y56.968
G01 F600 X15.828 Y57.061
G01 F600 X16.014 Y57.196
G01 F600 X16.168 Y57.367
G01 F600 X16.283 Y57.566
G01 F600 X16.354 Y57.785
G01 F600 X16.378 Y58.014
G01 F600 X16.354 Y58.242
G01 F600 X16.283 Y58.461
G01 F600 X16.168 Y58.660
G01 F600 X16.014 Y58.831
G01 F600 X15.828 Y58.966
G01 F600 X15.618 Y59.059
G01 F600 X15.393 Y59.107
G01 F600 X15.163 Y59.107
G00 F3000 Z3.000
G00 F3000 X45.643 Y59.107
G00 F1500 Z0
G01 F600 Z-0.200
G01 F600 X45.418 Y59.059
G01 F600 X45.208 Y58.966
G01 F600 X45.022 Y58.831
G01 F600 X44.869 Y58.660
G01 F600 X44.754 Y58.461
G01 F600 X44.682 Y58.242
G01 F600 X44.659 Y58.014
G01 F600 X44.682 Y57.785
G01 F600 X44.754 Y57.566
G01 F600 X44.869 Y57.367
G01 F600 X45.022 Y57.196
G01 F600 X45.208 Y57.061
G01 F600 X45.418 Y56.968
G01 F600 X45.643 Y56.920
G01 F600 X45.873 Y56.920
G01 F600 X46.098 Y56.968
G01 F600 X46.308 Y57.061
G01 F600 X46.494 Y57.196
G01 F600 X46.648 Y57.367
G01 F600 X46.763 Y57.566
G01 F600 X46.834 Y57.785
G01 F600 X46.858 Y58.014
G01 F600 X46.834 Y58.242
G01 F600 X46.763 Y58.461
G01 F600 X46.648 Y58.660
G01 F600 X46.494 Y58.831
G01 F600 X46.308 Y58.966
G01 F600 X46.098 Y59.059
G01 F600 X45.873 Y59.107
G01 F600 X45.643 Y59.107
G00 F3000 Z3.000
G00 F3000 X32.943 Y59.107
G00 F1500 Z0
G01 F600 Z-0.200
G01 F600 X32.718 Y59.059
G01 F600 X32.508 Y58.966
G01 F600 X32.322 Y58.831
G01 F600 X32.169 Y58.660
G01 F600 X32.053 Y58.461
G01 F600 X31.982 Y58.242
G01 F600 X31.959 Y58.014
G01 F600 X31.982 Y57.785
G01 F600 X32.053 Y57.566
G01 F600 X32.169 Y57.367
G01 F600 X32.322 Y57.196
G01 F600 X32.508 Y57.061
G01 F600 X32.718 Y56.968
G01 F600 X32.943 Y56.920
G01 F600 X33.173 Y56.920
G01 F600 X33.398 Y56.968
G01 F600 X33.608 Y57.061
G01 F600 X33.794 Y57.196
G01 F600 X33.948 Y57.367
G01 F600 X34.063 Y57.566
G01 F600 X34.134 Y57.785
G01 F600 X34.158 Y58.014
G01 F600 X34.134 Y58.242
G01 F600 X34.063 Y58.461
G01 F600 X33.948 Y58.660
G01 F600 X33.794 Y58.831
G01 F600 X33.608 Y58.966
G01 F600 X33.398 Y59.059
G01 F600 X33.173 Y59.107
G01 F600 X32.943 Y59.107
G00 F3000 Z3.000
G00 F3000 X27.863 Y59.107
G00 F1500 Z0
G01 F600 Z-0.200
G01 F600 X27.638 Y59.059
G01 F600 X27.428 Y58.966
G01 F600 X27.242 Y58.831
G01 F600 X27.088 Y58.660
G01 F600 X26.974 Y58.461
G01 F600 X26.902 Y58.242
G01 F600 X26.879 Y58.014
G01 F600 X26.902 Y57.785
G01 F600 X26.974 Y57.566
G01 F600 X27.088 Y57.367
G01 F600 X27.242 Y57.196
G01 F600 X27.428 Y57.061
G01 F600 X27.638 Y56.968
G01 F600 X27.863 Y56.920
G01 F600 X28.093 Y56.920
G01 F600 X28.318 Y56.968
G01 F600 X28.528 Y57.061
G01 F600 X28.714 Y57.196
G01 F600 X28.868 Y57.367
G01 F600 X28.983 Y57.566
G01 F600 X29.054 Y57.785
G01 F600 X29.078 Y58.014
G01 F600 X29.054 Y58.242
G01 F600 X28.983 Y58.461
G01 F600 X28.868 Y58.660
G01 F600 X28.714 Y58.831
G01 F600 X28.528 Y58.966
G01 F600 X28.318 Y59.059
G01 F600 X28.093 Y59.107
G01 F600 X27.863 Y59.107
G00 F3000 Z3.000
G00 F3000 X12.623 Y59.107
G00 F1500 Z0
G01 F600 Z-0.200
G01 F600 X12.398 Y59.059
G01 F600 X12.188 Y58.966
G01 F600 X12.003 Y58.831
G01 F600 X11.849 Y58.660
G01 F600 X11.734 Y58.461
G01 F600 X11.663 Y58.242
G01 F600 X11.639 Y58.014
G01 F600 X11.663 Y57.785
G01 F600 X11.734 Y57.567
G01 F600 X11.849 Y57.367
G01 F600 X12.003 Y57.197
G01 F600 X12.188 Y57.062
G01 F600 X12.398 Y56.968
G01 F600 X12.623 Y56.920
G01 F600 X12.853 Y56.920
G01 F600 X13.078 Y56.968
G01 F600 X13.288 Y57.062
G01 F600 X13.474 Y57.197
G01 F600 X13.627 Y57.367
G01 F600 X13.742 Y57.567
G01 F600 X13.813 Y57.785
G01 F600 X13.838 Y58.014
G01 F600 X13.813 Y58.242
G01 F600 X13.742 Y58.461
G01 F600 X13.627 Y58.660
G01 F600 X13.474 Y58.831
G01 F600 X13.288 Y58.966
G01 F600 X13.078 Y59.059
G01 F600 X12.853 Y59.107
G01 F600 X12.623 Y59.107
G00 F3000 Z3.000
G00 F3000 X7.543 Y59.107
G00 F1500 Z0
G01 F600 Z-0.200
G01 F600 X7.318 Y59.059
G01 F600 X7.108 Y58.966
G01 F600 X6.923 Y58.831
G01 F600 X6.769 Y58.660
G01 F600 X6.654 Y58.461
G01 F600 X6.583 Y58.242
G01 F600 X6.559 Y58.014
G01 F600 X6.583 Y57.785
G01 F600 X6.654 Y57.567
G01 F600 X6.769 Y57.367
G01 F600 X6.923 Y57.197
G01 F600 X7.108 Y57.062
G01 F600 X7.318 Y56.968
G01 F600 X7.543 Y56.920
G01 F600 X7.773 Y56.920
G01 F600 X7.998 Y56.968
G01 F600 X8.208 Y57.062
G01 F600 X8.394 Y57.197
G01 F600 X8.547 Y57.367
G01 F600 X8.662 Y57.567
G01 F600 X8.733 Y57.785
G01 F600 X8.758 Y58.014
G01 F600 X8.733 Y58.242
G01 F600 X8.662 Y58.461
G01 F600 X8.547 Y58.660
G01 F600 X8.394 Y58.831
G01 F600 X8.208 Y58.966
G01 F600 X7.998 Y59.059
G01 F600 X7.773 Y59.107
G01 F600 X7.543 Y59.107
G00 F3000 Z3.000
G00 F3000 X10.083 Y59.107
G00 F1500 Z0
G01 F600 Z-0.200
G01 F600 X9.858 Y59.059
G01 F600 X9.648 Y58.966
G01 F600 X9.463 Y58.831
G01 F600 X9.309 Y58.660
G01 F600 X9.194 Y58.461
G01 F600 X9.123 Y58.242
G01 F600 X9.099 Y58.014
G01 F600 X9.123 Y57.785
G01 F600 X9.194 Y57.567
G01 F600 X9.309 Y57.367
G01 F600 X9.463 Y57.197
G01 F600 X9.648 Y57.062
G01 F600 X9.858 Y56.968
G01 F600 X10.083 Y56.920
G01 F600 X10.313 Y56.920
G01 F600 X10.538 Y56.968
G01 F600 X10.748 Y57.062
G01 F600 X10.934 Y57.197
G01 F600 X11.087 Y57.367
G01 F600 X11.202 Y57.567
G01 F600 X11.273 Y57.785
G01 F600 X11.298 Y58.014
G01 F600 X11.273 Y58.242
G01 F600 X11.202 Y58.461
G01 F600 X11.087 Y58.660
G01 F600 X10.934 Y58.831
G01 F600 X10.748 Y58.966
G01 F600 X10.538 Y59.059
G01 F600 X10.313 Y59.107
G01 F600 X10.083 Y59.107
G00 F3000 Z3.000
G00 F3000 X43.103 Y59.107
G00 F1500 Z0
G01 F600 Z-0.200
G01 F600 X42.878 Y59.059
G01 F600 X42.668 Y58.966
G01 F600 X42.483 Y58.831
G01 F600 X42.329 Y58.660
G01 F600 X42.214 Y58.461
G01 F600 X42.143 Y58.242
G01 F600 X42.119 Y58.014
G01 F600 X42.143 Y57.785
G01 F600 X42.214 Y57.567
G01 F600 X42.329 Y57.367
G01 F600 X42.483 Y57.197
G01 F600 X42.668 Y57.062
G01 F600 X42.878 Y56.968
G01 F600 X43.103 Y56.920
G01 F600 X43.333 Y56.920
G01 F600 X43.558 Y56.968
G01 F600 X43.768 Y57.062
G01 F600 X43.954 Y57.197
G01 F600 X44.107 Y57.367
G01 F600 X44.222 Y57.567
G01 F600 X44.293 Y57.785
G01 F600 X44.318 Y58.014
G01 F600 X44.293 Y58.242
G01 F600 X44.222 Y58.461
G01 F600 X44.107 Y58.660
G01 F600 X43.954 Y58.831
G01 F600 X43.768 Y58.966
G01 F600 X43.558 Y59.059
G01 F600 X43.333 Y59.107
G01 F600 X43.103 Y59.107
G00 F3000 Z3.000
G00 F3000 X38.023 Y59.107
G00 F1500 Z0
G01 F600 Z-0.200
G01 F600 X37.798 Y59.059
G01 F600 X37.588 Y58.966
G01 F600 X37.403 Y58.831
G01 F600 X37.249 Y58.660
G01 F600 X37.134 Y58.461
G01 F600 X37.063 Y58.242
G01 F600 X37.039 Y58.014
G01 F600 X37.063 Y57.785
G01 F600 X37.134 Y57.567
G01 F600 X37.249 Y57.367
G01 F600 X37.403 Y57.197
G01 F600 X37.588 Y57.062
G01 F600 X37.798 Y56.968
G01 F600 X38.023 Y56.920
G01 F600 X38.253 Y56.920
G01 F600 X38.478 Y56.968
G01 F600 X38.688 Y57.062
G01 F600 X38.874 Y57.197
G01 F600 X39.027 Y57.367
G01 F600 X39.142 Y57.567
G01 F600 X39.213 Y57.785
G01 F600 X39.238 Y58.014
G01 F600 X39.213 Y58.242
G01 F600 X39.142 Y58.461
G01 F600 X39.027 Y58.660
G01 F600 X38.874 Y58.831
G01 F600 X38.688 Y58.966
G01 F600 X38.478 Y59.059
G01 F600 X38.253 Y59.107
G01 F600 X38.023 Y59.107
G00 F3000 Z3.000
G00 F3000 X40.563 Y59.107
G00 F1500 Z0
G01 F600 Z-0.200
G01 F600 X40.338 Y59.059
G01 F600 X40.128 Y58.966
G01 F600 X39.943 Y58.831
G01 F600 X39.789 Y58.660
G01 F600 X39.674 Y58.461
G01 F600 X39.603 Y58.242
G01 F600 X39.579 Y58.014
G01 F600 X39.603 Y57.785
G01 F600 X39.674 Y57.567
G01 F600 X39.789 Y57.367
G01 F600 X39.943 Y57.197
G01 F600 X40.128 Y57.062
G01 F600 X40.338 Y56.968
G01 F600 X40.563 Y56.920
G01 F600 X40.793 Y56.920
G01 F600 X41.018 Y56.968
G01 F600 X41.228 Y57.062
G01 F600 X41.414 Y57.197
G01 F600 X41.567 Y57.367
G01 F600 X41.682 Y57.567
G01 F600 X41.753 Y57.785
G01 F600 X41.778 Y58.014
G01 F600 X41.753 Y58.242
G01 F600 X41.682 Y58.461
G01 F600 X41.567 Y58.660
G01 F600 X41.414 Y58.831
G01 F600 X41.228 Y58.966
G01 F600 X41.018 Y59.059
G01 F600 X40.793 Y59.107
G01 F600 X40.563 Y59.107
G00 F3000 Z3.000
G00 F3000 X53.263 Y59.107
G00 F1500 Z0
G01 F600 Z-0.200
G01 F600 X53.038 Y59.059
G01 F600 X52.828 Y58.966
G01 F600 X52.643 Y58.831
G01 F600 X52.489 Y58.660
G01 F600 X52.374 Y58.461
G01 F600 X52.303 Y58.242
G01 F600 X52.279 Y58.014
G01 F600 X52.303 Y57.785
G01 F600 X52.374 Y57.567
G01 F600 X52.489 Y57.367
G01 F600 X52.643 Y57.197
G01 F600 X52.828 Y57.062
G01 F600 X53.038 Y56.968
G01 F600 X53.263 Y56.920
G01 F600 X53.493 Y56.920
G01 F600 X53.718 Y56.968
G01 F600 X53.928 Y57.062
G01 F600 X54.114 Y57.197
G01 F600 X54.267 Y57.367
G01 F600 X54.382 Y57.567
G01 F600 X54.453 Y57.785
G01 F600 X54.477 Y58.014
G01 F600 X54.453 Y58.242
G01 F600 X54.382 Y58.461
G01 F600 X54.267 Y58.660
G01 F600 X54.114 Y58.831
G01 F600 X53.928 Y58.966
G01 F600 X53.718 Y59.059
G01 F600 X53.493 Y59.107
G01 F600 X53.263 Y59.107
G00 F3000 Z3.000
G00 F3000 X55.803 Y59.107
G00 F1500 Z0
G01 F600 Z-0.200
G01 F600 X55.578 Y59.059
G01 F600 X55.368 Y58.966
G01 F600 X55.183 Y58.831
G01 F600 X55.029 Y58.660
G01 F600 X54.914 Y58.461
G01 F600 X54.843 Y58.242
G01 F600 X54.819 Y58.014
G01 F600 X54.843 Y57.785
G01 F600 X54.914 Y57.567
G01 F600 X55.029 Y57.367
G01 F600 X55.183 Y57.197
G01 F600 X55.368 Y57.062
G01 F600 X55.578 Y56.968
G01 F600 X55.803 Y56.920
G01 F600 X56.033 Y56.920
G01 F600 X56.258 Y56.968
G01 F600 X56.268 Y56.973
G01 F600 X57.968 Y55.295
G01 F600 X57.968 Y53.422
G01 F600 X53.582 Y53.422
G01 F600 X52.240 Y54.764
G01 F600 X51.882 Y55.149
G01 F600 X51.913 Y55.245
G01 F600 X51.938 Y55.474
G01 F600 X51.913 Y55.702
G01 F600 X51.842 Y55.921
G01 F600 X51.727 Y56.120
G01 F600 X51.574 Y56.291
G01 F600 X51.388 Y56.426
G01 F600 X51.178 Y56.519
G01 F600 X50.953 Y56.567
G01 F600 X50.723 Y56.567
G01 F600 X50.498 Y56.519
G01 F600 X50.288 Y56.426
G01 F600 X50.102 Y56.291
G01 F600 X49.949 Y56.120
G01 F600 X49.834 Y55.921
G01 F600 X49.763 Y55.702
G01 F600 X49.739 Y55.474
G01 F600 X49.763 Y55.245
G01 F600 X49.834 Y55.027
G01 F600 X49.949 Y54.827
G01 F600 X50.102 Y54.657
G01 F600 X50.288 Y54.522
G01 F600 X50.498 Y54.428
G01 F600 X50.723 Y54.380
G01 F600 X50.953 Y54.380
G01 F600 X51.178 Y54.428
G01 F600 X51.187 Y54.432
G01 F600 X52.888 Y52.731
G01 F600 X52.888 Y45.541
G01 F600 X50.474 Y43.128
G01 F600 X50.415 Y43.062
G01 F600 X50.364 Y42.973
G01 F600 X50.332 Y42.876
G01 F600 X50.323 Y42.783
G01 F600 X50.347 Y36.161
G01 F600 X50.275 Y36.129
G01 F600 X50.085 Y35.990
G01 F600 X49.927 Y35.816
G01 F600 X49.809 Y35.612
G01 F600 X49.736 Y35.388
G01 F600 X49.712 Y35.154
G01 F600 X49.736 Y34.919
G01 F600 X49.809 Y34.696
G01 F600 X49.927 Y34.492
G01 F600 X50.085 Y34.317
G01 F600 X50.275 Y34.178
G01 F600 X50.490 Y34.083
G01 F600 X50.720 Y34.034
G01 F600 X50.956 Y34.034
G01 F600 X51.186 Y34.083
G01 F600 X51.401 Y34.178
G01 F600 X51.592 Y34.317
G01 F600 X51.749 Y34.492
G01 F600 X51.793 Y34.567
G01 F600 X52.327 Y34.511
G01 F600 X52.349 Y34.442
G01 F600 X52.467 Y34.238
G01 F600 X52.625 Y34.063
G01 F600 X52.815 Y33.924
G01 F600 X53.030 Y33.829
G01 F600 X53.260 Y33.780
G01 F600 X53.496 Y33.780
G01 F600 X53.726 Y33.829
G01 F600 X53.941 Y33.924
G01 F600 X54.132 Y34.063
G01 F600 X54.289 Y34.238
G01 F600 X54.407 Y34.442
G01 F600 X54.480 Y34.666
