( PCB Contour )
( Generated by Carbide Copper )
( Material Size )
( X= 72.290, Y= 100.000, Z= 1.490 )
()
G17
G21
G54
G90
G00  X20.259 Y59.691
G01 F750 Z0
G01 F400 Z-0.100
G01 F400 X20.039 Y59.644
G01 F400 X19.834 Y59.553
G01 F400 X19.653 Y59.421
G01 F400 X19.502 Y59.254
G01 F400 X19.390 Y59.060
G01 F400 X19.321 Y58.846
G01 F400 X19.297 Y58.623
G01 F400 X19.321 Y58.400
G01 F400 X19.390 Y58.187
G01 F400 X19.502 Y57.992
G01 F400 X19.653 Y57.826
G01 F400 X19.834 Y57.694
G01 F400 X20.039 Y57.602
G01 F400 X20.259 Y57.556
G01 F400 X20.483 Y57.556
G01 F400 X20.703 Y57.602
G01 F400 X20.908 Y57.694
G01 F400 X21.089 Y57.826
G01 F400 X21.239 Y57.992
G01 F400 X21.351 Y58.187
G01 F400 X21.421 Y58.400
G01 F400 X21.444 Y58.623
G01 F400 X21.421 Y58.846
G01 F400 X21.351 Y59.060
G01 F400 X21.239 Y59.254
G01 F400 X21.089 Y59.421
G01 F400 X20.908 Y59.553
G01 F400 X20.703 Y59.644
G01 F400 X20.483 Y59.691
G01 F400 X20.259 Y59.691
G00 Z3.000
G00  X38.039 Y59.691
G01 F750 Z0
G01 F400 Z-0.100
G01 F400 X37.819 Y59.644
G01 F400 X37.614 Y59.553
G01 F400 X37.433 Y59.421
G01 F400 X37.282 Y59.254
G01 F400 X37.170 Y59.060
G01 F400 X37.101 Y58.846
G01 F400 X37.077 Y58.623
G01 F400 X37.101 Y58.400
G01 F400 X37.170 Y58.187
G01 F400 X37.282 Y57.992
G01 F400 X37.433 Y57.826
G01 F400 X37.614 Y57.694
G01 F400 X37.819 Y57.602
G01 F400 X38.039 Y57.556
G01 F400 X38.263 Y57.556
G01 F400 X38.483 Y57.602
G01 F400 X38.688 Y57.694
G01 F400 X38.869 Y57.826
G01 F400 X39.019 Y57.992
G01 F400 X39.131 Y58.187
G01 F400 X39.201 Y58.400
G01 F400 X39.224 Y58.623
G01 F400 X39.201 Y58.846
G01 F400 X39.131 Y59.060
G01 F400 X39.019 Y59.254
G01 F400 X38.869 Y59.421
G01 F400 X38.688 Y59.553
G01 F400 X38.483 Y59.644
G01 F400 X38.263 Y59.691
G01 F400 X38.039 Y59.691
G00 Z3.000
G00  X32.959 Y59.691
G01 F750 Z0
G01 F400 Z-0.100
G01 F400 X32.739 Y59.644
G01 F400 X32.534 Y59.553
G01 F400 X32.353 Y59.421
G01 F400 X32.202 Y59.254
G01 F400 X32.090 Y59.060
G01 F400 X32.021 Y58.846
G01 F400 X31.997 Y58.623
G01 F400 X32.021 Y58.400
G01 F400 X32.090 Y58.187
G01 F400 X32.202 Y57.992
G01 F400 X32.353 Y57.826
G01 F400 X32.534 Y57.694
G01 F400 X32.739 Y57.602
G01 F400 X32.959 Y57.556
G01 F400 X33.183 Y57.556
G01 F400 X33.403 Y57.602
G01 F400 X33.608 Y57.694
G01 F400 X33.789 Y57.826
G01 F400 X33.939 Y57.992
G01 F400 X34.051 Y58.187
G01 F400 X34.121 Y58.400
G01 F400 X34.144 Y58.623
G01 F400 X34.121 Y58.846
G01 F400 X34.051 Y59.060
G01 F400 X33.939 Y59.254
G01 F400 X33.789 Y59.421
G01 F400 X33.608 Y59.553
G01 F400 X33.403 Y59.644
G01 F400 X33.183 Y59.691
G01 F400 X32.959 Y59.691
G00 Z3.000
G00  X50.739 Y59.691
G01 F750 Z0
G01 F400 Z-0.100
G01 F400 X50.519 Y59.644
G01 F400 X50.314 Y59.553
G01 F400 X50.133 Y59.421
G01 F400 X49.982 Y59.254
G01 F400 X49.870 Y59.060
G01 F400 X49.801 Y58.846
G01 F400 X49.777 Y58.623
G01 F400 X49.801 Y58.400
G01 F400 X49.870 Y58.187
G01 F400 X49.982 Y57.992
G01 F400 X50.133 Y57.826
G01 F400 X50.314 Y57.694
G01 F400 X50.519 Y57.602
G01 F400 X50.739 Y57.556
G01 F400 X50.963 Y57.556
G01 F400 X51.183 Y57.602
G01 F400 X51.388 Y57.694
G01 F400 X51.569 Y57.826
G01 F400 X51.719 Y57.992
G01 F400 X51.831 Y58.187
G01 F400 X51.901 Y58.400
G01 F400 X51.924 Y58.623
G01 F400 X51.901 Y58.846
G01 F400 X51.831 Y59.060
G01 F400 X51.719 Y59.254
G01 F400 X51.569 Y59.421
G01 F400 X51.388 Y59.553
G01 F400 X51.183 Y59.644
G01 F400 X50.963 Y59.691
G01 F400 X50.739 Y59.691
G00 Z3.000
G00  X17.719 Y59.690
G01 F750 Z0
G01 F400 Z-0.100
G01 F400 X17.499 Y59.644
G01 F400 X17.294 Y59.553
G01 F400 X17.113 Y59.421
G01 F400 X16.963 Y59.254
G01 F400 X16.851 Y59.060
G01 F400 X16.781 Y58.846
G01 F400 X16.758 Y58.623
G01 F400 X16.781 Y58.400
G01 F400 X16.851 Y58.187
G01 F400 X16.963 Y57.992
G01 F400 X17.113 Y57.826
G01 F400 X17.294 Y57.694
G01 F400 X17.499 Y57.603
G01 F400 X17.719 Y57.556
G01 F400 X17.943 Y57.556
G01 F400 X18.162 Y57.603
G01 F400 X18.367 Y57.694
G01 F400 X18.549 Y57.826
G01 F400 X18.699 Y57.992
G01 F400 X18.811 Y58.187
G01 F400 X18.880 Y58.400
G01 F400 X18.904 Y58.623
G01 F400 X18.880 Y58.846
G01 F400 X18.811 Y59.060
G01 F400 X18.699 Y59.254
G01 F400 X18.549 Y59.421
G01 F400 X18.367 Y59.553
G01 F400 X18.162 Y59.644
G01 F400 X17.943 Y59.690
G01 F400 X17.719 Y59.690
G00 Z3.000
G00  X25.339 Y59.690
G01 F750 Z0
G01 F400 Z-0.100
G01 F400 X25.119 Y59.644
G01 F400 X24.914 Y59.553
G01 F400 X24.733 Y59.421
G01 F400 X24.583 Y59.254
G01 F400 X24.471 Y59.060
G01 F400 X24.401 Y58.846
G01 F400 X24.378 Y58.623
G01 F400 X24.401 Y58.400
G01 F400 X24.471 Y58.187
G01 F400 X24.583 Y57.992
G01 F400 X24.733 Y57.826
G01 F400 X24.914 Y57.694
G01 F400 X25.119 Y57.603
G01 F400 X25.339 Y57.556
G01 F400 X25.563 Y57.556
G01 F400 X25.782 Y57.603
G01 F400 X25.987 Y57.694
G01 F400 X26.169 Y57.826
G01 F400 X26.319 Y57.992
G01 F400 X26.431 Y58.187
G01 F400 X26.500 Y58.400
G01 F400 X26.524 Y58.623
G01 F400 X26.500 Y58.846
G01 F400 X26.431 Y59.060
G01 F400 X26.319 Y59.254
G01 F400 X26.169 Y59.421
G01 F400 X25.987 Y59.553
G01 F400 X25.782 Y59.644
G01 F400 X25.563 Y59.690
G01 F400 X25.339 Y59.690
G00 Z3.000
G00  X22.799 Y59.690
G01 F750 Z0
G01 F400 Z-0.100
G01 F400 X22.579 Y59.644
G01 F400 X22.374 Y59.553
G01 F400 X22.193 Y59.421
G01 F400 X22.043 Y59.254
G01 F400 X21.931 Y59.060
G01 F400 X21.861 Y58.846
G01 F400 X21.838 Y58.623
G01 F400 X21.861 Y58.400
G01 F400 X21.931 Y58.187
G01 F400 X22.043 Y57.992
G01 F400 X22.193 Y57.826
G01 F400 X22.374 Y57.694
G01 F400 X22.579 Y57.603
G01 F400 X22.799 Y57.556
G01 F400 X23.023 Y57.556
G01 F400 X23.242 Y57.603
G01 F400 X23.447 Y57.694
G01 F400 X23.629 Y57.826
G01 F400 X23.779 Y57.992
G01 F400 X23.891 Y58.187
G01 F400 X23.960 Y58.400
G01 F400 X23.984 Y58.623
G01 F400 X23.960 Y58.846
G01 F400 X23.891 Y59.060
G01 F400 X23.779 Y59.254
G01 F400 X23.629 Y59.421
G01 F400 X23.447 Y59.553
G01 F400 X23.242 Y59.644
G01 F400 X23.023 Y59.690
G01 F400 X22.799 Y59.690
G00 Z3.000
G00  X10.099 Y59.690
G01 F750 Z0
G01 F400 Z-0.100
G01 F400 X9.879 Y59.644
G01 F400 X9.674 Y59.553
G01 F400 X9.493 Y59.421
G01 F400 X9.343 Y59.254
G01 F400 X9.231 Y59.060
G01 F400 X9.161 Y58.846
G01 F400 X9.138 Y58.623
G01 F400 X9.161 Y58.400
G01 F400 X9.231 Y58.187
G01 F400 X9.343 Y57.992
G01 F400 X9.493 Y57.826
G01 F400 X9.674 Y57.694
G01 F400 X9.879 Y57.603
G01 F400 X10.099 Y57.556
G01 F400 X10.323 Y57.556
G01 F400 X10.542 Y57.603
G01 F400 X10.747 Y57.694
G01 F400 X10.929 Y57.826
G01 F400 X11.079 Y57.992
G01 F400 X11.191 Y58.187
G01 F400 X11.260 Y58.400
G01 F400 X11.284 Y58.623
G01 F400 X11.260 Y58.846
G01 F400 X11.191 Y59.060
G01 F400 X11.079 Y59.254
G01 F400 X10.929 Y59.421
G01 F400 X10.747 Y59.553
G01 F400 X10.542 Y59.644
G01 F400 X10.323 Y59.690
G01 F400 X10.099 Y59.690
G00 Z3.000
G00  X15.179 Y59.690
G01 F750 Z0
G01 F400 Z-0.100
G01 F400 X14.959 Y59.644
G01 F400 X14.754 Y59.553
G01 F400 X14.573 Y59.421
G01 F400 X14.423 Y59.254
G01 F400 X14.311 Y59.060
G01 F400 X14.241 Y58.846
G01 F400 X14.218 Y58.623
G01 F400 X14.241 Y58.400
G01 F400 X14.311 Y58.187
G01 F400 X14.423 Y57.992
G01 F400 X14.573 Y57.826
G01 F400 X14.754 Y57.694
G01 F400 X14.959 Y57.603
G01 F400 X15.179 Y57.556
G01 F400 X15.403 Y57.556
G01 F400 X15.622 Y57.603
G01 F400 X15.827 Y57.694
G01 F400 X16.009 Y57.826
G01 F400 X16.159 Y57.992
G01 F400 X16.271 Y58.187
G01 F400 X16.340 Y58.400
G01 F400 X16.364 Y58.623
G01 F400 X16.340 Y58.846
G01 F400 X16.271 Y59.060
G01 F400 X16.159 Y59.254
G01 F400 X16.009 Y59.421
G01 F400 X15.827 Y59.553
G01 F400 X15.622 Y59.644
G01 F400 X15.403 Y59.690
G01 F400 X15.179 Y59.690
G00 Z3.000
G00  X12.639 Y59.690
G01 F750 Z0
G01 F400 Z-0.100
G01 F400 X12.419 Y59.644
G01 F400 X12.214 Y59.553
G01 F400 X12.033 Y59.421
G01 F400 X11.883 Y59.254
G01 F400 X11.771 Y59.060
G01 F400 X11.701 Y58.846
G01 F400 X11.678 Y58.623
G01 F400 X11.701 Y58.400
G01 F400 X11.771 Y58.187
G01 F400 X11.883 Y57.992
G01 F400 X12.033 Y57.826
G01 F400 X12.214 Y57.694
G01 F400 X12.419 Y57.603
G01 F400 X12.639 Y57.556
G01 F400 X12.863 Y57.556
G01 F400 X13.082 Y57.603
G01 F400 X13.287 Y57.694
G01 F400 X13.469 Y57.826
G01 F400 X13.619 Y57.992
G01 F400 X13.731 Y58.187
G01 F400 X13.800 Y58.400
G01 F400 X13.824 Y58.623
G01 F400 X13.800 Y58.846
G01 F400 X13.731 Y59.060
G01 F400 X13.619 Y59.254
G01 F400 X13.469 Y59.421
G01 F400 X13.287 Y59.553
G01 F400 X13.082 Y59.644
G01 F400 X12.863 Y59.690
G01 F400 X12.639 Y59.690
G00 Z3.000
G00  X40.579 Y59.690
G01 F750 Z0
G01 F400 Z-0.100
G01 F400 X40.359 Y59.644
G01 F400 X40.154 Y59.553
G01 F400 X39.973 Y59.421
G01 F400 X39.823 Y59.254
G01 F400 X39.711 Y59.060
G01 F400 X39.641 Y58.846
G01 F400 X39.618 Y58.623
G01 F400 X39.641 Y58.400
G01 F400 X39.711 Y58.187
G01 F400 X39.823 Y57.992
G01 F400 X39.973 Y57.826
G01 F400 X40.154 Y57.694
G01 F400 X40.359 Y57.603
G01 F400 X40.579 Y57.556
G01 F400 X40.803 Y57.556
G01 F400 X41.022 Y57.603
G01 F400 X41.227 Y57.694
G01 F400 X41.409 Y57.826
G01 F400 X41.559 Y57.992
G01 F400 X41.671 Y58.187
G01 F400 X41.740 Y58.400
G01 F400 X41.764 Y58.623
G01 F400 X41.740 Y58.846
G01 F400 X41.671 Y59.060
G01 F400 X41.559 Y59.254
G01 F400 X41.409 Y59.421
G01 F400 X41.227 Y59.553
G01 F400 X41.022 Y59.644
G01 F400 X40.803 Y59.690
G01 F400 X40.579 Y59.690
G00 Z3.000
G00  X45.659 Y59.690
G01 F750 Z0
G01 F400 Z-0.100
G01 F400 X45.439 Y59.644
G01 F400 X45.234 Y59.553
G01 F400 X45.053 Y59.421
G01 F400 X44.903 Y59.254
G01 F400 X44.791 Y59.060
G01 F400 X44.721 Y58.846
G01 F400 X44.698 Y58.623
G01 F400 X44.721 Y58.400
G01 F400 X44.791 Y58.187
G01 F400 X44.903 Y57.992
G01 F400 X45.053 Y57.826
G01 F400 X45.234 Y57.694
G01 F400 X45.439 Y57.603
G01 F400 X45.659 Y57.556
G01 F400 X45.883 Y57.556
G01 F400 X46.102 Y57.603
G01 F400 X46.307 Y57.694
G01 F400 X46.489 Y57.826
G01 F400 X46.639 Y57.992
G01 F400 X46.751 Y58.187
G01 F400 X46.820 Y58.400
G01 F400 X46.844 Y58.623
G01 F400 X46.820 Y58.846
G01 F400 X46.751 Y59.060
G01 F400 X46.639 Y59.254
G01 F400 X46.489 Y59.421
G01 F400 X46.307 Y59.553
G01 F400 X46.102 Y59.644
G01 F400 X45.883 Y59.690
G01 F400 X45.659 Y59.690
G00 Z3.000
G00  X43.119 Y59.690
G01 F750 Z0
G01 F400 Z-0.100
G01 F400 X42.899 Y59.644
G01 F400 X42.694 Y59.553
G01 F400 X42.513 Y59.421
G01 F400 X42.363 Y59.254
G01 F400 X42.251 Y59.060
G01 F400 X42.181 Y58.846
G01 F400 X42.158 Y58.623
G01 F400 X42.181 Y58.400
G01 F400 X42.251 Y58.187
G01 F400 X42.363 Y57.992
G01 F400 X42.513 Y57.826
G01 F400 X42.694 Y57.694
G01 F400 X42.899 Y57.603
G01 F400 X43.119 Y57.556
G01 F400 X43.343 Y57.556
G01 F400 X43.562 Y57.603
G01 F400 X43.767 Y57.694
G01 F400 X43.949 Y57.826
G01 F400 X44.099 Y57.992
G01 F400 X44.211 Y58.187
G01 F400 X44.280 Y58.400
G01 F400 X44.304 Y58.623
G01 F400 X44.280 Y58.846
G01 F400 X44.211 Y59.060
G01 F400 X44.099 Y59.254
G01 F400 X43.949 Y59.421
G01 F400 X43.767 Y59.553
G01 F400 X43.562 Y59.644
G01 F400 X43.343 Y59.690
G01 F400 X43.119 Y59.690
G00 Z3.000
G00  X30.419 Y59.690
G01 F750 Z0
G01 F400 Z-0.100
G01 F400 X30.199 Y59.644
G01 F400 X29.994 Y59.553
G01 F400 X29.813 Y59.421
G01 F400 X29.663 Y59.254
G01 F400 X29.551 Y59.060
G01 F400 X29.481 Y58.846
G01 F400 X29.458 Y58.623
G01 F400 X29.481 Y58.400
G01 F400 X29.551 Y58.187
G01 F400 X29.663 Y57.992
G01 F400 X29.813 Y57.826
G01 F400 X29.994 Y57.694
G01 F400 X30.199 Y57.603
G01 F400 X30.419 Y57.556
G01 F400 X30.643 Y57.556
G01 F400 X30.862 Y57.603
G01 F400 X31.067 Y57.694
G01 F400 X31.249 Y57.826
G01 F400 X31.399 Y57.992
G01 F400 X31.511 Y58.187
G01 F400 X31.580 Y58.400
G01 F400 X31.604 Y58.623
G01 F400 X31.580 Y58.846
G01 F400 X31.511 Y59.060
G01 F400 X31.399 Y59.254
G01 F400 X31.249 Y59.421
G01 F400 X31.067 Y59.553
G01 F400 X30.862 Y59.644
G01 F400 X30.643 Y59.690
G01 F400 X30.419 Y59.690
G00 Z3.000
G00  X27.879 Y59.690
G01 F750 Z0
G01 F400 Z-0.100
G01 F400 X27.659 Y59.644
G01 F400 X27.454 Y59.553
G01 F400 X27.273 Y59.421
G01 F400 X27.123 Y59.254
G01 F400 X27.011 Y59.060
G01 F400 X26.941 Y58.846
G01 F400 X26.918 Y58.623
G01 F400 X26.941 Y58.400
G01 F400 X27.011 Y58.187
G01 F400 X27.123 Y57.992
G01 F400 X27.273 Y57.826
G01 F400 X27.454 Y57.694
G01 F400 X27.659 Y57.603
G01 F400 X27.879 Y57.556
G01 F400 X28.103 Y57.556
G01 F400 X28.322 Y57.603
G01 F400 X28.527 Y57.694
G01 F400 X28.709 Y57.826
G01 F400 X28.859 Y57.992
G01 F400 X28.971 Y58.187
G01 F400 X29.040 Y58.400
G01 F400 X29.064 Y58.623
G01 F400 X29.040 Y58.846
G01 F400 X28.971 Y59.060
G01 F400 X28.859 Y59.254
G01 F400 X28.709 Y59.421
G01 F400 X28.527 Y59.553
G01 F400 X28.322 Y59.644
G01 F400 X28.103 Y59.690
G01 F400 X27.879 Y59.690
G00 Z3.000
G00  X35.499 Y59.690
G01 F750 Z0
G01 F400 Z-0.100
G01 F400 X35.279 Y59.644
G01 F400 X35.074 Y59.553
G01 F400 X34.893 Y59.421
G01 F400 X34.743 Y59.254
G01 F400 X34.631 Y59.060
G01 F400 X34.561 Y58.846
G01 F400 X34.538 Y58.623
G01 F400 X34.561 Y58.400
G01 F400 X34.631 Y58.187
G01 F400 X34.743 Y57.992
G01 F400 X34.893 Y57.826
G01 F400 X35.074 Y57.694
G01 F400 X35.279 Y57.603
G01 F400 X35.499 Y57.556
G01 F400 X35.723 Y57.556
G01 F400 X35.942 Y57.603
G01 F400 X36.147 Y57.694
G01 F400 X36.329 Y57.826
G01 F400 X36.479 Y57.992
G01 F400 X36.591 Y58.187
G01 F400 X36.660 Y58.400
G01 F400 X36.684 Y58.623
G01 F400 X36.660 Y58.846
G01 F400 X36.591 Y59.060
G01 F400 X36.479 Y59.254
G01 F400 X36.329 Y59.421
G01 F400 X36.147 Y59.553
G01 F400 X35.942 Y59.644
G01 F400 X35.723 Y59.690
G01 F400 X35.499 Y59.690
G00 Z3.000
G00  X58.359 Y59.690
G01 F750 Z0
G01 F400 Z-0.100
G01 F400 X58.139 Y59.644
G01 F400 X57.934 Y59.553
G01 F400 X57.753 Y59.421
G01 F400 X57.603 Y59.254
G01 F400 X57.491 Y59.060
G01 F400 X57.421 Y58.846
G01 F400 X57.398 Y58.623
G01 F400 X57.421 Y58.400
G01 F400 X57.491 Y58.187
G01 F400 X57.603 Y57.992
G01 F400 X57.753 Y57.826
G01 F400 X57.934 Y57.694
G01 F400 X58.139 Y57.603
G01 F400 X58.359 Y57.556
G01 F400 X58.583 Y57.556
G01 F400 X58.802 Y57.603
G01 F400 X59.007 Y57.694
G01 F400 X59.189 Y57.826
G01 F400 X59.339 Y57.992
G01 F400 X59.451 Y58.187
G01 F400 X59.520 Y58.400
G01 F400 X59.544 Y58.623
G01 F400 X59.520 Y58.846
G01 F400 X59.451 Y59.060
G01 F400 X59.339 Y59.254
G01 F400 X59.189 Y59.421
G01 F400 X59.007 Y59.553
G01 F400 X58.802 Y59.644
G01 F400 X58.583 Y59.690
G01 F400 X58.359 Y59.690
G00 Z3.000
G00  X48.199 Y59.690
G01 F750 Z0
G01 F400 Z-0.100
G01 F400 X47.979 Y59.644
G01 F400 X47.774 Y59.553
G01 F400 X47.593 Y59.421
G01 F400 X47.443 Y59.254
G01 F400 X47.331 Y59.060
G01 F400 X47.261 Y58.846
G01 F400 X47.238 Y58.623
G01 F400 X47.261 Y58.400
G01 F400 X47.331 Y58.187
G01 F400 X47.443 Y57.992
G01 F400 X47.593 Y57.826
G01 F400 X47.774 Y57.694
G01 F400 X47.979 Y57.603
G01 F400 X48.199 Y57.556
G01 F400 X48.423 Y57.556
G01 F400 X48.642 Y57.603
G01 F400 X48.847 Y57.694
G01 F400 X49.029 Y57.826
G01 F400 X49.179 Y57.992
G01 F400 X49.291 Y58.187
G01 F400 X49.360 Y58.400
G01 F400 X49.384 Y58.623
G01 F400 X49.360 Y58.846
G01 F400 X49.291 Y59.060
G01 F400 X49.179 Y59.254
G01 F400 X49.029 Y59.421
G01 F400 X48.847 Y59.553
G01 F400 X48.642 Y59.644
G01 F400 X48.423 Y59.690
G01 F400 X48.199 Y59.690
G00 Z3.000
G00  X55.819 Y59.690
G01 F750 Z0
G01 F400 Z-0.100
G01 F400 X55.599 Y59.644
G01 F400 X55.394 Y59.553
G01 F400 X55.213 Y59.421
G01 F400 X55.063 Y59.254
G01 F400 X54.951 Y59.060
G01 F400 X54.881 Y58.846
G01 F400 X54.858 Y58.623
G01 F400 X54.881 Y58.400
G01 F400 X54.951 Y58.187
G01 F400 X55.063 Y57.992
G01 F400 X55.213 Y57.826
G01 F400 X55.394 Y57.694
G01 F400 X55.599 Y57.603
G01 F400 X55.819 Y57.556
G01 F400 X56.043 Y57.556
G01 F400 X56.262 Y57.603
G01 F400 X56.467 Y57.694
G01 F400 X56.649 Y57.826
G01 F400 X56.799 Y57.992
G01 F400 X56.911 Y58.187
G01 F400 X56.980 Y58.400
G01 F400 X57.004 Y58.623
G01 F400 X56.980 Y58.846
G01 F400 X56.911 Y59.060
G01 F400 X56.799 Y59.254
G01 F400 X56.649 Y59.421
G01 F400 X56.467 Y59.553
G01 F400 X56.262 Y59.644
G01 F400 X56.043 Y59.690
G01 F400 X55.819 Y59.690
G00 Z3.000
G00  X53.279 Y59.690
G01 F750 Z0
G01 F400 Z-0.100
G01 F400 X53.059 Y59.644
G01 F400 X52.854 Y59.553
G01 F400 X52.673 Y59.421
G01 F400 X52.523 Y59.254
G01 F400 X52.410 Y59.060
G01 F400 X52.341 Y58.846
G01 F400 X52.318 Y58.623
G01 F400 X52.341 Y58.400
G01 F400 X52.410 Y58.187
G01 F400 X52.523 Y57.992
G01 F400 X52.673 Y57.826
G01 F400 X52.854 Y57.694
G01 F400 X53.059 Y57.603
G01 F400 X53.279 Y57.556
G01 F400 X53.503 Y57.556
G01 F400 X53.722 Y57.603
G01 F400 X53.927 Y57.694
G01 F400 X54.109 Y57.826
G01 F400 X54.259 Y57.992
G01 F400 X54.371 Y58.187
G01 F400 X54.440 Y58.400
G01 F400 X54.464 Y58.623
G01 F400 X54.440 Y58.846
G01 F400 X54.371 Y59.060
G01 F400 X54.259 Y59.254
G01 F400 X54.109 Y59.421
G01 F400 X53.927 Y59.553
G01 F400 X53.722 Y59.644
G01 F400 X53.503 Y59.690
G01 F400 X53.279 Y59.690
G00 Z3.000
G00  X38.039 Y57.151
G01 F750 Z0
G01 F400 Z-0.100
G01 F400 X37.819 Y57.104
G01 F400 X37.614 Y57.013
G01 F400 X37.433 Y56.881
G01 F400 X37.282 Y56.714
G01 F400 X37.170 Y56.520
G01 F400 X37.101 Y56.306
G01 F400 X37.077 Y56.083
G01 F400 X37.101 Y55.860
G01 F400 X37.170 Y55.647
G01 F400 X37.282 Y55.452
G01 F400 X37.433 Y55.286
G01 F400 X37.614 Y55.154
G01 F400 X37.819 Y55.062
G01 F400 X38.039 Y55.016
G01 F400 X38.263 Y55.016
G01 F400 X38.483 Y55.062
G01 F400 X38.688 Y55.154
G01 F400 X38.869 Y55.286
G01 F400 X39.019 Y55.452
G01 F400 X39.131 Y55.647
G01 F400 X39.201 Y55.860
G01 F400 X39.224 Y56.083
G01 F400 X39.201 Y56.306
G01 F400 X39.131 Y56.520
G01 F400 X39.019 Y56.714
G01 F400 X38.869 Y56.881
G01 F400 X38.688 Y57.013
G01 F400 X38.483 Y57.104
G01 F400 X38.263 Y57.151
G01 F400 X38.039 Y57.151
G00 Z3.000
G00  X32.959 Y57.151
G01 F750 Z0
G01 F400 Z-0.100
G01 F400 X32.739 Y57.104
G01 F400 X32.534 Y57.013
G01 F400 X32.353 Y56.881
G01 F400 X32.202 Y56.714
G01 F400 X32.090 Y56.520
G01 F400 X32.021 Y56.306
G01 F400 X31.997 Y56.083
G01 F400 X32.021 Y55.860
G01 F400 X32.090 Y55.647
G01 F400 X32.202 Y55.452
G01 F400 X32.353 Y55.286
G01 F400 X32.534 Y55.154
G01 F400 X32.739 Y55.062
G01 F400 X32.959 Y55.016
G01 F400 X33.183 Y55.016
G01 F400 X33.403 Y55.062
G01 F400 X33.608 Y55.154
G01 F400 X33.789 Y55.286
G01 F400 X33.854 Y55.357
G01 F400 X34.832 Y55.353
G01 F400 X34.877 Y55.303
G01 F400 X34.877 Y53.562
G01 F400 X34.892 Y53.416
G01 F400 X34.940 Y53.270
G01 F400 X35.017 Y53.137
G01 F400 X35.119 Y53.023
G01 F400 X35.244 Y52.933
G01 F400 X35.384 Y52.870
G01 F400 X35.534 Y52.838
G01 F400 X39.979 Y52.838
G01 F400 X39.957 Y48.463
G01 F400 X39.983 Y40.811
G01 F400 X39.998 Y40.665
G01 F400 X40.044 Y40.523
G01 F400 X42.497 Y35.617
G01 F400 X42.497 Y26.398
G01 F400 X42.355 Y26.240
G01 F400 X42.242 Y26.044
G01 F400 X42.172 Y25.828
G01 F400 X42.148 Y25.603
G01 F400 X42.172 Y25.378
G01 F400 X42.242 Y25.163
G01 F400 X42.355 Y24.967
G01 F400 X42.506 Y24.799
G01 F400 X42.689 Y24.666
G01 F400 X42.896 Y24.573
G01 F400 X43.118 Y24.526
G01 F400 X43.344 Y24.526
G01 F400 X43.565 Y24.573
G01 F400 X43.772 Y24.666
G01 F400 X43.955 Y24.799
G01 F400 X44.022 Y24.872
G01 F400 X49.927 Y24.848
G01 F400 X49.927 Y24.628
G01 F400 X51.775 Y24.628
G01 F400 X51.775 Y26.477
G01 F400 X49.927 Y26.477
G01 F400 X49.927 Y26.309
G01 F400 X44.031 Y26.334
G01 F400 X44.022 Y26.334
G01 F400 X43.964 Y26.398
G01 F400 X43.965 Y35.795
G01 F400 X43.949 Y35.941
G01 F400 X43.903 Y36.084
G01 F400 X41.450 Y40.989
G01 F400 X41.450 Y48.470
G01 F400 X41.434 Y48.616
G01 F400 X41.425 Y48.644
G01 F400 X41.450 Y53.575
G01 F400 X41.434 Y53.721
G01 F400 X41.387 Y53.867
G01 F400 X41.310 Y54.000
G01 F400 X41.208 Y54.114
G01 F400 X41.083 Y54.205
G01 F400 X40.943 Y54.267
G01 F400 X40.793 Y54.299
G01 F400 X36.345 Y54.299
G01 F400 X36.345 Y55.303
G01 F400 X36.479 Y55.453
G01 F400 X36.591 Y55.647
G01 F400 X36.660 Y55.860
G01 F400 X36.684 Y56.083
G01 F400 X36.660 Y56.306
G01 F400 X36.591 Y56.520
G01 F400 X36.479 Y56.714
G01 F400 X36.329 Y56.881
G01 F400 X36.147 Y57.013
G01 F400 X35.942 Y57.104
G01 F400 X35.723 Y57.150
G01 F400 X35.499 Y57.150
G01 F400 X35.279 Y57.104
G01 F400 X35.074 Y57.013
G01 F400 X34.893 Y56.881
G01 F400 X34.832 Y56.814
G01 F400 X33.866 Y56.814
G01 F400 X33.783 Y56.886
G01 F400 X33.608 Y57.013
G01 F400 X33.403 Y57.104
G01 F400 X33.183 Y57.151
G01 F400 X32.959 Y57.151
G00 Z3.000
G00  X50.739 Y57.151
G01 F750 Z0
G01 F400 Z-0.100
G01 F400 X50.519 Y57.104
G01 F400 X50.314 Y57.013
G01 F400 X50.133 Y56.881
G01 F400 X49.982 Y56.714
G01 F400 X49.870 Y56.520
G01 F400 X49.801 Y56.306
G01 F400 X49.777 Y56.083
G01 F400 X49.801 Y55.860
G01 F400 X49.870 Y55.647
G01 F400 X49.982 Y55.452
G01 F400 X50.133 Y55.286
G01 F400 X50.314 Y55.154
G01 F400 X50.519 Y55.062
G01 F400 X50.739 Y55.016
G01 F400 X50.963 Y55.016
G01 F400 X51.183 Y55.062
G01 F400 X51.388 Y55.154
G01 F400 X51.569 Y55.286
G01 F400 X51.719 Y55.452
G01 F400 X51.831 Y55.647
G01 F400 X51.901 Y55.860
G01 F400 X51.924 Y56.083
G01 F400 X51.901 Y56.306
G01 F400 X51.831 Y56.520
G01 F400 X51.719 Y56.714
G01 F400 X51.569 Y56.881
G01 F400 X51.388 Y57.013
G01 F400 X51.183 Y57.104
G01 F400 X50.963 Y57.151
G01 F400 X50.739 Y57.151
G00 Z3.000
G00  X20.259 Y57.151
G01 F750 Z0
G01 F400 Z-0.100
G01 F400 X20.039 Y57.104
G01 F400 X19.834 Y57.013
G01 F400 X19.653 Y56.881
G01 F400 X19.502 Y56.714
G01 F400 X19.390 Y56.520
G01 F400 X19.321 Y56.306
G01 F400 X19.297 Y56.083
G01 F400 X19.321 Y55.860
G01 F400 X19.390 Y55.647
G01 F400 X19.502 Y55.452
G01 F400 X19.653 Y55.286
G01 F400 X19.834 Y55.154
G01 F400 X20.039 Y55.062
G01 F400 X20.259 Y55.016
G01 F400 X20.483 Y55.016
G01 F400 X20.703 Y55.062
G01 F400 X20.908 Y55.154
G01 F400 X21.089 Y55.286
G01 F400 X21.239 Y55.452
G01 F400 X21.351 Y55.647
G01 F400 X21.421 Y55.860
G01 F400 X21.444 Y56.083
G01 F400 X21.421 Y56.306
G01 F400 X21.351 Y56.520
G01 F400 X21.239 Y56.714
G01 F400 X21.089 Y56.881
G01 F400 X20.908 Y57.013
G01 F400 X20.703 Y57.104
G01 F400 X20.483 Y57.151
G01 F400 X20.259 Y57.151
G00 Z3.000
G00  X10.099 Y57.150
G01 F750 Z0
G01 F400 Z-0.100
G01 F400 X9.879 Y57.104
G01 F400 X9.674 Y57.013
G01 F400 X9.493 Y56.881
G01 F400 X9.343 Y56.714
G01 F400 X9.231 Y56.520
G01 F400 X9.161 Y56.306
G01 F400 X9.138 Y56.083
G01 F400 X9.161 Y55.860
G01 F400 X9.231 Y55.647
G01 F400 X9.343 Y55.453
G01 F400 X9.493 Y55.286
G01 F400 X9.674 Y55.154
G01 F400 X9.879 Y55.063
G01 F400 X10.099 Y55.016
G01 F400 X10.323 Y55.016
G01 F400 X10.542 Y55.063
G01 F400 X10.747 Y55.154
G01 F400 X10.929 Y55.286
G01 F400 X11.079 Y55.453
G01 F400 X11.191 Y55.647
G01 F400 X11.260 Y55.860
G01 F400 X11.284 Y56.083
G01 F400 X11.260 Y56.306
G01 F400 X11.191 Y56.520
G01 F400 X11.079 Y56.714
G01 F400 X10.929 Y56.881
G01 F400 X10.747 Y57.013
G01 F400 X10.542 Y57.104
G01 F400 X10.323 Y57.150
G01 F400 X10.099 Y57.150
G00 Z3.000
G00  X40.579 Y57.150
G01 F750 Z0
G01 F400 Z-0.100
G01 F400 X40.359 Y57.104
G01 F400 X40.154 Y57.013
G01 F400 X39.973 Y56.881
G01 F400 X39.823 Y56.714
G01 F400 X39.711 Y56.520
G01 F400 X39.641 Y56.306
G01 F400 X39.618 Y56.083
G01 F400 X39.641 Y55.860
G01 F400 X39.711 Y55.647
G01 F400 X39.823 Y55.453
G01 F400 X39.973 Y55.286
G01 F400 X40.154 Y55.154
G01 F400 X40.359 Y55.063
G01 F400 X40.579 Y55.016
G01 F400 X40.803 Y55.016
G01 F400 X41.022 Y55.063
G01 F400 X41.227 Y55.154
G01 F400 X41.409 Y55.286
G01 F400 X41.559 Y55.453
G01 F400 X41.671 Y55.647
G01 F400 X41.740 Y55.860
G01 F400 X41.764 Y56.083
G01 F400 X41.740 Y56.306
G01 F400 X41.671 Y56.520
G01 F400 X41.559 Y56.714
G01 F400 X41.409 Y56.881
G01 F400 X41.227 Y57.013
G01 F400 X41.022 Y57.104
G01 F400 X40.803 Y57.150
G01 F400 X40.579 Y57.150
G00 Z3.000
G00  X48.199 Y57.150
G01 F750 Z0
G01 F400 Z-0.100
G01 F400 X47.979 Y57.104
G01 F400 X47.774 Y57.013
G01 F400 X47.593 Y56.881
G01 F400 X47.443 Y56.714
G01 F400 X47.331 Y56.520
G01 F400 X47.261 Y56.306
G01 F400 X47.238 Y56.083
G01 F400 X47.261 Y55.860
G01 F400 X47.331 Y55.647
G01 F400 X47.443 Y55.453
G01 F400 X47.593 Y55.286
G01 F400 X47.774 Y55.154
G01 F400 X47.979 Y55.063
G01 F400 X48.199 Y55.016
G01 F400 X48.423 Y55.016
G01 F400 X48.642 Y55.063
G01 F400 X48.847 Y55.154
G01 F400 X49.029 Y55.286
G01 F400 X49.179 Y55.453
G01 F400 X49.291 Y55.647
G01 F400 X49.360 Y55.860
G01 F400 X49.384 Y56.083
G01 F400 X49.360 Y56.306
G01 F400 X49.291 Y56.520
G01 F400 X49.179 Y56.714
G01 F400 X49.029 Y56.881
G01 F400 X48.847 Y57.013
G01 F400 X48.642 Y57.104
G01 F400 X48.423 Y57.150
G01 F400 X48.199 Y57.150
G00 Z3.000
G00  X43.119 Y57.150
G01 F750 Z0
G01 F400 Z-0.100
G01 F400 X42.899 Y57.104
G01 F400 X42.694 Y57.013
G01 F400 X42.513 Y56.881
G01 F400 X42.363 Y56.714
G01 F400 X42.251 Y56.520
G01 F400 X42.181 Y56.306
G01 F400 X42.158 Y56.083
G01 F400 X42.181 Y55.860
G01 F400 X42.251 Y55.647
G01 F400 X42.363 Y55.453
G01 F400 X42.513 Y55.286
G01 F400 X42.694 Y55.154
G01 F400 X42.899 Y55.063
G01 F400 X43.119 Y55.016
G01 F400 X43.343 Y55.016
G01 F400 X43.562 Y55.063
G01 F400 X43.767 Y55.154
G01 F400 X43.949 Y55.286
G01 F400 X44.099 Y55.453
G01 F400 X44.211 Y55.647
G01 F400 X44.280 Y55.860
G01 F400 X44.304 Y56.083
G01 F400 X44.280 Y56.306
G01 F400 X44.211 Y56.520
G01 F400 X44.099 Y56.714
G01 F400 X43.949 Y56.881
G01 F400 X43.767 Y57.013
G01 F400 X43.562 Y57.104
G01 F400 X43.343 Y57.150
G01 F400 X43.119 Y57.150
G00 Z3.000
G00  X45.659 Y57.150
G01 F750 Z0
G01 F400 Z-0.100
G01 F400 X45.439 Y57.104
G01 F400 X45.234 Y57.013
G01 F400 X45.053 Y56.881
G01 F400 X44.903 Y56.714
G01 F400 X44.791 Y56.520
G01 F400 X44.721 Y56.306
G01 F400 X44.698 Y56.083
G01 F400 X44.721 Y55.860
G01 F400 X44.791 Y55.647
G01 F400 X44.903 Y55.453
G01 F400 X45.053 Y55.286
G01 F400 X45.234 Y55.154
G01 F400 X45.439 Y55.063
G01 F400 X45.659 Y55.016
G01 F400 X45.883 Y55.016
G01 F400 X46.102 Y55.063
G01 F400 X46.307 Y55.154
G01 F400 X46.489 Y55.286
G01 F400 X46.639 Y55.453
G01 F400 X46.751 Y55.647
G01 F400 X46.820 Y55.860
G01 F400 X46.844 Y56.083
G01 F400 X46.820 Y56.306
G01 F400 X46.751 Y56.520
G01 F400 X46.639 Y56.714
G01 F400 X46.489 Y56.881
G01 F400 X46.307 Y57.013
G01 F400 X46.102 Y57.104
G01 F400 X45.883 Y57.150
G01 F400 X45.659 Y57.150
G00 Z3.000
G00  X17.719 Y57.150
G01 F750 Z0
G01 F400 Z-0.100
G01 F400 X17.499 Y57.104
G01 F400 X17.294 Y57.013
G01 F400 X17.113 Y56.881
G01 F400 X16.963 Y56.714
G01 F400 X16.851 Y56.520
G01 F400 X16.781 Y56.306
G01 F400 X16.758 Y56.083
G01 F400 X16.781 Y55.860
G01 F400 X16.851 Y55.647
G01 F400 X16.963 Y55.453
G01 F400 X17.113 Y55.286
G01 F400 X17.294 Y55.154
G01 F400 X17.499 Y55.063
G01 F400 X17.719 Y55.016
G01 F400 X17.943 Y55.016
G01 F400 X18.162 Y55.063
G01 F400 X18.367 Y55.154
G01 F400 X18.549 Y55.286
G01 F400 X18.699 Y55.453
G01 F400 X18.811 Y55.647
G01 F400 X18.880 Y55.860
G01 F400 X18.904 Y56.083
G01 F400 X18.880 Y56.306
G01 F400 X18.811 Y56.520
G01 F400 X18.699 Y56.714
G01 F400 X18.549 Y56.881
G01 F400 X18.367 Y57.013
G01 F400 X18.162 Y57.104
G01 F400 X17.943 Y57.150
G01 F400 X17.719 Y57.150
G00 Z3.000
G00  X12.639 Y57.150
G01 F750 Z0
G01 F400 Z-0.100
G01 F400 X12.419 Y57.104
G01 F400 X12.214 Y57.013
G01 F400 X12.033 Y56.881
G01 F400 X11.883 Y56.714
G01 F400 X11.771 Y56.520
G01 F400 X11.701 Y56.306
G01 F400 X11.678 Y56.083
G01 F400 X11.701 Y55.860
G01 F400 X11.771 Y55.647
G01 F400 X11.883 Y55.453
G01 F400 X12.033 Y55.286
G01 F400 X12.070 Y55.259
G01 F400 X12.033 Y55.144
G01 F400 X12.017 Y54.999
G01 F400 X12.005 Y54.303
G01 F400 X7.709 Y54.324
G01 F400 X7.569 Y54.324
G01 F400 X7.419 Y54.292
G01 F400 X7.278 Y54.230
G01 F400 X7.155 Y54.141
G01 F400 X4.632 Y51.490
G01 F400 X4.537 Y51.384
G01 F400 X4.460 Y51.251
G01 F400 X4.413 Y51.105
G01 F400 X4.397 Y50.959
G01 F400 X4.397 Y38.297
G01 F400 X4.413 Y38.151
G01 F400 X4.460 Y38.005
G01 F400 X4.537 Y37.872
G01 F400 X4.633 Y37.765
G01 F400 X7.157 Y35.241
G01 F400 X7.278 Y35.153
G01 F400 X7.419 Y35.090
G01 F400 X7.568 Y35.059
G01 F400 X8.436 Y35.044
G01 F400 X7.175 Y33.815
G01 F400 X4.657 Y31.195
G01 F400 X4.562 Y31.090
G01 F400 X4.485 Y30.957
G01 F400 X4.438 Y30.811
G01 F400 X4.423 Y30.664
G01 F400 X4.397 Y15.443
G01 F400 X4.397 Y12.903
G01 F400 X4.423 Y10.331
G01 F400 X4.438 Y10.185
G01 F400 X4.485 Y10.039
G01 F400 X4.562 Y9.906
G01 F400 X4.658 Y9.799
G01 F400 X9.722 Y4.736
G01 F400 X9.844 Y4.647
G01 F400 X9.984 Y4.585
G01 F400 X10.134 Y4.553
G01 F400 X40.768 Y4.553
G01 F400 X40.918 Y4.585
G01 F400 X41.058 Y4.647
G01 F400 X41.182 Y4.737
G01 F400 X41.282 Y4.849
G01 F400 X45.938 Y11.819
G01 F400 X45.962 Y11.862
G01 F400 X46.100 Y11.891
G01 F400 X46.303 Y11.981
G01 F400 X46.483 Y12.112
G01 F400 X46.632 Y12.277
G01 F400 X46.743 Y12.470
G01 F400 X46.812 Y12.682
G01 F400 X46.835 Y12.903
G01 F400 X46.812 Y13.125
G01 F400 X46.743 Y13.336
G01 F400 X46.632 Y13.529
G01 F400 X46.483 Y13.694
G01 F400 X46.303 Y13.825
G01 F400 X46.100 Y13.916
G01 F400 X45.882 Y13.962
G01 F400 X45.660 Y13.962
G01 F400 X45.442 Y13.916
G01 F400 X45.239 Y13.825
G01 F400 X45.059 Y13.694
G01 F400 X44.910 Y13.529
G01 F400 X44.798 Y13.336
G01 F400 X44.730 Y13.125
G01 F400 X44.706 Y12.903
G01 F400 X44.730 Y12.682
G01 F400 X44.736 Y12.661
G01 F400 X40.297 Y6.014
G01 F400 X10.517 Y6.014
G01 F400 X5.887 Y10.644
G01 F400 X5.872 Y12.173
G01 F400 X9.437 Y12.173
G01 F400 X9.478 Y12.133
G01 F400 X9.477 Y12.123
G01 F400 X9.452 Y10.358
G01 F400 X9.467 Y10.210
G01 F400 X9.514 Y10.065
G01 F400 X9.591 Y9.931
G01 F400 X9.688 Y9.825
G01 F400 X12.211 Y7.301
G01 F400 X12.333 Y7.213
G01 F400 X12.473 Y7.150
G01 F400 X12.623 Y7.118
G01 F400 X25.362 Y7.093
G01 F400 X25.502 Y7.093
G01 F400 X25.652 Y7.125
G01 F400 X25.793 Y7.187
G01 F400 X25.914 Y7.276
G01 F400 X28.489 Y9.850
G01 F400 X28.585 Y9.957
G01 F400 X28.662 Y10.090
G01 F400 X28.709 Y10.236
G01 F400 X28.725 Y10.382
G01 F400 X28.725 Y12.122
G01 F400 X28.723 Y12.134
G01 F400 X28.852 Y12.277
G01 F400 X28.963 Y12.470
G01 F400 X29.032 Y12.682
G01 F400 X29.055 Y12.903
G01 F400 X29.032 Y13.125
G01 F400 X28.963 Y13.336
G01 F400 X28.852 Y13.529
G01 F400 X28.703 Y13.694
G01 F400 X28.523 Y13.825
G01 F400 X28.320 Y13.916
G01 F400 X28.102 Y13.962
G01 F400 X27.880 Y13.962
G01 F400 X27.662 Y13.916
G01 F400 X27.459 Y13.825
G01 F400 X27.279 Y13.694
G01 F400 X27.130 Y13.529
G01 F400 X27.018 Y13.336
G01 F400 X26.950 Y13.125
G01 F400 X26.926 Y12.903
G01 F400 X26.950 Y12.682
G01 F400 X27.018 Y12.470
G01 F400 X27.130 Y12.277
G01 F400 X27.258 Y12.134
G01 F400 X27.257 Y12.122
G01 F400 X27.257 Y10.691
G01 F400 X25.120 Y8.554
G01 F400 X13.006 Y8.579
G01 F400 X10.924 Y10.661
G01 F400 X10.945 Y12.121
G01 F400 X10.943 Y12.134
G01 F400 X11.072 Y12.277
G01 F400 X11.183 Y12.470
G01 F400 X11.252 Y12.682
G01 F400 X11.275 Y12.903
G01 F400 X11.252 Y13.125
G01 F400 X11.183 Y13.336
G01 F400 X11.072 Y13.529
G01 F400 X10.923 Y13.694
G01 F400 X10.743 Y13.825
G01 F400 X10.540 Y13.916
G01 F400 X10.322 Y13.962
G01 F400 X10.100 Y13.962
G01 F400 X9.882 Y13.916
G01 F400 X9.678 Y13.825
G01 F400 X9.498 Y13.694
G01 F400 X9.442 Y13.631
G01 F400 X5.865 Y13.634
G01 F400 X5.865 Y15.443
G01 F400 X5.889 Y30.364
G01 F400 X8.167 Y32.734
G01 F400 X10.149 Y34.665
G01 F400 X10.185 Y34.705
G01 F400 X10.322 Y34.705
G01 F400 X10.540 Y34.751
G01 F400 X10.743 Y34.841
G01 F400 X10.923 Y34.972
G01 F400 X11.072 Y35.138
G01 F400 X11.183 Y35.330
G01 F400 X11.252 Y35.542
G01 F400 X11.275 Y35.763
G01 F400 X11.252 Y35.985
G01 F400 X11.183 Y36.196
G01 F400 X11.072 Y36.389
G01 F400 X10.923 Y36.554
G01 F400 X10.743 Y36.685
G01 F400 X10.540 Y36.776
G01 F400 X10.322 Y36.822
G01 F400 X10.100 Y36.822
G01 F400 X9.882 Y36.776
G01 F400 X9.678 Y36.685
G01 F400 X9.498 Y36.554
G01 F400 X9.407 Y36.453
G01 F400 X9.359 Y36.464
G01 F400 X9.222 Y36.493
G01 F400 X7.956 Y36.515
G01 F400 X5.865 Y38.606
G01 F400 X5.865 Y50.662
G01 F400 X7.959 Y52.862
G01 F400 X12.661 Y52.838
G01 F400 X19.637 Y52.815
G01 F400 X19.637 Y50.971
G01 F400 X19.652 Y50.825
G01 F400 X19.700 Y50.679
G01 F400 X19.777 Y50.546
G01 F400 X19.873 Y50.439
G01 F400 X22.397 Y47.916
G01 F400 X22.518 Y47.827
G01 F400 X22.659 Y47.765
G01 F400 X22.809 Y47.733
G01 F400 X27.052 Y47.733
G01 F400 X27.177 Y47.759
G01 F400 X27.266 Y47.659
G01 F400 X27.449 Y47.526
G01 F400 X27.656 Y47.433
G01 F400 X27.878 Y47.386
G01 F400 X28.104 Y47.386
G01 F400 X28.325 Y47.433
G01 F400 X28.532 Y47.526
G01 F400 X28.715 Y47.659
G01 F400 X28.867 Y47.827
G01 F400 X28.980 Y48.023
G01 F400 X29.050 Y48.238
G01 F400 X29.074 Y48.463
G01 F400 X29.050 Y48.688
G01 F400 X28.980 Y48.904
G01 F400 X28.867 Y49.100
G01 F400 X28.715 Y49.268
G01 F400 X28.532 Y49.401
G01 F400 X28.325 Y49.493
G01 F400 X28.104 Y49.540
G01 F400 X27.878 Y49.540
G01 F400 X27.656 Y49.493
G01 F400 X27.449 Y49.401
G01 F400 X27.266 Y49.268
G01 F400 X27.176 Y49.167
G01 F400 X27.052 Y49.194
G01 F400 X23.191 Y49.194
G01 F400 X21.105 Y51.281
G01 F400 X21.105 Y53.550
G01 F400 X21.089 Y53.696
G01 F400 X21.042 Y53.842
G01 F400 X20.965 Y53.975
G01 F400 X20.862 Y54.089
G01 F400 X20.738 Y54.179
G01 F400 X20.598 Y54.242
G01 F400 X20.448 Y54.274
G01 F400 X13.472 Y54.297
G01 F400 X13.485 Y54.996
G01 F400 X13.469 Y55.144
G01 F400 X13.432 Y55.259
G01 F400 X13.469 Y55.286
G01 F400 X13.619 Y55.453
G01 F400 X13.731 Y55.647
G01 F400 X13.800 Y55.860
G01 F400 X13.824 Y56.083
G01 F400 X13.800 Y56.306
G01 F400 X13.731 Y56.520
G01 F400 X13.619 Y56.714
G01 F400 X13.469 Y56.881
G01 F400 X13.287 Y57.013
G01 F400 X13.082 Y57.104
G01 F400 X12.863 Y57.150
G01 F400 X12.639 Y57.150
G00 Z3.000
G00  X15.179 Y57.150
G01 F750 Z0
G01 F400 Z-0.100
G01 F400 X14.959 Y57.104
G01 F400 X14.754 Y57.013
G01 F400 X14.573 Y56.881
G01 F400 X14.423 Y56.714
G01 F400 X14.311 Y56.520
G01 F400 X14.241 Y56.306
G01 F400 X14.218 Y56.083
G01 F400 X14.241 Y55.860
G01 F400 X14.311 Y55.647
G01 F400 X14.423 Y55.453
G01 F400 X14.573 Y55.286
G01 F400 X14.754 Y55.154
G01 F400 X14.959 Y55.063
G01 F400 X15.179 Y55.016
G01 F400 X15.403 Y55.016
G01 F400 X15.622 Y55.063
G01 F400 X15.827 Y55.154
G01 F400 X16.009 Y55.286
G01 F400 X16.159 Y55.453
G01 F400 X16.271 Y55.647
G01 F400 X16.340 Y55.860
G01 F400 X16.364 Y56.083
G01 F400 X16.340 Y56.306
G01 F400 X16.271 Y56.520
G01 F400 X16.159 Y56.714
G01 F400 X16.009 Y56.881
G01 F400 X15.827 Y57.013
G01 F400 X15.622 Y57.104
G01 F400 X15.403 Y57.150
G01 F400 X15.179 Y57.150
G00 Z3.000
G00  X27.879 Y57.150
G01 F750 Z0
G01 F400 Z-0.100
G01 F400 X27.659 Y57.104
G01 F400 X27.454 Y57.013
G01 F400 X27.273 Y56.881
G01 F400 X27.123 Y56.714
G01 F400 X27.011 Y56.520
G01 F400 X26.941 Y56.306
G01 F400 X26.918 Y56.083
G01 F400 X26.941 Y55.860
G01 F400 X27.011 Y55.647
G01 F400 X27.123 Y55.453
G01 F400 X27.273 Y55.286
G01 F400 X27.310 Y55.259
G01 F400 X27.273 Y55.144
G01 F400 X27.257 Y54.998
G01 F400 X27.257 Y53.562
G01 F400 X27.273 Y53.416
G01 F400 X27.320 Y53.270
G01 F400 X27.397 Y53.137
G01 F400 X27.499 Y53.023
G01 F400 X27.624 Y52.933
G01 F400 X27.764 Y52.870
G01 F400 X27.914 Y52.838
G01 F400 X32.337 Y52.838
G01 F400 X32.337 Y50.997
G01 F400 X32.352 Y50.851
G01 F400 X32.400 Y50.705
G01 F400 X32.477 Y50.572
G01 F400 X32.579 Y50.457
G01 F400 X32.704 Y50.367
G01 F400 X32.844 Y50.305
G01 F400 X32.994 Y50.273
G01 F400 X34.672 Y50.273
G01 F400 X34.797 Y50.299
G01 F400 X34.886 Y50.199
G01 F400 X35.069 Y50.066
G01 F400 X35.276 Y49.973
G01 F400 X35.498 Y49.926
G01 F400 X35.724 Y49.926
G01 F400 X35.945 Y49.973
G01 F400 X36.152 Y50.066
G01 F400 X36.335 Y50.199
G01 F400 X36.487 Y50.367
G01 F400 X36.600 Y50.563
G01 F400 X36.670 Y50.778
G01 F400 X36.694 Y51.003
G01 F400 X36.670 Y51.228
G01 F400 X36.600 Y51.444
G01 F400 X36.487 Y51.640
G01 F400 X36.335 Y51.808
G01 F400 X36.152 Y51.941
G01 F400 X35.945 Y52.033
G01 F400 X35.724 Y52.080
G01 F400 X35.498 Y52.080
G01 F400 X35.276 Y52.033
G01 F400 X35.069 Y51.941
G01 F400 X34.886 Y51.808
G01 F400 X34.796 Y51.707
G01 F400 X34.672 Y51.734
G01 F400 X33.805 Y51.734
G01 F400 X33.805 Y53.575
G01 F400 X33.789 Y53.721
G01 F400 X33.742 Y53.867
G01 F400 X33.665 Y54.000
G01 F400 X33.562 Y54.114
G01 F400 X33.438 Y54.205
G01 F400 X33.298 Y54.267
G01 F400 X33.148 Y54.299
G01 F400 X28.725 Y54.299
G01 F400 X28.725 Y54.998
G01 F400 X28.709 Y55.144
G01 F400 X28.672 Y55.259
G01 F400 X28.709 Y55.286
G01 F400 X28.859 Y55.453
G01 F400 X28.971 Y55.647
G01 F400 X29.040 Y55.860
G01 F400 X29.064 Y56.083
G01 F400 X29.040 Y56.306
G01 F400 X28.971 Y56.520
G01 F400 X28.859 Y56.714
G01 F400 X28.709 Y56.881
G01 F400 X28.527 Y57.013
G01 F400 X28.322 Y57.104
G01 F400 X28.103 Y57.150
G01 F400 X27.879 Y57.150
G00 Z3.000
G00  X30.419 Y57.150
G01 F750 Z0
G01 F400 Z-0.100
G01 F400 X30.199 Y57.104
G01 F400 X29.994 Y57.013
G01 F400 X29.813 Y56.881
G01 F400 X29.663 Y56.714
G01 F400 X29.551 Y56.520
G01 F400 X29.481 Y56.306
G01 F400 X29.458 Y56.083
G01 F400 X29.481 Y55.860
G01 F400 X29.551 Y55.647
G01 F400 X29.663 Y55.453
G01 F400 X29.813 Y55.286
G01 F400 X29.994 Y55.154
G01 F400 X30.199 Y55.063
G01 F400 X30.419 Y55.016
G01 F400 X30.643 Y55.016
G01 F400 X30.862 Y55.063
G01 F400 X31.067 Y55.154
G01 F400 X31.249 Y55.286
G01 F400 X31.399 Y55.453
G01 F400 X31.511 Y55.647
G01 F400 X31.580 Y55.860
G01 F400 X31.604 Y56.083
G01 F400 X31.580 Y56.306
G01 F400 X31.511 Y56.520
G01 F400 X31.399 Y56.714
G01 F400 X31.249 Y56.881
G01 F400 X31.067 Y57.013
G01 F400 X30.862 Y57.104
G01 F400 X30.643 Y57.150
G01 F400 X30.419 Y57.150
G00 Z3.000
G00  X22.799 Y57.150
G01 F750 Z0
G01 F400 Z-0.100
G01 F400 X22.579 Y57.104
G01 F400 X22.374 Y57.013
G01 F400 X22.193 Y56.881
G01 F400 X22.043 Y56.714
G01 F400 X21.931 Y56.520
G01 F400 X21.861 Y56.306
G01 F400 X21.838 Y56.083
G01 F400 X21.861 Y55.860
G01 F400 X21.931 Y55.647
G01 F400 X22.043 Y55.453
G01 F400 X22.193 Y55.286
G01 F400 X22.230 Y55.259
G01 F400 X22.193 Y55.144
G01 F400 X22.177 Y54.999
G01 F400 X22.152 Y53.538
G01 F400 X22.167 Y53.391
G01 F400 X22.215 Y53.245
G01 F400 X22.291 Y53.111
G01 F400 X22.388 Y53.005
G01 F400 X24.962 Y50.430
G01 F400 X25.084 Y50.342
G01 F400 X25.224 Y50.279
G01 F400 X25.374 Y50.247
G01 F400 X29.797 Y50.247
G01 F400 X29.797 Y48.457
G01 F400 X29.813 Y48.311
G01 F400 X29.860 Y48.165
G01 F400 X29.937 Y48.032
G01 F400 X30.039 Y47.917
G01 F400 X30.164 Y47.827
G01 F400 X30.304 Y47.765
G01 F400 X30.453 Y47.733
G01 F400 X32.041 Y47.707
G01 F400 X32.147 Y47.707
G01 F400 X32.147 Y47.488
G01 F400 X33.995 Y47.488
G01 F400 X33.995 Y47.710
G01 F400 X35.312 Y47.728
G01 F400 X37.417 Y45.643
G01 F400 X37.417 Y40.811
G01 F400 X37.433 Y40.665
G01 F400 X37.478 Y40.524
G01 F400 X39.618 Y36.042
G01 F400 X39.690 Y35.916
G01 F400 X39.705 Y35.900
G01 F400 X39.650 Y35.730
G01 F400 X39.626 Y35.509
G01 F400 X39.650 Y35.288
G01 F400 X39.718 Y35.076
G01 F400 X39.830 Y34.884
G01 F400 X39.979 Y34.718
G01 F400 X40.159 Y34.587
G01 F400 X40.362 Y34.497
G01 F400 X40.580 Y34.450
G01 F400 X40.802 Y34.450
G01 F400 X41.020 Y34.497
G01 F400 X41.223 Y34.587
G01 F400 X41.403 Y34.718
G01 F400 X41.552 Y34.884
G01 F400 X41.663 Y35.076
G01 F400 X41.732 Y35.288
G01 F400 X41.755 Y35.509
G01 F400 X41.732 Y35.730
G01 F400 X41.663 Y35.942
G01 F400 X41.552 Y36.135
G01 F400 X41.403 Y36.300
G01 F400 X41.223 Y36.431
G01 F400 X41.020 Y36.522
G01 F400 X40.994 Y36.527
G01 F400 X40.957 Y36.641
G01 F400 X38.885 Y40.983
G01 F400 X38.885 Y45.740
G01 F400 X38.895 Y45.771
G01 F400 X38.911 Y45.923
G01 F400 X38.895 Y46.076
G01 F400 X38.847 Y46.222
G01 F400 X38.770 Y46.355
G01 F400 X38.674 Y46.462
G01 F400 X36.099 Y49.011
G01 F400 X35.978 Y49.099
G01 F400 X35.838 Y49.162
G01 F400 X35.688 Y49.194
G01 F400 X35.546 Y49.194
G01 F400 X33.995 Y49.172
G01 F400 X33.995 Y49.337
G01 F400 X32.147 Y49.337
G01 F400 X32.147 Y49.169
G01 F400 X31.265 Y49.183
G01 F400 X31.265 Y50.984
G01 F400 X31.249 Y51.131
G01 F400 X31.202 Y51.277
G01 F400 X31.125 Y51.410
G01 F400 X31.022 Y51.524
G01 F400 X30.898 Y51.614
G01 F400 X30.758 Y51.676
G01 F400 X30.608 Y51.708
G01 F400 X25.757 Y51.708
G01 F400 X23.624 Y53.841
G01 F400 X23.645 Y54.996
G01 F400 X23.629 Y55.144
G01 F400 X23.592 Y55.259
G01 F400 X23.629 Y55.286
G01 F400 X23.779 Y55.453
G01 F400 X23.891 Y55.647
G01 F400 X23.960 Y55.860
G01 F400 X23.984 Y56.083
G01 F400 X23.960 Y56.306
G01 F400 X23.891 Y56.520
G01 F400 X23.779 Y56.714
G01 F400 X23.629 Y56.881
G01 F400 X23.447 Y57.013
G01 F400 X23.242 Y57.104
G01 F400 X23.023 Y57.150
G01 F400 X22.799 Y57.150
G00 Z3.000
G00  X25.339 Y57.150
G01 F750 Z0
G01 F400 Z-0.100
G01 F400 X25.119 Y57.104
G01 F400 X24.914 Y57.013
G01 F400 X24.733 Y56.881
G01 F400 X24.583 Y56.714
G01 F400 X24.471 Y56.520
G01 F400 X24.401 Y56.306
G01 F400 X24.378 Y56.083
G01 F400 X24.401 Y55.860
G01 F400 X24.471 Y55.647
G01 F400 X24.583 Y55.453
G01 F400 X24.733 Y55.286
G01 F400 X24.914 Y55.154
G01 F400 X25.119 Y55.063
G01 F400 X25.339 Y55.016
G01 F400 X25.563 Y55.016
G01 F400 X25.782 Y55.063
G01 F400 X25.987 Y55.154
G01 F400 X26.169 Y55.286
G01 F400 X26.319 Y55.453
G01 F400 X26.431 Y55.647
G01 F400 X26.500 Y55.860
G01 F400 X26.524 Y56.083
G01 F400 X26.500 Y56.306
G01 F400 X26.431 Y56.520
G01 F400 X26.319 Y56.714
G01 F400 X26.169 Y56.881
G01 F400 X25.987 Y57.013
G01 F400 X25.782 Y57.104
G01 F400 X25.563 Y57.150
G01 F400 X25.339 Y57.150
G00 Z3.000
G00  X58.359 Y57.150
G01 F750 Z0
G01 F400 Z-0.100
G01 F400 X58.139 Y57.104
G01 F400 X57.934 Y57.013
G01 F400 X57.753 Y56.881
G01 F400 X57.603 Y56.714
G01 F400 X57.491 Y56.520
G01 F400 X57.421 Y56.306
G01 F400 X57.398 Y56.083
G01 F400 X57.421 Y55.860
G01 F400 X57.491 Y55.647
G01 F400 X57.603 Y55.453
G01 F400 X57.753 Y55.286
G01 F400 X57.934 Y55.154
G01 F400 X58.139 Y55.063
G01 F400 X58.359 Y55.016
G01 F400 X58.522 Y55.016
G01 F400 X58.585 Y54.958
G01 F400 X60.252 Y53.291
G01 F400 X60.252 Y31.014
G01 F400 X58.141 Y28.924
G01 F400 X54.125 Y28.924
G01 F400 X54.125 Y34.748
G01 F400 X54.251 Y34.882
G01 F400 X54.363 Y35.076
G01 F400 X54.432 Y35.288
G01 F400 X54.455 Y35.509
G01 F400 X54.432 Y35.730
G01 F400 X54.363 Y35.942
G01 F400 X54.252 Y36.135
G01 F400 X54.144 Y36.256
G01 F400 X54.125 Y40.057
G01 F400 X54.262 Y40.210
G01 F400 X54.375 Y40.405
G01 F400 X54.445 Y40.619
G01 F400 X54.468 Y40.843
G01 F400 X54.445 Y41.067
G01 F400 X54.375 Y41.281
G01 F400 X54.262 Y41.476
G01 F400 X54.112 Y41.644
G01 F400 X53.929 Y41.776
G01 F400 X53.724 Y41.868
G01 F400 X53.503 Y41.915
G01 F400 X53.278 Y41.915
G01 F400 X53.058 Y41.868
G01 F400 X52.852 Y41.776
G01 F400 X52.670 Y41.644
G01 F400 X52.519 Y41.476
G01 F400 X52.407 Y41.281
G01 F400 X52.337 Y41.067
G01 F400 X52.314 Y40.843
G01 F400 X52.337 Y40.619
G01 F400 X52.407 Y40.405
G01 F400 X52.519 Y40.210
G01 F400 X52.658 Y40.056
G01 F400 X52.657 Y36.271
G01 F400 X52.530 Y36.136
G01 F400 X52.418 Y35.942
G01 F400 X52.349 Y35.730
G01 F400 X52.326 Y35.509
G01 F400 X52.349 Y35.288
G01 F400 X52.418 Y35.076
G01 F400 X52.530 Y34.884
G01 F400 X52.638 Y34.763
G01 F400 X52.657 Y18.769
G01 F400 X52.519 Y18.616
G01 F400 X52.407 Y18.421
G01 F400 X52.337 Y18.207
G01 F400 X52.314 Y17.983
G01 F400 X52.337 Y17.759
G01 F400 X52.407 Y17.545
G01 F400 X52.519 Y17.350
G01 F400 X52.657 Y17.197
G01 F400 X52.657 Y13.430
G01 F400 X52.658 Y13.418
G01 F400 X52.530 Y13.275
G01 F400 X52.418 Y13.082
G01 F400 X52.349 Y12.870
G01 F400 X52.326 Y12.649
G01 F400 X52.349 Y12.428
G01 F400 X52.418 Y12.216
G01 F400 X52.530 Y12.024
G01 F400 X52.678 Y11.858
G01 F400 X52.858 Y11.727
G01 F400 X53.062 Y11.637
G01 F400 X53.280 Y11.591
G01 F400 X53.502 Y11.591
G01 F400 X53.720 Y11.637
G01 F400 X53.923 Y11.727
G01 F400 X54.103 Y11.858
G01 F400 X54.252 Y12.024
G01 F400 X54.363 Y12.216
G01 F400 X54.432 Y12.428
G01 F400 X54.455 Y12.649
G01 F400 X54.432 Y12.870
G01 F400 X54.363 Y13.082
G01 F400 X54.252 Y13.275
G01 F400 X54.123 Y13.418
G01 F400 X54.125 Y13.430
G01 F400 X54.125 Y16.798
G01 F400 X54.163 Y16.840
G01 F400 X54.239 Y16.973
G01 F400 X54.287 Y17.119
G01 F400 X54.303 Y17.272
G01 F400 X54.292 Y17.376
G01 F400 X54.376 Y17.549
G01 F400 X54.445 Y17.759
G01 F400 X54.468 Y17.983
G01 F400 X54.445 Y18.207
G01 F400 X54.375 Y18.421
G01 F400 X54.262 Y18.616
G01 F400 X54.124 Y18.771
G01 F400 X54.125 Y27.464
G01 F400 X58.522 Y27.464
G01 F400 X58.672 Y27.496
G01 F400 X58.813 Y27.558
G01 F400 X58.934 Y27.646
G01 F400 X61.483 Y30.170
G01 F400 X61.580 Y30.277
G01 F400 X61.656 Y30.410
G01 F400 X61.704 Y30.556
G01 F400 X61.719 Y30.702
G01 F400 X61.719 Y53.601
G01 F400 X61.704 Y53.747
G01 F400 X61.656 Y53.893
G01 F400 X61.580 Y54.026
G01 F400 X61.483 Y54.133
G01 F400 X59.569 Y56.047
G01 F400 X59.542 Y56.066
G01 F400 X59.544 Y56.083
G01 F400 X59.520 Y56.306
G01 F400 X59.451 Y56.520
G01 F400 X59.339 Y56.714
G01 F400 X59.189 Y56.881
G01 F400 X59.007 Y57.013
G01 F400 X58.802 Y57.104
G01 F400 X58.583 Y57.150
G01 F400 X58.359 Y57.150
G00 Z3.000
G00  X53.279 Y57.150
G01 F750 Z0
G01 F400 Z-0.100
G01 F400 X53.059 Y57.104
G01 F400 X52.854 Y57.013
G01 F400 X52.673 Y56.881
G01 F400 X52.523 Y56.714
G01 F400 X52.410 Y56.520
G01 F400 X52.341 Y56.306
G01 F400 X52.318 Y56.083
G01 F400 X52.341 Y55.860
G01 F400 X52.410 Y55.647
G01 F400 X52.523 Y55.453
G01 F400 X52.673 Y55.286
G01 F400 X52.854 Y55.154
G01 F400 X53.059 Y55.063
G01 F400 X53.279 Y55.016
G01 F400 X53.503 Y55.016
G01 F400 X53.722 Y55.063
G01 F400 X53.927 Y55.154
G01 F400 X54.109 Y55.286
G01 F400 X54.259 Y55.453
G01 F400 X54.371 Y55.647
G01 F400 X54.440 Y55.860
G01 F400 X54.464 Y56.083
G01 F400 X54.440 Y56.306
G01 F400 X54.371 Y56.520
G01 F400 X54.259 Y56.714
G01 F400 X54.109 Y56.881
G01 F400 X53.927 Y57.013
G01 F400 X53.722 Y57.104
G01 F400 X53.503 Y57.150
G01 F400 X53.279 Y57.150
G00 Z3.000
G00  X55.819 Y57.150
G01 F750 Z0
G01 F400 Z-0.100
G01 F400 X55.599 Y57.104
G01 F400 X55.394 Y57.013
G01 F400 X55.213 Y56.881
G01 F400 X55.063 Y56.714
G01 F400 X54.951 Y56.520
G01 F400 X54.881 Y56.306
G01 F400 X54.858 Y56.083
G01 F400 X54.881 Y55.860
G01 F400 X54.951 Y55.647
G01 F400 X55.063 Y55.453
G01 F400 X55.213 Y55.286
G01 F400 X55.394 Y55.154
G01 F400 X55.599 Y55.063
G01 F400 X55.819 Y55.016
G01 F400 X56.043 Y55.016
G01 F400 X56.262 Y55.063
G01 F400 X56.467 Y55.154
G01 F400 X56.649 Y55.286
G01 F400 X56.799 Y55.453
G01 F400 X56.911 Y55.647
G01 F400 X56.980 Y55.860
G01 F400 X57.004 Y56.083
G01 F400 X56.980 Y56.306
G01 F400 X56.911 Y56.520
G01 F400 X56.799 Y56.714
G01 F400 X56.649 Y56.881
G01 F400 X56.467 Y57.013
G01 F400 X56.262 Y57.104
G01 F400 X56.043 Y57.150
G01 F400 X55.819 Y57.150
G00 Z3.000
G00  X49.927 Y49.337
G01 F750 Z0
G01 F400 Z-0.100
G01 F400 X49.927 Y47.488
G01 F400 X51.775 Y47.488
G01 F400 X51.775 Y49.337
G01 F400 X49.927 Y49.337
G00 Z3.000
G00  X14.367 Y49.337
G01 F750 Z0
G01 F400 Z-0.100
G01 F400 X14.367 Y47.488
G01 F400 X16.215 Y47.488
G01 F400 X16.215 Y47.682
G01 F400 X20.116 Y47.682
G01 F400 X22.202 Y45.596
G01 F400 X22.177 Y36.290
G01 F400 X22.178 Y36.278
G01 F400 X22.050 Y36.135
G01 F400 X21.938 Y35.942
G01 F400 X21.870 Y35.730
G01 F400 X21.846 Y35.509
G01 F400 X21.870 Y35.288
G01 F400 X21.938 Y35.076
G01 F400 X22.050 Y34.884
G01 F400 X22.199 Y34.718
G01 F400 X22.379 Y34.587
G01 F400 X22.582 Y34.497
G01 F400 X22.800 Y34.450
G01 F400 X23.022 Y34.450
G01 F400 X23.240 Y34.497
G01 F400 X23.443 Y34.587
G01 F400 X23.623 Y34.718
G01 F400 X23.772 Y34.884
G01 F400 X23.883 Y35.076
G01 F400 X23.952 Y35.288
G01 F400 X23.975 Y35.509
G01 F400 X23.952 Y35.730
G01 F400 X23.883 Y35.942
G01 F400 X23.772 Y36.135
G01 F400 X23.643 Y36.278
G01 F400 X23.645 Y36.290
G01 F400 X23.670 Y45.904
G01 F400 X23.655 Y46.050
G01 F400 X23.607 Y46.197
G01 F400 X23.530 Y46.330
G01 F400 X23.434 Y46.436
G01 F400 X20.910 Y48.960
G01 F400 X20.789 Y49.048
G01 F400 X20.649 Y49.111
G01 F400 X20.498 Y49.143
G01 F400 X16.215 Y49.143
G01 F400 X16.215 Y49.337
G01 F400 X14.367 Y49.337
G00 Z3.000
G00  X50.754 Y46.843
G01 F750 Z0
G01 F400 Z-0.100
G01 F400 X50.565 Y46.803
G01 F400 X50.388 Y46.724
G01 F400 X50.283 Y46.647
G01 F400 X50.237 Y46.654
G01 F400 X50.101 Y46.654
G01 F400 X45.745 Y46.628
G01 F400 X45.595 Y46.596
G01 F400 X45.454 Y46.534
G01 F400 X45.333 Y46.446
G01 F400 X42.784 Y43.896
G01 F400 X42.688 Y43.790
G01 F400 X42.611 Y43.657
G01 F400 X42.563 Y43.511
G01 F400 X42.548 Y43.364
G01 F400 X42.548 Y41.671
G01 F400 X42.510 Y41.644
G01 F400 X42.359 Y41.476
G01 F400 X42.247 Y41.281
G01 F400 X42.177 Y41.067
G01 F400 X42.154 Y40.843
G01 F400 X42.177 Y40.619
G01 F400 X42.247 Y40.405
G01 F400 X42.359 Y40.210
G01 F400 X42.510 Y40.043
G01 F400 X42.692 Y39.910
G01 F400 X42.898 Y39.819
G01 F400 X43.118 Y39.772
G01 F400 X43.343 Y39.772
G01 F400 X43.564 Y39.819
G01 F400 X43.769 Y39.910
G01 F400 X43.844 Y39.965
G01 F400 X43.867 Y39.960
G01 F400 X44.019 Y39.960
G01 F400 X44.169 Y39.992
G01 F400 X44.309 Y40.055
G01 F400 X44.433 Y40.145
G01 F400 X44.536 Y40.259
G01 F400 X44.613 Y40.392
G01 F400 X44.660 Y40.538
G01 F400 X44.676 Y40.691
G01 F400 X44.660 Y40.843
G01 F400 X44.613 Y40.989
G01 F400 X44.536 Y41.123
G01 F400 X44.433 Y41.237
G01 F400 X44.309 Y41.327
G01 F400 X44.169 Y41.389
G01 F400 X44.150 Y41.393
G01 F400 X44.102 Y41.476
G01 F400 X44.015 Y41.573
G01 F400 X44.015 Y43.055
G01 F400 X46.129 Y45.169
G01 F400 X50.242 Y45.193
G01 F400 X50.282 Y45.201
G01 F400 X50.388 Y45.123
G01 F400 X50.565 Y45.044
G01 F400 X50.754 Y45.004
G01 F400 X50.948 Y45.004
G01 F400 X51.137 Y45.044
G01 F400 X51.313 Y45.122
G01 F400 X51.470 Y45.236
G01 F400 X51.599 Y45.380
G01 F400 X51.696 Y45.547
G01 F400 X51.755 Y45.731
G01 F400 X51.776 Y45.923
G01 F400 X51.755 Y46.116
G01 F400 X51.696 Y46.299
G01 F400 X51.599 Y46.467
G01 F400 X51.470 Y46.610
G01 F400 X51.313 Y46.724
G01 F400 X51.137 Y46.803
G01 F400 X50.948 Y46.843
G01 F400 X50.754 Y46.843
G00 Z3.000
G00  X15.194 Y46.843
G01 F750 Z0
G01 F400 Z-0.100
G01 F400 X15.005 Y46.803
G01 F400 X14.828 Y46.724
G01 F400 X14.715 Y46.642
G01 F400 X10.109 Y46.628
G01 F400 X9.959 Y46.596
G01 F400 X9.818 Y46.534
G01 F400 X9.697 Y46.446
G01 F400 X7.147 Y43.896
G01 F400 X7.051 Y43.790
G01 F400 X6.974 Y43.657
G01 F400 X6.927 Y43.511
G01 F400 X6.912 Y43.363
G01 F400 X6.936 Y41.629
G01 F400 X6.799 Y41.476
G01 F400 X6.687 Y41.281
G01 F400 X6.617 Y41.067
G01 F400 X6.594 Y40.843
G01 F400 X6.617 Y40.619
G01 F400 X6.687 Y40.405
G01 F400 X6.799 Y40.210
G01 F400 X6.950 Y40.043
G01 F400 X7.132 Y39.910
G01 F400 X7.338 Y39.819
G01 F400 X7.558 Y39.772
G01 F400 X7.783 Y39.772
G01 F400 X8.004 Y39.819
G01 F400 X8.209 Y39.910
G01 F400 X8.392 Y40.043
G01 F400 X8.542 Y40.210
G01 F400 X8.655 Y40.405
G01 F400 X8.725 Y40.619
G01 F400 X8.748 Y40.843
G01 F400 X8.725 Y41.067
G01 F400 X8.655 Y41.281
G01 F400 X8.542 Y41.476
G01 F400 X8.403 Y41.631
G01 F400 X8.383 Y43.059
G01 F400 X10.492 Y45.167
G01 F400 X14.094 Y45.167
G01 F400 X14.113 Y45.136
G01 F400 X14.215 Y45.022
G01 F400 X14.339 Y44.932
G01 F400 X14.480 Y44.869
G01 F400 X14.630 Y44.837
G01 F400 X14.783 Y44.837
G01 F400 X14.934 Y44.869
G01 F400 X15.070 Y44.930
G01 F400 X15.190 Y45.004
G01 F400 X15.194 Y45.004
G01 F400 X15.388 Y45.004
G01 F400 X15.577 Y45.044
G01 F400 X15.753 Y45.122
G01 F400 X15.910 Y45.236
G01 F400 X16.039 Y45.380
G01 F400 X16.136 Y45.547
G01 F400 X16.195 Y45.731
G01 F400 X16.216 Y45.923
G01 F400 X16.195 Y46.116
G01 F400 X16.136 Y46.299
G01 F400 X16.039 Y46.467
G01 F400 X15.910 Y46.610
G01 F400 X15.753 Y46.724
G01 F400 X15.577 Y46.803
G01 F400 X15.388 Y46.843
G01 F400 X15.194 Y46.843
G00 Z3.000
G00  X32.974 Y46.843
G01 F750 Z0
G01 F400 Z-0.100
G01 F400 X32.785 Y46.803
G01 F400 X32.608 Y46.724
G01 F400 X32.503 Y46.647
G01 F400 X32.457 Y46.654
G01 F400 X32.321 Y46.654
G01 F400 X27.914 Y46.628
G01 F400 X27.764 Y46.596
G01 F400 X27.624 Y46.534
G01 F400 X27.502 Y46.445
G01 F400 X24.978 Y43.896
G01 F400 X24.882 Y43.790
G01 F400 X24.805 Y43.657
G01 F400 X24.758 Y43.511
G01 F400 X24.742 Y43.364
G01 F400 X24.742 Y41.653
G01 F400 X24.730 Y41.644
G01 F400 X24.579 Y41.476
G01 F400 X24.467 Y41.281
G01 F400 X24.397 Y41.067
G01 F400 X24.373 Y40.843
G01 F400 X24.397 Y40.619
G01 F400 X24.467 Y40.405
G01 F400 X24.579 Y40.210
G01 F400 X24.730 Y40.043
G01 F400 X24.912 Y39.910
G01 F400 X25.118 Y39.819
G01 F400 X25.338 Y39.772
G01 F400 X25.563 Y39.772
G01 F400 X25.648 Y39.790
G01 F400 X25.668 Y39.775
G01 F400 X25.808 Y39.713
G01 F400 X25.958 Y39.681
G01 F400 X26.112 Y39.681
G01 F400 X26.262 Y39.713
G01 F400 X26.402 Y39.775
G01 F400 X26.526 Y39.866
G01 F400 X26.629 Y39.980
G01 F400 X26.706 Y40.113
G01 F400 X26.753 Y40.259
G01 F400 X26.769 Y40.411
G01 F400 X26.753 Y40.564
G01 F400 X26.706 Y40.710
G01 F400 X26.629 Y40.843
G01 F400 X26.526 Y40.957
G01 F400 X26.515 Y40.965
G01 F400 X26.505 Y41.067
G01 F400 X26.435 Y41.281
G01 F400 X26.322 Y41.476
G01 F400 X26.219 Y41.591
G01 F400 X26.210 Y43.058
G01 F400 X28.300 Y45.169
G01 F400 X32.462 Y45.193
G01 F400 X32.502 Y45.201
G01 F400 X32.608 Y45.123
G01 F400 X32.785 Y45.044
G01 F400 X32.974 Y45.004
G01 F400 X33.168 Y45.004
G01 F400 X33.357 Y45.044
G01 F400 X33.533 Y45.122
G01 F400 X33.690 Y45.236
G01 F400 X33.819 Y45.380
G01 F400 X33.916 Y45.547
G01 F400 X33.975 Y45.731
G01 F400 X33.996 Y45.923
G01 F400 X33.975 Y46.116
G01 F400 X33.916 Y46.299
G01 F400 X33.819 Y46.467
G01 F400 X33.690 Y46.610
G01 F400 X33.533 Y46.724
G01 F400 X33.357 Y46.803
G01 F400 X33.168 Y46.843
G01 F400 X32.974 Y46.843
G00 Z3.000
G00  X17.718 Y41.915
G01 F750 Z0
G01 F400 Z-0.100
G01 F400 X17.498 Y41.868
G01 F400 X17.292 Y41.776
G01 F400 X17.110 Y41.644
G01 F400 X16.959 Y41.476
G01 F400 X16.847 Y41.281
G01 F400 X16.777 Y41.067
G01 F400 X16.754 Y40.843
G01 F400 X16.777 Y40.619
G01 F400 X16.847 Y40.405
G01 F400 X16.959 Y40.210
G01 F400 X17.110 Y40.043
G01 F400 X17.139 Y40.022
G01 F400 X17.097 Y36.291
G01 F400 X17.098 Y36.278
G01 F400 X16.970 Y36.135
G01 F400 X16.858 Y35.942
G01 F400 X16.790 Y35.730
G01 F400 X16.766 Y35.509
G01 F400 X16.790 Y35.288
G01 F400 X16.858 Y35.076
G01 F400 X16.970 Y34.884
G01 F400 X17.119 Y34.718
G01 F400 X17.146 Y34.698
G01 F400 X17.113 Y34.595
G01 F400 X17.097 Y34.449
G01 F400 X17.097 Y33.242
G01 F400 X17.113 Y33.096
G01 F400 X17.160 Y32.950
G01 F400 X17.237 Y32.817
G01 F400 X17.333 Y32.710
G01 F400 X19.662 Y30.381
G01 F400 X19.638 Y20.827
G01 F400 X17.942 Y19.131
G01 F400 X17.873 Y19.055
G01 F400 X17.718 Y19.055
G01 F400 X17.498 Y19.008
G01 F400 X17.292 Y18.916
G01 F400 X17.110 Y18.784
G01 F400 X16.959 Y18.616
G01 F400 X16.847 Y18.421
G01 F400 X16.777 Y18.207
G01 F400 X16.754 Y17.983
G01 F400 X16.777 Y17.759
G01 F400 X16.847 Y17.545
G01 F400 X16.959 Y17.350
G01 F400 X17.099 Y17.195
G01 F400 X17.142 Y13.457
G01 F400 X17.119 Y13.440
G01 F400 X16.970 Y13.275
G01 F400 X16.858 Y13.082
G01 F400 X16.790 Y12.870
G01 F400 X16.766 Y12.649
G01 F400 X16.790 Y12.428
G01 F400 X16.858 Y12.216
G01 F400 X16.970 Y12.024
G01 F400 X17.119 Y11.858
G01 F400 X17.299 Y11.727
G01 F400 X17.502 Y11.637
G01 F400 X17.720 Y11.591
G01 F400 X17.942 Y11.591
G01 F400 X18.160 Y11.637
G01 F400 X18.363 Y11.727
G01 F400 X18.543 Y11.858
G01 F400 X18.692 Y12.024
G01 F400 X18.803 Y12.216
G01 F400 X18.872 Y12.428
G01 F400 X18.895 Y12.649
G01 F400 X18.872 Y12.870
G01 F400 X18.803 Y13.082
G01 F400 X18.697 Y13.266
G01 F400 X18.702 Y13.292
G01 F400 X18.718 Y13.437
G01 F400 X18.701 Y13.589
G01 F400 X18.654 Y13.735
G01 F400 X18.605 Y13.821
G01 F400 X18.565 Y17.198
G01 F400 X18.702 Y17.350
G01 F400 X18.815 Y17.545
G01 F400 X18.884 Y17.759
G01 F400 X18.908 Y17.983
G01 F400 X18.904 Y18.027
G01 F400 X18.929 Y18.045
G01 F400 X20.869 Y19.985
G01 F400 X20.965 Y20.091
G01 F400 X21.042 Y20.225
G01 F400 X21.089 Y20.370
G01 F400 X21.105 Y20.517
G01 F400 X21.130 Y30.690
G01 F400 X21.114 Y30.836
G01 F400 X21.067 Y30.982
G01 F400 X20.990 Y31.115
G01 F400 X20.894 Y31.222
G01 F400 X18.565 Y33.551
G01 F400 X18.565 Y34.449
G01 F400 X18.549 Y34.595
G01 F400 X18.516 Y34.698
G01 F400 X18.543 Y34.718
G01 F400 X18.692 Y34.884
G01 F400 X18.803 Y35.076
G01 F400 X18.872 Y35.288
G01 F400 X18.895 Y35.509
G01 F400 X18.872 Y35.730
G01 F400 X18.803 Y35.942
G01 F400 X18.692 Y36.135
G01 F400 X18.563 Y36.278
G01 F400 X18.564 Y36.289
G01 F400 X18.606 Y39.960
G01 F400 X18.619 Y39.960
G01 F400 X18.769 Y39.992
G01 F400 X18.909 Y40.055
G01 F400 X19.033 Y40.145
G01 F400 X19.136 Y40.259
G01 F400 X19.213 Y40.392
G01 F400 X19.260 Y40.538
G01 F400 X19.276 Y40.691
G01 F400 X19.260 Y40.843
G01 F400 X19.213 Y40.989
G01 F400 X19.136 Y41.123
G01 F400 X19.033 Y41.237
G01 F400 X18.909 Y41.327
G01 F400 X18.769 Y41.389
G01 F400 X18.750 Y41.393
G01 F400 X18.702 Y41.476
G01 F400 X18.552 Y41.644
G01 F400 X18.369 Y41.776
G01 F400 X18.164 Y41.868
G01 F400 X17.943 Y41.915
G01 F400 X17.718 Y41.915
G00 Z3.000
G00  X35.498 Y41.915
G01 F750 Z0
G01 F400 Z-0.100
G01 F400 X35.278 Y41.868
G01 F400 X35.072 Y41.776
G01 F400 X34.890 Y41.644
G01 F400 X34.739 Y41.476
G01 F400 X34.627 Y41.281
G01 F400 X34.557 Y41.067
G01 F400 X34.534 Y40.843
G01 F400 X34.557 Y40.619
G01 F400 X34.627 Y40.405
G01 F400 X34.739 Y40.210
G01 F400 X34.877 Y40.057
G01 F400 X34.852 Y38.303
G01 F400 X34.877 Y36.289
G01 F400 X34.878 Y36.278
G01 F400 X34.750 Y36.135
G01 F400 X34.638 Y35.942
G01 F400 X34.570 Y35.730
G01 F400 X34.546 Y35.509
G01 F400 X34.570 Y35.288
G01 F400 X34.638 Y35.076
G01 F400 X34.750 Y34.884
G01 F400 X34.878 Y34.740
G01 F400 X34.877 Y34.728
G01 F400 X34.877 Y18.770
G01 F400 X34.739 Y18.616
G01 F400 X34.627 Y18.421
G01 F400 X34.557 Y18.207
G01 F400 X34.534 Y17.983
G01 F400 X34.557 Y17.759
G01 F400 X34.627 Y17.545
G01 F400 X34.739 Y17.350
G01 F400 X34.878 Y17.196
G01 F400 X34.856 Y13.710
G01 F400 X34.816 Y13.590
G01 F400 X34.800 Y13.437
G01 F400 X34.809 Y13.341
G01 F400 X34.750 Y13.275
G01 F400 X34.638 Y13.082
G01 F400 X34.570 Y12.870
G01 F400 X34.546 Y12.649
G01 F400 X34.570 Y12.428
G01 F400 X34.638 Y12.216
G01 F400 X34.750 Y12.024
G01 F400 X34.898 Y11.858
G01 F400 X35.078 Y11.727
G01 F400 X35.282 Y11.637
G01 F400 X35.500 Y11.591
G01 F400 X35.722 Y11.591
G01 F400 X35.940 Y11.637
G01 F400 X36.143 Y11.727
G01 F400 X36.323 Y11.858
G01 F400 X36.472 Y12.024
G01 F400 X36.583 Y12.216
G01 F400 X36.652 Y12.428
G01 F400 X36.675 Y12.649
G01 F400 X36.652 Y12.870
G01 F400 X36.583 Y13.082
G01 F400 X36.472 Y13.275
G01 F400 X36.323 Y13.440
G01 F400 X36.322 Y13.441
G01 F400 X36.344 Y17.197
G01 F400 X36.482 Y17.350
G01 F400 X36.595 Y17.545
G01 F400 X36.665 Y17.759
G01 F400 X36.688 Y17.983
G01 F400 X36.665 Y18.207
G01 F400 X36.595 Y18.421
G01 F400 X36.482 Y18.616
G01 F400 X36.344 Y18.771
G01 F400 X36.345 Y34.728
G01 F400 X36.343 Y34.740
G01 F400 X36.472 Y34.884
G01 F400 X36.583 Y35.076
G01 F400 X36.652 Y35.288
G01 F400 X36.675 Y35.509
G01 F400 X36.652 Y35.730
G01 F400 X36.583 Y35.942
G01 F400 X36.472 Y36.135
G01 F400 X36.343 Y36.278
G01 F400 X36.345 Y36.291
G01 F400 X36.319 Y38.305
G01 F400 X36.344 Y40.056
G01 F400 X36.482 Y40.210
G01 F400 X36.595 Y40.405
G01 F400 X36.665 Y40.619
G01 F400 X36.688 Y40.843
G01 F400 X36.665 Y41.067
G01 F400 X36.595 Y41.281
G01 F400 X36.482 Y41.476
G01 F400 X36.332 Y41.644
G01 F400 X36.149 Y41.776
G01 F400 X35.944 Y41.868
G01 F400 X35.723 Y41.915
G01 F400 X35.498 Y41.915
G00 Z3.000
G00  X45.660 Y36.822
G01 F750 Z0
G01 F400 Z-0.100
G01 F400 X45.442 Y36.776
G01 F400 X45.239 Y36.685
G01 F400 X45.059 Y36.554
G01 F400 X44.910 Y36.389
G01 F400 X44.798 Y36.196
G01 F400 X44.730 Y35.985
G01 F400 X44.706 Y35.763
G01 F400 X44.730 Y35.542
G01 F400 X44.798 Y35.330
G01 F400 X44.910 Y35.138
G01 F400 X45.059 Y34.972
G01 F400 X45.239 Y34.841
G01 F400 X45.442 Y34.751
G01 F400 X45.660 Y34.705
G01 F400 X45.882 Y34.705
G01 F400 X46.100 Y34.751
G01 F400 X46.303 Y34.841
G01 F400 X46.483 Y34.972
G01 F400 X46.632 Y35.138
G01 F400 X46.743 Y35.330
G01 F400 X46.812 Y35.542
G01 F400 X46.835 Y35.763
G01 F400 X46.812 Y35.985
G01 F400 X46.743 Y36.196
G01 F400 X46.632 Y36.389
G01 F400 X46.483 Y36.554
G01 F400 X46.303 Y36.685
G01 F400 X46.100 Y36.776
G01 F400 X45.882 Y36.822
G01 F400 X45.660 Y36.822
G00 Z3.000
G00  X27.880 Y36.822
G01 F750 Z0
G01 F400 Z-0.100
G01 F400 X27.662 Y36.776
G01 F400 X27.459 Y36.685
G01 F400 X27.279 Y36.554
G01 F400 X27.130 Y36.389
G01 F400 X27.018 Y36.196
G01 F400 X26.950 Y35.985
G01 F400 X26.926 Y35.763
G01 F400 X26.950 Y35.542
G01 F400 X27.018 Y35.330
G01 F400 X27.130 Y35.138
G01 F400 X27.279 Y34.972
G01 F400 X27.459 Y34.841
G01 F400 X27.662 Y34.751
G01 F400 X27.880 Y34.705
G01 F400 X28.102 Y34.705
G01 F400 X28.320 Y34.751
G01 F400 X28.523 Y34.841
G01 F400 X28.703 Y34.972
G01 F400 X28.852 Y35.138
G01 F400 X28.963 Y35.330
G01 F400 X29.032 Y35.542
G01 F400 X29.055 Y35.763
G01 F400 X29.032 Y35.985
G01 F400 X28.963 Y36.196
G01 F400 X28.852 Y36.389
G01 F400 X28.703 Y36.554
G01 F400 X28.523 Y36.685
G01 F400 X28.320 Y36.776
G01 F400 X28.102 Y36.822
G01 F400 X27.880 Y36.822
G00 Z3.000
G00  X32.959 Y36.822
G01 F750 Z0
G01 F400 Z-0.100
G01 F400 X32.742 Y36.776
G01 F400 X32.538 Y36.685
G01 F400 X32.358 Y36.554
G01 F400 X32.209 Y36.389
G01 F400 X32.098 Y36.196
G01 F400 X32.029 Y35.985
G01 F400 X32.006 Y35.763
G01 F400 X32.029 Y35.542
G01 F400 X32.098 Y35.330
G01 F400 X32.209 Y35.138
G01 F400 X32.358 Y34.972
G01 F400 X32.538 Y34.841
G01 F400 X32.742 Y34.751
G01 F400 X32.959 Y34.705
G01 F400 X33.182 Y34.705
G01 F400 X33.400 Y34.751
G01 F400 X33.603 Y34.841
G01 F400 X33.783 Y34.972
G01 F400 X33.932 Y35.138
G01 F400 X34.043 Y35.330
G01 F400 X34.112 Y35.542
G01 F400 X34.135 Y35.763
G01 F400 X34.112 Y35.985
G01 F400 X34.043 Y36.196
G01 F400 X33.932 Y36.389
G01 F400 X33.783 Y36.554
G01 F400 X33.603 Y36.685
G01 F400 X33.400 Y36.776
G01 F400 X33.182 Y36.822
G01 F400 X32.959 Y36.822
G00 Z3.000
G00  X50.739 Y36.822
G01 F750 Z0
G01 F400 Z-0.100
G01 F400 X50.522 Y36.776
G01 F400 X50.319 Y36.685
G01 F400 X50.139 Y36.554
G01 F400 X49.989 Y36.389
G01 F400 X49.878 Y36.196
G01 F400 X49.809 Y35.985
G01 F400 X49.786 Y35.763
G01 F400 X49.809 Y35.542
G01 F400 X49.878 Y35.330
G01 F400 X49.989 Y35.138
G01 F400 X50.139 Y34.972
G01 F400 X50.319 Y34.841
G01 F400 X50.522 Y34.751
G01 F400 X50.739 Y34.705
G01 F400 X50.962 Y34.705
G01 F400 X51.180 Y34.751
G01 F400 X51.383 Y34.841
G01 F400 X51.563 Y34.972
G01 F400 X51.712 Y35.138
G01 F400 X51.823 Y35.330
G01 F400 X51.892 Y35.542
G01 F400 X51.915 Y35.763
G01 F400 X51.892 Y35.985
G01 F400 X51.823 Y36.196
G01 F400 X51.712 Y36.389
G01 F400 X51.563 Y36.554
G01 F400 X51.383 Y36.685
G01 F400 X51.180 Y36.776
G01 F400 X50.962 Y36.822
G01 F400 X50.739 Y36.822
G00 Z3.000
G00  X55.820 Y36.822
G01 F750 Z0
G01 F400 Z-0.100
G01 F400 X55.602 Y36.776
G01 F400 X55.399 Y36.685
G01 F400 X55.219 Y36.554
G01 F400 X55.070 Y36.389
G01 F400 X54.958 Y36.196
G01 F400 X54.890 Y35.985
G01 F400 X54.866 Y35.763
G01 F400 X54.890 Y35.542
G01 F400 X54.958 Y35.330
G01 F400 X55.070 Y35.138
G01 F400 X55.219 Y34.972
G01 F400 X55.399 Y34.841
G01 F400 X55.602 Y34.751
G01 F400 X55.820 Y34.705
G01 F400 X56.042 Y34.705
G01 F400 X56.260 Y34.751
G01 F400 X56.463 Y34.841
G01 F400 X56.643 Y34.972
G01 F400 X56.792 Y35.138
G01 F400 X56.903 Y35.330
G01 F400 X56.972 Y35.542
G01 F400 X56.995 Y35.763
G01 F400 X56.972 Y35.985
G01 F400 X56.903 Y36.196
G01 F400 X56.792 Y36.389
G01 F400 X56.643 Y36.554
G01 F400 X56.463 Y36.685
G01 F400 X56.260 Y36.776
G01 F400 X56.042 Y36.822
G01 F400 X55.820 Y36.822
G00 Z3.000
G00  X15.180 Y36.822
G01 F750 Z0
G01 F400 Z-0.100
G01 F400 X14.962 Y36.776
G01 F400 X14.759 Y36.685
G01 F400 X14.579 Y36.554
G01 F400 X14.430 Y36.389
G01 F400 X14.318 Y36.196
G01 F400 X14.250 Y35.985
G01 F400 X14.226 Y35.763
G01 F400 X14.250 Y35.542
G01 F400 X14.318 Y35.330
G01 F400 X14.430 Y35.138
G01 F400 X14.573 Y34.978
G01 F400 X14.573 Y34.976
G01 F400 X14.557 Y34.830
G01 F400 X14.557 Y30.677
G01 F400 X14.573 Y30.530
G01 F400 X14.620 Y30.385
G01 F400 X14.697 Y30.252
G01 F400 X14.793 Y30.145
G01 F400 X17.097 Y27.841
G01 F400 X17.097 Y23.235
G01 F400 X14.619 Y18.278
G01 F400 X14.573 Y18.136
G01 F400 X14.557 Y17.990
G01 F400 X14.557 Y13.837
G01 F400 X14.573 Y13.690
G01 F400 X14.573 Y13.688
G01 F400 X14.430 Y13.529
G01 F400 X14.318 Y13.336
G01 F400 X14.250 Y13.125
G01 F400 X14.226 Y12.903
G01 F400 X14.250 Y12.682
G01 F400 X14.318 Y12.470
G01 F400 X14.430 Y12.277
G01 F400 X14.579 Y12.112
G01 F400 X14.759 Y11.981
G01 F400 X14.962 Y11.891
G01 F400 X15.180 Y11.845
G01 F400 X15.402 Y11.845
G01 F400 X15.620 Y11.891
G01 F400 X15.823 Y11.981
G01 F400 X16.003 Y12.112
G01 F400 X16.152 Y12.277
G01 F400 X16.263 Y12.470
G01 F400 X16.332 Y12.682
G01 F400 X16.355 Y12.903
G01 F400 X16.332 Y13.125
G01 F400 X16.263 Y13.336
G01 F400 X16.152 Y13.529
G01 F400 X16.008 Y13.688
G01 F400 X16.009 Y13.690
G01 F400 X16.024 Y13.837
G01 F400 X16.024 Y17.811
G01 F400 X18.503 Y22.768
G01 F400 X18.549 Y22.911
G01 F400 X18.565 Y23.057
G01 F400 X18.565 Y28.150
G01 F400 X18.549 Y28.296
G01 F400 X18.502 Y28.442
G01 F400 X18.425 Y28.575
G01 F400 X18.329 Y28.682
G01 F400 X16.024 Y30.986
G01 F400 X16.024 Y34.830
G01 F400 X16.009 Y34.976
G01 F400 X16.008 Y34.978
G01 F400 X16.152 Y35.138
G01 F400 X16.263 Y35.330
G01 F400 X16.332 Y35.542
G01 F400 X16.355 Y35.763
G01 F400 X16.332 Y35.985
G01 F400 X16.263 Y36.196
G01 F400 X16.152 Y36.389
G01 F400 X16.003 Y36.554
G01 F400 X15.823 Y36.685
G01 F400 X15.620 Y36.776
G01 F400 X15.402 Y36.822
G01 F400 X15.180 Y36.822
G00 Z3.000
G00  X20.260 Y36.822
G01 F750 Z0
G01 F400 Z-0.100
G01 F400 X20.042 Y36.776
G01 F400 X19.838 Y36.685
G01 F400 X19.659 Y36.554
G01 F400 X19.509 Y36.389
G01 F400 X19.398 Y36.196
G01 F400 X19.329 Y35.985
G01 F400 X19.306 Y35.763
G01 F400 X19.329 Y35.542
G01 F400 X19.398 Y35.330
G01 F400 X19.509 Y35.138
G01 F400 X19.659 Y34.972
G01 F400 X19.838 Y34.841
G01 F400 X20.042 Y34.751
G01 F400 X20.260 Y34.705
G01 F400 X20.482 Y34.705
G01 F400 X20.700 Y34.751
G01 F400 X20.903 Y34.841
G01 F400 X21.083 Y34.972
G01 F400 X21.232 Y35.138
G01 F400 X21.343 Y35.330
G01 F400 X21.412 Y35.542
G01 F400 X21.435 Y35.763
G01 F400 X21.412 Y35.985
G01 F400 X21.343 Y36.196
G01 F400 X21.232 Y36.389
G01 F400 X21.083 Y36.554
G01 F400 X20.903 Y36.685
G01 F400 X20.700 Y36.776
G01 F400 X20.482 Y36.822
G01 F400 X20.260 Y36.822
G00 Z3.000
G00  X38.040 Y36.822
G01 F750 Z0
G01 F400 Z-0.100
G01 F400 X37.822 Y36.776
G01 F400 X37.619 Y36.685
G01 F400 X37.439 Y36.554
G01 F400 X37.290 Y36.389
G01 F400 X37.178 Y36.196
G01 F400 X37.110 Y35.985
G01 F400 X37.086 Y35.763
G01 F400 X37.110 Y35.542
G01 F400 X37.178 Y35.330
G01 F400 X37.290 Y35.138
G01 F400 X37.439 Y34.972
G01 F400 X37.619 Y34.841
G01 F400 X37.822 Y34.751
G01 F400 X38.040 Y34.705
G01 F400 X38.262 Y34.705
G01 F400 X38.480 Y34.751
G01 F400 X38.683 Y34.841
G01 F400 X38.863 Y34.972
G01 F400 X39.012 Y35.138
G01 F400 X39.123 Y35.330
G01 F400 X39.192 Y35.542
G01 F400 X39.215 Y35.763
G01 F400 X39.192 Y35.985
G01 F400 X39.123 Y36.196
G01 F400 X39.012 Y36.389
G01 F400 X38.863 Y36.554
G01 F400 X38.683 Y36.685
G01 F400 X38.480 Y36.776
G01 F400 X38.262 Y36.822
G01 F400 X38.040 Y36.822
G00 Z3.000
G00  X48.200 Y36.568
G01 F750 Z0
G01 F400 Z-0.100
G01 F400 X47.982 Y36.522
G01 F400 X47.779 Y36.431
G01 F400 X47.599 Y36.300
G01 F400 X47.450 Y36.135
G01 F400 X47.338 Y35.942
G01 F400 X47.270 Y35.730
G01 F400 X47.246 Y35.509
G01 F400 X47.270 Y35.288
G01 F400 X47.338 Y35.076
G01 F400 X47.450 Y34.884
G01 F400 X47.599 Y34.718
G01 F400 X47.779 Y34.587
G01 F400 X47.982 Y34.497
G01 F400 X48.200 Y34.450
G01 F400 X48.422 Y34.450
G01 F400 X48.640 Y34.497
G01 F400 X48.843 Y34.587
G01 F400 X49.023 Y34.718
G01 F400 X49.172 Y34.884
G01 F400 X49.283 Y35.076
G01 F400 X49.352 Y35.288
G01 F400 X49.375 Y35.509
G01 F400 X49.352 Y35.730
G01 F400 X49.283 Y35.942
G01 F400 X49.172 Y36.135
G01 F400 X49.023 Y36.300
G01 F400 X48.843 Y36.431
G01 F400 X48.640 Y36.522
G01 F400 X48.422 Y36.568
G01 F400 X48.200 Y36.568
G00 Z3.000
G00  X30.420 Y36.568
G01 F750 Z0
G01 F400 Z-0.100
G01 F400 X30.202 Y36.522
G01 F400 X29.998 Y36.431
G01 F400 X29.819 Y36.300
G01 F400 X29.670 Y36.135
G01 F400 X29.558 Y35.942
G01 F400 X29.490 Y35.730
G01 F400 X29.466 Y35.509
G01 F400 X29.490 Y35.288
G01 F400 X29.558 Y35.076
G01 F400 X29.670 Y34.884
G01 F400 X29.819 Y34.718
G01 F400 X29.998 Y34.587
G01 F400 X30.202 Y34.497
G01 F400 X30.420 Y34.450
G01 F400 X30.642 Y34.450
G01 F400 X30.860 Y34.497
G01 F400 X31.063 Y34.587
G01 F400 X31.243 Y34.718
G01 F400 X31.392 Y34.884
G01 F400 X31.503 Y35.076
G01 F400 X31.572 Y35.288
G01 F400 X31.595 Y35.509
G01 F400 X31.572 Y35.730
G01 F400 X31.503 Y35.942
G01 F400 X31.392 Y36.135
G01 F400 X31.243 Y36.300
G01 F400 X31.063 Y36.431
G01 F400 X30.860 Y36.522
G01 F400 X30.642 Y36.568
G01 F400 X30.420 Y36.568
G00 Z3.000
G00  X58.360 Y36.568
G01 F750 Z0
G01 F400 Z-0.100
G01 F400 X58.142 Y36.522
G01 F400 X57.939 Y36.431
G01 F400 X57.759 Y36.300
G01 F400 X57.610 Y36.135
G01 F400 X57.498 Y35.942
G01 F400 X57.430 Y35.730
G01 F400 X57.406 Y35.509
G01 F400 X57.430 Y35.288
G01 F400 X57.498 Y35.076
G01 F400 X57.610 Y34.884
G01 F400 X57.759 Y34.718
G01 F400 X57.939 Y34.587
G01 F400 X58.142 Y34.497
G01 F400 X58.360 Y34.450
G01 F400 X58.582 Y34.450
G01 F400 X58.800 Y34.497
G01 F400 X59.003 Y34.587
G01 F400 X59.183 Y34.718
G01 F400 X59.332 Y34.884
G01 F400 X59.443 Y35.076
G01 F400 X59.512 Y35.288
G01 F400 X59.535 Y35.509
G01 F400 X59.512 Y35.730
G01 F400 X59.443 Y35.942
G01 F400 X59.332 Y36.135
G01 F400 X59.183 Y36.300
G01 F400 X59.003 Y36.431
G01 F400 X58.800 Y36.522
G01 F400 X58.582 Y36.568
G01 F400 X58.360 Y36.568
G00 Z3.000
G00  X12.639 Y36.568
G01 F750 Z0
G01 F400 Z-0.100
G01 F400 X12.422 Y36.522
G01 F400 X12.219 Y36.431
G01 F400 X12.039 Y36.300
G01 F400 X11.889 Y36.135
G01 F400 X11.778 Y35.942
G01 F400 X11.710 Y35.730
G01 F400 X11.686 Y35.509
G01 F400 X11.710 Y35.288
G01 F400 X11.778 Y35.076
G01 F400 X11.889 Y34.884
G01 F400 X12.039 Y34.718
G01 F400 X12.219 Y34.587
G01 F400 X12.422 Y34.497
G01 F400 X12.639 Y34.450
G01 F400 X12.862 Y34.450
G01 F400 X13.080 Y34.497
G01 F400 X13.283 Y34.587
G01 F400 X13.463 Y34.718
G01 F400 X13.612 Y34.884
G01 F400 X13.723 Y35.076
G01 F400 X13.792 Y35.288
G01 F400 X13.815 Y35.509
G01 F400 X13.792 Y35.730
G01 F400 X13.723 Y35.942
G01 F400 X13.612 Y36.135
G01 F400 X13.463 Y36.300
G01 F400 X13.283 Y36.431
G01 F400 X13.080 Y36.522
G01 F400 X12.862 Y36.568
G01 F400 X12.639 Y36.568
G00 Z3.000
G00  X14.367 Y26.477
G01 F750 Z0
G01 F400 Z-0.100
G01 F400 X14.367 Y24.628
G01 F400 X16.215 Y24.628
G01 F400 X16.215 Y26.477
G01 F400 X14.367 Y26.477
G00 Z3.000
G00  X32.147 Y26.477
G01 F750 Z0
G01 F400 Z-0.100
G01 F400 X32.147 Y24.628
G01 F400 X33.995 Y24.628
G01 F400 X33.995 Y26.477
G01 F400 X32.147 Y26.477
G00 Z3.000
G00  X50.754 Y23.983
G01 F750 Z0
G01 F400 Z-0.100
G01 F400 X50.565 Y23.943
G01 F400 X50.388 Y23.864
G01 F400 X50.283 Y23.787
G01 F400 X50.237 Y23.794
G01 F400 X50.101 Y23.794
G01 F400 X45.744 Y23.743
G01 F400 X45.595 Y23.711
G01 F400 X45.454 Y23.648
G01 F400 X45.333 Y23.560
G01 F400 X42.784 Y21.037
G01 F400 X42.688 Y20.930
G01 F400 X42.611 Y20.797
G01 F400 X42.563 Y20.651
G01 F400 X42.548 Y20.504
G01 F400 X42.548 Y18.811
G01 F400 X42.510 Y18.784
G01 F400 X42.359 Y18.616
G01 F400 X42.247 Y18.421
G01 F400 X42.177 Y18.207
G01 F400 X42.154 Y17.983
G01 F400 X42.177 Y17.759
G01 F400 X42.247 Y17.545
G01 F400 X42.359 Y17.350
G01 F400 X42.510 Y17.183
G01 F400 X42.692 Y17.050
G01 F400 X42.898 Y16.959
G01 F400 X43.118 Y16.912
G01 F400 X43.343 Y16.912
G01 F400 X43.564 Y16.959
G01 F400 X43.638 Y16.992
G01 F400 X43.664 Y16.980
G01 F400 X43.814 Y16.948
G01 F400 X43.968 Y16.948
G01 F400 X44.118 Y16.980
G01 F400 X44.258 Y17.042
G01 F400 X44.383 Y17.133
G01 F400 X44.485 Y17.247
G01 F400 X44.562 Y17.380
G01 F400 X44.610 Y17.526
G01 F400 X44.626 Y17.678
G01 F400 X44.610 Y17.831
G01 F400 X44.562 Y17.977
G01 F400 X44.485 Y18.110
G01 F400 X44.383 Y18.224
G01 F400 X44.259 Y18.314
G01 F400 X44.248 Y18.319
G01 F400 X44.215 Y18.421
G01 F400 X44.102 Y18.616
G01 F400 X44.015 Y18.713
G01 F400 X44.015 Y20.193
G01 F400 X46.129 Y22.285
G01 F400 X50.242 Y22.333
G01 F400 X50.282 Y22.341
G01 F400 X50.388 Y22.263
G01 F400 X50.565 Y22.184
G01 F400 X50.754 Y22.143
G01 F400 X50.948 Y22.143
G01 F400 X51.137 Y22.184
G01 F400 X51.313 Y22.262
G01 F400 X51.470 Y22.376
G01 F400 X51.599 Y22.520
G01 F400 X51.696 Y22.687
G01 F400 X51.755 Y22.871
G01 F400 X51.776 Y23.063
G01 F400 X51.755 Y23.256
G01 F400 X51.696 Y23.439
G01 F400 X51.599 Y23.607
G01 F400 X51.470 Y23.750
G01 F400 X51.313 Y23.864
G01 F400 X51.137 Y23.943
G01 F400 X50.948 Y23.983
G01 F400 X50.754 Y23.983
G00 Z3.000
G00  X32.974 Y23.983
G01 F750 Z0
G01 F400 Z-0.100
G01 F400 X32.785 Y23.943
G01 F400 X32.608 Y23.864
G01 F400 X32.503 Y23.787
G01 F400 X32.457 Y23.794
G01 F400 X32.321 Y23.794
G01 F400 X27.913 Y23.743
G01 F400 X27.764 Y23.711
G01 F400 X27.624 Y23.648
G01 F400 X27.502 Y23.560
G01 F400 X24.978 Y21.036
G01 F400 X24.882 Y20.930
G01 F400 X24.805 Y20.797
G01 F400 X24.758 Y20.651
G01 F400 X24.742 Y20.504
G01 F400 X24.742 Y18.793
G01 F400 X24.730 Y18.784
G01 F400 X24.579 Y18.616
G01 F400 X24.467 Y18.421
G01 F400 X24.397 Y18.207
G01 F400 X24.373 Y17.983
G01 F400 X24.397 Y17.759
G01 F400 X24.467 Y17.545
G01 F400 X24.579 Y17.350
G01 F400 X24.730 Y17.183
G01 F400 X24.912 Y17.050
G01 F400 X25.118 Y16.959
G01 F400 X25.284 Y16.923
G01 F400 X25.364 Y16.829
G01 F400 X25.490 Y16.738
G01 F400 X25.630 Y16.675
G01 F400 X25.780 Y16.643
G01 F400 X25.934 Y16.643
G01 F400 X26.084 Y16.675
G01 F400 X26.224 Y16.738
G01 F400 X26.349 Y16.828
G01 F400 X26.451 Y16.942
G01 F400 X26.528 Y17.075
G01 F400 X26.576 Y17.221
G01 F400 X26.592 Y17.374
G01 F400 X26.576 Y17.526
G01 F400 X26.528 Y17.672
G01 F400 X26.495 Y17.730
G01 F400 X26.505 Y17.759
G01 F400 X26.528 Y17.983
G01 F400 X26.505 Y18.207
G01 F400 X26.435 Y18.421
G01 F400 X26.322 Y18.616
G01 F400 X26.212 Y18.739
G01 F400 X26.210 Y20.195
G01 F400 X28.300 Y22.285
G01 F400 X32.462 Y22.333
G01 F400 X32.502 Y22.341
G01 F400 X32.608 Y22.263
G01 F400 X32.785 Y22.184
G01 F400 X32.974 Y22.143
G01 F400 X33.168 Y22.143
G01 F400 X33.357 Y22.184
G01 F400 X33.533 Y22.262
G01 F400 X33.690 Y22.376
G01 F400 X33.819 Y22.520
G01 F400 X33.916 Y22.687
G01 F400 X33.975 Y22.871
G01 F400 X33.996 Y23.063
G01 F400 X33.975 Y23.256
G01 F400 X33.916 Y23.439
G01 F400 X33.819 Y23.607
G01 F400 X33.690 Y23.750
G01 F400 X33.533 Y23.864
G01 F400 X33.357 Y23.943
G01 F400 X33.168 Y23.983
G01 F400 X32.974 Y23.983
G00 Z3.000
G00  X15.194 Y23.983
G01 F750 Z0
G01 F400 Z-0.100
G01 F400 X15.005 Y23.943
G01 F400 X14.828 Y23.864
G01 F400 X14.723 Y23.787
G01 F400 X14.677 Y23.794
G01 F400 X14.541 Y23.794
G01 F400 X10.108 Y23.743
G01 F400 X9.959 Y23.711
G01 F400 X9.818 Y23.648
G01 F400 X9.697 Y23.560
G01 F400 X7.148 Y21.037
G01 F400 X7.051 Y20.930
G01 F400 X6.974 Y20.797
G01 F400 X6.927 Y20.651
G01 F400 X6.912 Y20.504
G01 F400 X6.912 Y18.741
G01 F400 X6.799 Y18.617
G01 F400 X6.687 Y18.421
G01 F400 X6.617 Y18.207
G01 F400 X6.594 Y17.983
G01 F400 X6.609 Y17.838
G01 F400 X6.543 Y17.723
G01 F400 X6.495 Y17.577
G01 F400 X6.479 Y17.424
G01 F400 X6.495 Y17.272
G01 F400 X6.543 Y17.126
G01 F400 X6.620 Y16.993
G01 F400 X6.722 Y16.879
G01 F400 X6.846 Y16.788
G01 F400 X6.987 Y16.726
G01 F400 X7.137 Y16.694
G01 F400 X7.290 Y16.694
G01 F400 X7.441 Y16.726
G01 F400 X7.581 Y16.788
G01 F400 X7.705 Y16.879
G01 F400 X7.735 Y16.912
G01 F400 X7.783 Y16.912
G01 F400 X8.004 Y16.959
G01 F400 X8.209 Y17.050
G01 F400 X8.392 Y17.183
G01 F400 X8.542 Y17.350
G01 F400 X8.655 Y17.545
G01 F400 X8.725 Y17.759
G01 F400 X8.748 Y17.983
G01 F400 X8.725 Y18.207
G01 F400 X8.655 Y18.421
G01 F400 X8.542 Y18.616
G01 F400 X8.392 Y18.784
G01 F400 X8.379 Y18.793
G01 F400 X8.379 Y20.193
G01 F400 X10.492 Y22.285
G01 F400 X14.683 Y22.333
G01 F400 X14.722 Y22.341
G01 F400 X14.828 Y22.263
G01 F400 X15.005 Y22.184
G01 F400 X15.194 Y22.143
G01 F400 X15.388 Y22.143
G01 F400 X15.577 Y22.184
G01 F400 X15.753 Y22.262
G01 F400 X15.910 Y22.376
G01 F400 X16.039 Y22.520
G01 F400 X16.136 Y22.687
G01 F400 X16.195 Y22.871
G01 F400 X16.216 Y23.063
G01 F400 X16.195 Y23.256
G01 F400 X16.136 Y23.439
G01 F400 X16.039 Y23.607
G01 F400 X15.910 Y23.750
G01 F400 X15.753 Y23.864
G01 F400 X15.577 Y23.943
G01 F400 X15.388 Y23.983
G01 F400 X15.194 Y23.983
G00 Z3.000
G00  X20.260 Y13.962
G01 F750 Z0
G01 F400 Z-0.100
G01 F400 X20.042 Y13.916
G01 F400 X19.838 Y13.825
G01 F400 X19.659 Y13.694
G01 F400 X19.509 Y13.529
G01 F400 X19.398 Y13.336
G01 F400 X19.329 Y13.125
G01 F400 X19.306 Y12.903
G01 F400 X19.329 Y12.682
G01 F400 X19.398 Y12.470
G01 F400 X19.509 Y12.277
G01 F400 X19.659 Y12.112
G01 F400 X19.838 Y11.981
G01 F400 X20.042 Y11.891
G01 F400 X20.260 Y11.845
G01 F400 X20.482 Y11.845
G01 F400 X20.700 Y11.891
G01 F400 X20.903 Y11.981
G01 F400 X21.083 Y12.112
G01 F400 X21.232 Y12.277
G01 F400 X21.343 Y12.470
G01 F400 X21.412 Y12.682
G01 F400 X21.435 Y12.903
G01 F400 X21.412 Y13.125
G01 F400 X21.343 Y13.336
G01 F400 X21.232 Y13.529
G01 F400 X21.083 Y13.694
G01 F400 X20.903 Y13.825
G01 F400 X20.700 Y13.916
G01 F400 X20.482 Y13.962
G01 F400 X20.260 Y13.962
G00 Z3.000
G00  X50.739 Y13.962
G01 F750 Z0
G01 F400 Z-0.100
G01 F400 X50.522 Y13.916
G01 F400 X50.319 Y13.825
G01 F400 X50.139 Y13.694
G01 F400 X49.989 Y13.529
G01 F400 X49.878 Y13.336
G01 F400 X49.809 Y13.125
G01 F400 X49.786 Y12.903
G01 F400 X49.809 Y12.682
G01 F400 X49.878 Y12.470
G01 F400 X49.989 Y12.277
G01 F400 X50.139 Y12.112
G01 F400 X50.319 Y11.981
G01 F400 X50.522 Y11.891
G01 F400 X50.739 Y11.845
G01 F400 X50.962 Y11.845
G01 F400 X51.180 Y11.891
G01 F400 X51.383 Y11.981
G01 F400 X51.563 Y12.112
G01 F400 X51.712 Y12.277
G01 F400 X51.823 Y12.470
G01 F400 X51.892 Y12.682
G01 F400 X51.915 Y12.903
G01 F400 X51.892 Y13.125
G01 F400 X51.823 Y13.336
G01 F400 X51.712 Y13.529
G01 F400 X51.563 Y13.694
G01 F400 X51.383 Y13.825
G01 F400 X51.180 Y13.916
G01 F400 X50.962 Y13.962
G01 F400 X50.739 Y13.962
G00 Z3.000
G00  X32.959 Y13.962
G01 F750 Z0
G01 F400 Z-0.100
G01 F400 X32.742 Y13.916
G01 F400 X32.538 Y13.825
G01 F400 X32.358 Y13.694
G01 F400 X32.235 Y13.557
G01 F400 X32.213 Y13.557
G01 F400 X31.235 Y13.454
G01 F400 X31.226 Y13.453
G01 F400 X31.063 Y13.571
G01 F400 X30.860 Y13.662
G01 F400 X30.642 Y13.708
G01 F400 X30.420 Y13.708
G01 F400 X30.202 Y13.662
G01 F400 X29.998 Y13.571
G01 F400 X29.819 Y13.440
G01 F400 X29.670 Y13.275
G01 F400 X29.558 Y13.082
G01 F400 X29.490 Y12.870
G01 F400 X29.466 Y12.649
G01 F400 X29.490 Y12.428
G01 F400 X29.558 Y12.216
G01 F400 X29.670 Y12.024
G01 F400 X29.819 Y11.858
G01 F400 X29.998 Y11.727
G01 F400 X30.202 Y11.637
G01 F400 X30.420 Y11.591
G01 F400 X30.642 Y11.591
G01 F400 X30.860 Y11.637
G01 F400 X31.063 Y11.727
G01 F400 X31.243 Y11.858
G01 F400 X31.366 Y11.995
G01 F400 X31.388 Y11.995
G01 F400 X32.367 Y12.098
G01 F400 X32.375 Y12.100
G01 F400 X32.538 Y11.981
G01 F400 X32.742 Y11.891
G01 F400 X32.959 Y11.845
G01 F400 X33.182 Y11.845
G01 F400 X33.400 Y11.891
G01 F400 X33.603 Y11.981
G01 F400 X33.783 Y12.112
G01 F400 X33.932 Y12.277
G01 F400 X34.043 Y12.470
G01 F400 X34.112 Y12.682
G01 F400 X34.135 Y12.903
G01 F400 X34.112 Y13.125
G01 F400 X34.043 Y13.336
G01 F400 X33.932 Y13.529
G01 F400 X33.783 Y13.694
G01 F400 X33.603 Y13.825
G01 F400 X33.400 Y13.916
G01 F400 X33.182 Y13.962
G01 F400 X32.959 Y13.962
G00 Z3.000
G00  X38.040 Y13.962
G01 F750 Z0
G01 F400 Z-0.100
G01 F400 X37.822 Y13.916
G01 F400 X37.619 Y13.825
G01 F400 X37.439 Y13.694
G01 F400 X37.290 Y13.529
G01 F400 X37.178 Y13.336
G01 F400 X37.110 Y13.125
G01 F400 X37.086 Y12.903
G01 F400 X37.110 Y12.682
G01 F400 X37.178 Y12.470
G01 F400 X37.290 Y12.277
G01 F400 X37.439 Y12.112
G01 F400 X37.619 Y11.981
G01 F400 X37.822 Y11.891
G01 F400 X38.040 Y11.845
G01 F400 X38.262 Y11.845
G01 F400 X38.480 Y11.891
G01 F400 X38.683 Y11.981
G01 F400 X38.863 Y12.112
G01 F400 X39.012 Y12.277
G01 F400 X39.123 Y12.470
G01 F400 X39.192 Y12.682
G01 F400 X39.215 Y12.903
G01 F400 X39.192 Y13.125
G01 F400 X39.123 Y13.336
G01 F400 X39.012 Y13.529
G01 F400 X38.863 Y13.694
G01 F400 X38.683 Y13.825
G01 F400 X38.480 Y13.916
G01 F400 X38.262 Y13.962
G01 F400 X38.040 Y13.962
G00 Z3.000
G00  X55.820 Y13.962
G01 F750 Z0
G01 F400 Z-0.100
G01 F400 X55.602 Y13.916
G01 F400 X55.399 Y13.825
G01 F400 X55.219 Y13.694
G01 F400 X55.070 Y13.529
G01 F400 X54.958 Y13.336
G01 F400 X54.890 Y13.125
G01 F400 X54.866 Y12.903
G01 F400 X54.890 Y12.682
G01 F400 X54.958 Y12.470
G01 F400 X55.070 Y12.277
G01 F400 X55.219 Y12.112
G01 F400 X55.399 Y11.981
G01 F400 X55.602 Y11.891
G01 F400 X55.820 Y11.845
G01 F400 X56.042 Y11.845
G01 F400 X56.260 Y11.891
G01 F400 X56.463 Y11.981
G01 F400 X56.643 Y12.112
G01 F400 X56.792 Y12.277
G01 F400 X56.903 Y12.470
G01 F400 X56.972 Y12.682
G01 F400 X56.995 Y12.903
G01 F400 X56.972 Y13.125
G01 F400 X56.903 Y13.336
G01 F400 X56.792 Y13.529
G01 F400 X56.643 Y13.694
G01 F400 X56.463 Y13.825
G01 F400 X56.260 Y13.916
G01 F400 X56.042 Y13.962
G01 F400 X55.820 Y13.962
G00 Z3.000
G00  X22.800 Y13.708
G01 F750 Z0
G01 F400 Z-0.100
G01 F400 X22.582 Y13.662
G01 F400 X22.379 Y13.571
G01 F400 X22.199 Y13.440
G01 F400 X22.050 Y13.275
G01 F400 X21.938 Y13.082
G01 F400 X21.870 Y12.870
G01 F400 X21.846 Y12.649
G01 F400 X21.870 Y12.428
G01 F400 X21.938 Y12.216
G01 F400 X22.050 Y12.024
G01 F400 X22.199 Y11.858
G01 F400 X22.379 Y11.727
G01 F400 X22.582 Y11.637
G01 F400 X22.800 Y11.591
G01 F400 X23.022 Y11.591
G01 F400 X23.240 Y11.637
G01 F400 X23.443 Y11.727
G01 F400 X23.623 Y11.858
G01 F400 X23.772 Y12.024
G01 F400 X23.883 Y12.216
G01 F400 X23.952 Y12.428
G01 F400 X23.975 Y12.649
G01 F400 X23.952 Y12.870
G01 F400 X23.883 Y13.082
G01 F400 X23.772 Y13.275
G01 F400 X23.623 Y13.440
G01 F400 X23.443 Y13.571
G01 F400 X23.240 Y13.662
G01 F400 X23.022 Y13.708
G01 F400 X22.800 Y13.708
G00 Z3.000
G00  X12.639 Y13.708
G01 F750 Z0
G01 F400 Z-0.100
G01 F400 X12.422 Y13.662
G01 F400 X12.219 Y13.571
G01 F400 X12.039 Y13.440
G01 F400 X11.889 Y13.275
G01 F400 X11.778 Y13.082
G01 F400 X11.710 Y12.870
G01 F400 X11.686 Y12.649
G01 F400 X11.710 Y12.428
G01 F400 X11.778 Y12.216
G01 F400 X11.889 Y12.024
G01 F400 X12.039 Y11.858
G01 F400 X12.219 Y11.727
G01 F400 X12.422 Y11.637
G01 F400 X12.639 Y11.591
G01 F400 X12.862 Y11.591
G01 F400 X13.080 Y11.637
G01 F400 X13.283 Y11.727
G01 F400 X13.463 Y11.858
G01 F400 X13.612 Y12.024
G01 F400 X13.723 Y12.216
G01 F400 X13.792 Y12.428
G01 F400 X13.815 Y12.649
G01 F400 X13.792 Y12.870
G01 F400 X13.723 Y13.082
G01 F400 X13.612 Y13.275
G01 F400 X13.463 Y13.440
G01 F400 X13.283 Y13.571
G01 F400 X13.080 Y13.662
G01 F400 X12.862 Y13.708
G01 F400 X12.639 Y13.708
G00 Z3.000
G00  X48.200 Y13.708
G01 F750 Z0
G01 F400 Z-0.100
G01 F400 X47.982 Y13.662
G01 F400 X47.779 Y13.571
G01 F400 X47.599 Y13.440
G01 F400 X47.450 Y13.275
G01 F400 X47.338 Y13.082
G01 F400 X47.270 Y12.870
G01 F400 X47.246 Y12.649
G01 F400 X47.270 Y12.428
G01 F400 X47.338 Y12.216
G01 F400 X47.450 Y12.024
G01 F400 X47.599 Y11.858
G01 F400 X47.779 Y11.727
G01 F400 X47.982 Y11.637
G01 F400 X48.200 Y11.591
G01 F400 X48.422 Y11.591
G01 F400 X48.640 Y11.637
G01 F400 X48.843 Y11.727
G01 F400 X49.023 Y11.858
G01 F400 X49.172 Y12.024
G01 F400 X49.283 Y12.216
G01 F400 X49.352 Y12.428
G01 F400 X49.375 Y12.649
G01 F400 X49.352 Y12.870
G01 F400 X49.283 Y13.082
G01 F400 X49.172 Y13.275
G01 F400 X49.023 Y13.440
G01 F400 X48.843 Y13.571
G01 F400 X48.640 Y13.662
G01 F400 X48.422 Y13.708
G01 F400 X48.200 Y13.708
G00 Z3.000
G00  X40.580 Y13.708
G01 F750 Z0
G01 F400 Z-0.100
G01 F400 X40.362 Y13.662
G01 F400 X40.159 Y13.571
G01 F400 X39.979 Y13.440
G01 F400 X39.830 Y13.275
G01 F400 X39.718 Y13.082
G01 F400 X39.650 Y12.870
G01 F400 X39.626 Y12.649
G01 F400 X39.650 Y12.428
G01 F400 X39.718 Y12.216
G01 F400 X39.830 Y12.024
G01 F400 X39.979 Y11.858
G01 F400 X40.159 Y11.727
G01 F400 X40.362 Y11.637
G01 F400 X40.580 Y11.591
G01 F400 X40.802 Y11.591
G01 F400 X41.020 Y11.637
G01 F400 X41.223 Y11.727
G01 F400 X41.403 Y11.858
G01 F400 X41.552 Y12.024
G01 F400 X41.663 Y12.216
G01 F400 X41.732 Y12.428
G01 F400 X41.755 Y12.649
G01 F400 X41.732 Y12.870
G01 F400 X41.663 Y13.082
G01 F400 X41.552 Y13.275
G01 F400 X41.403 Y13.440
G01 F400 X41.223 Y13.571
G01 F400 X41.020 Y13.662
G01 F400 X40.802 Y13.708
G01 F400 X40.580 Y13.708
G00 Z3.000
G00  X58.360 Y13.708
G01 F750 Z0
G01 F400 Z-0.100
G01 F400 X58.142 Y13.662
G01 F400 X57.939 Y13.571
G01 F400 X57.759 Y13.440
G01 F400 X57.610 Y13.275
G01 F400 X57.498 Y13.082
G01 F400 X57.430 Y12.870
G01 F400 X57.406 Y12.649
G01 F400 X57.430 Y12.428
G01 F400 X57.498 Y12.216
G01 F400 X57.610 Y12.024
G01 F400 X57.759 Y11.858
G01 F400 X57.939 Y11.727
G01 F400 X58.142 Y11.637
G01 F400 X58.360 Y11.591
G01 F400 X58.582 Y11.591
G01 F400 X58.800 Y11.637
G01 F400 X59.003 Y11.727
G01 F400 X59.183 Y11.858
G01 F400 X59.332 Y12.024
G01 F400 X59.443 Y12.216
G01 F400 X59.512 Y12.428
G01 F400 X59.535 Y12.649
G01 F400 X59.512 Y12.870
G01 F400 X59.443 Y13.082
G01 F400 X59.332 Y13.275
G01 F400 X59.183 Y13.440
G01 F400 X59.003 Y13.571
G01 F400 X58.800 Y13.662
G01 F400 X58.582 Y13.708
G01 F400 X58.360 Y13.708
G00 Z3.000
G00 Z3.000
M05
M30
%