( PCB Contour )
( Generated by Rapid-PCB.com )
( Material Size)
( X= 72.290, Y= 100.000, Z= 1.490)
()
G00
G17
G21
G40
G49
G54
G80
G90
G94
G00 F3000 Z3.000
M03 S9000
G00 F3000 X15.148 Y59.130
G00 F1500 Z0
G01 F480 Z-0.200
G01 F480 X14.918 Y59.081
G01 F480 X14.704 Y58.986
G01 F480 X14.514 Y58.848
G01 F480 X14.357 Y58.673
G01 F480 X14.240 Y58.470
G01 F480 X14.167 Y58.247
G01 F480 X14.143 Y58.014
G01 F480 X14.167 Y57.780
G01 F480 X14.240 Y57.557
G01 F480 X14.357 Y57.354
G01 F480 X14.514 Y57.179
G01 F480 X14.704 Y57.041
G01 F480 X14.918 Y56.946
G01 F480 X15.148 Y56.897
G01 F480 X15.383 Y56.897
G01 F480 X15.612 Y56.946
G01 F480 X15.827 Y57.041
G01 F480 X16.017 Y57.179
G01 F480 X16.174 Y57.354
G01 F480 X16.291 Y57.557
G01 F480 X16.363 Y57.780
G01 F480 X16.388 Y58.014
G01 F480 X16.363 Y58.247
G01 F480 X16.291 Y58.470
G01 F480 X16.174 Y58.673
G01 F480 X16.017 Y58.848
G01 F480 X15.827 Y58.986
G01 F480 X15.612 Y59.081
G01 F480 X15.383 Y59.130
G01 F480 X15.148 Y59.130
G00 F3000 Z3.000
G00 F3000 X32.928 Y59.130
G00 F1500 Z0
G01 F480 Z-0.200
G01 F480 X32.699 Y59.081
G01 F480 X32.484 Y58.986
G01 F480 X32.294 Y58.848
G01 F480 X32.137 Y58.673
G01 F480 X32.020 Y58.470
G01 F480 X31.947 Y58.247
G01 F480 X31.923 Y58.014
G01 F480 X31.947 Y57.780
G01 F480 X32.020 Y57.557
G01 F480 X32.137 Y57.354
G01 F480 X32.294 Y57.179
G01 F480 X32.484 Y57.041
G01 F480 X32.699 Y56.946
G01 F480 X32.928 Y56.897
G01 F480 X33.163 Y56.897
G01 F480 X33.392 Y56.946
G01 F480 X33.607 Y57.041
G01 F480 X33.797 Y57.179
G01 F480 X33.954 Y57.354
G01 F480 X34.071 Y57.557
G01 F480 X34.143 Y57.780
G01 F480 X34.168 Y58.014
G01 F480 X34.143 Y58.247
G01 F480 X34.071 Y58.470
G01 F480 X33.954 Y58.673
G01 F480 X33.797 Y58.848
G01 F480 X33.607 Y58.986
G01 F480 X33.392 Y59.081
G01 F480 X33.163 Y59.130
G01 F480 X32.928 Y59.130
G00 F3000 Z3.000
G00 F3000 X27.848 Y59.130
G00 F1500 Z0
G01 F480 Z-0.200
G01 F480 X27.619 Y59.081
G01 F480 X27.404 Y58.986
G01 F480 X27.214 Y58.848
G01 F480 X27.057 Y58.673
G01 F480 X26.940 Y58.470
G01 F480 X26.867 Y58.247
G01 F480 X26.843 Y58.014
G01 F480 X26.867 Y57.780
G01 F480 X26.940 Y57.557
G01 F480 X27.057 Y57.354
G01 F480 X27.214 Y57.179
G01 F480 X27.404 Y57.041
G01 F480 X27.619 Y56.946
G01 F480 X27.848 Y56.897
G01 F480 X28.083 Y56.897
G01 F480 X28.312 Y56.946
G01 F480 X28.527 Y57.041
G01 F480 X28.717 Y57.179
G01 F480 X28.874 Y57.354
G01 F480 X28.991 Y57.557
G01 F480 X29.063 Y57.780
G01 F480 X29.088 Y58.014
G01 F480 X29.063 Y58.247
G01 F480 X28.991 Y58.470
G01 F480 X28.874 Y58.673
G01 F480 X28.717 Y58.848
G01 F480 X28.527 Y58.986
G01 F480 X28.312 Y59.081
G01 F480 X28.083 Y59.130
G01 F480 X27.848 Y59.130
G00 F3000 Z3.000
G00 F3000 X45.628 Y59.130
G00 F1500 Z0
G01 F480 Z-0.200
G01 F480 X45.399 Y59.081
G01 F480 X45.184 Y58.986
G01 F480 X44.994 Y58.848
G01 F480 X44.837 Y58.673
G01 F480 X44.720 Y58.470
G01 F480 X44.647 Y58.247
G01 F480 X44.623 Y58.014
G01 F480 X44.647 Y57.780
G01 F480 X44.720 Y57.557
G01 F480 X44.837 Y57.354
G01 F480 X44.994 Y57.179
G01 F480 X45.184 Y57.041
G01 F480 X45.399 Y56.946
G01 F480 X45.628 Y56.897
G01 F480 X45.863 Y56.897
G01 F480 X46.092 Y56.946
G01 F480 X46.307 Y57.041
G01 F480 X46.497 Y57.179
G01 F480 X46.654 Y57.354
G01 F480 X46.771 Y57.557
G01 F480 X46.843 Y57.780
G01 F480 X46.868 Y58.014
G01 F480 X46.843 Y58.247
G01 F480 X46.771 Y58.470
G01 F480 X46.654 Y58.673
G01 F480 X46.497 Y58.848
G01 F480 X46.307 Y58.986
G01 F480 X46.092 Y59.081
G01 F480 X45.863 Y59.130
G01 F480 X45.628 Y59.130
G00 F3000 Z3.000
G00 F3000 X12.608 Y59.130
G00 F1500 Z0
G01 F480 Z-0.200
G01 F480 X12.379 Y59.081
G01 F480 X12.164 Y58.986
G01 F480 X11.975 Y58.848
G01 F480 X11.818 Y58.673
G01 F480 X11.700 Y58.470
G01 F480 X11.628 Y58.247
G01 F480 X11.603 Y58.014
G01 F480 X11.628 Y57.780
G01 F480 X11.700 Y57.557
G01 F480 X11.818 Y57.354
G01 F480 X11.975 Y57.180
G01 F480 X12.164 Y57.042
G01 F480 X12.379 Y56.946
G01 F480 X12.608 Y56.898
G01 F480 X12.843 Y56.898
G01 F480 X13.072 Y56.946
G01 F480 X13.287 Y57.042
G01 F480 X13.476 Y57.180
G01 F480 X13.633 Y57.354
G01 F480 X13.751 Y57.557
G01 F480 X13.823 Y57.780
G01 F480 X13.848 Y58.014
G01 F480 X13.823 Y58.247
G01 F480 X13.751 Y58.470
G01 F480 X13.633 Y58.673
G01 F480 X13.476 Y58.848
G01 F480 X13.287 Y58.986
G01 F480 X13.072 Y59.081
G01 F480 X12.843 Y59.130
G01 F480 X12.608 Y59.130
G00 F3000 Z3.000
G00 F3000 X10.068 Y59.130
G00 F1500 Z0
G01 F480 Z-0.200
G01 F480 X9.839 Y59.081
G01 F480 X9.624 Y58.986
G01 F480 X9.434 Y58.848
G01 F480 X9.277 Y58.673
G01 F480 X9.160 Y58.470
G01 F480 X9.088 Y58.247
G01 F480 X9.063 Y58.014
G01 F480 X9.088 Y57.780
G01 F480 X9.160 Y57.557
G01 F480 X9.277 Y57.354
G01 F480 X9.434 Y57.180
G01 F480 X9.624 Y57.042
G01 F480 X9.839 Y56.946
G01 F480 X10.068 Y56.898
G01 F480 X10.303 Y56.898
G01 F480 X10.532 Y56.946
G01 F480 X10.747 Y57.042
G01 F480 X10.936 Y57.180
G01 F480 X11.093 Y57.354
G01 F480 X11.211 Y57.557
G01 F480 X11.283 Y57.780
G01 F480 X11.308 Y58.014
G01 F480 X11.283 Y58.247
G01 F480 X11.211 Y58.470
G01 F480 X11.093 Y58.673
G01 F480 X10.936 Y58.848
G01 F480 X10.747 Y58.986
G01 F480 X10.532 Y59.081
G01 F480 X10.303 Y59.130
G01 F480 X10.068 Y59.130
G00 F3000 Z3.000
G00 F3000 X17.688 Y59.130
G00 F1500 Z0
G01 F480 Z-0.200
G01 F480 X17.459 Y59.081
G01 F480 X17.244 Y58.986
G01 F480 X17.055 Y58.848
G01 F480 X16.898 Y58.673
G01 F480 X16.780 Y58.470
G01 F480 X16.708 Y58.247
G01 F480 X16.683 Y58.014
G01 F480 X16.708 Y57.780
G01 F480 X16.780 Y57.557
G01 F480 X16.898 Y57.354
G01 F480 X17.055 Y57.180
G01 F480 X17.244 Y57.042
G01 F480 X17.459 Y56.946
G01 F480 X17.688 Y56.898
G01 F480 X17.923 Y56.898
G01 F480 X18.152 Y56.946
G01 F480 X18.367 Y57.042
G01 F480 X18.556 Y57.180
G01 F480 X18.713 Y57.354
G01 F480 X18.831 Y57.557
G01 F480 X18.903 Y57.780
G01 F480 X18.928 Y58.014
G01 F480 X18.903 Y58.247
G01 F480 X18.831 Y58.470
G01 F480 X18.713 Y58.673
G01 F480 X18.556 Y58.848
G01 F480 X18.367 Y58.986
G01 F480 X18.152 Y59.081
G01 F480 X17.923 Y59.130
G01 F480 X17.688 Y59.130
G00 F3000 Z3.000
G00 F3000 X7.528 Y59.130
G00 F1500 Z0
G01 F480 Z-0.200
G01 F480 X7.299 Y59.081
G01 F480 X7.084 Y58.986
G01 F480 X6.895 Y58.848
G01 F480 X6.738 Y58.673
G01 F480 X6.620 Y58.470
G01 F480 X6.548 Y58.247
G01 F480 X6.523 Y58.014
G01 F480 X6.548 Y57.780
G01 F480 X6.620 Y57.557
G01 F480 X6.738 Y57.354
G01 F480 X6.895 Y57.180
G01 F480 X7.084 Y57.042
G01 F480 X7.299 Y56.946
G01 F480 X7.528 Y56.898
G01 F480 X7.763 Y56.898
G01 F480 X7.992 Y56.946
G01 F480 X8.207 Y57.042
G01 F480 X8.396 Y57.180
G01 F480 X8.553 Y57.354
G01 F480 X8.671 Y57.557
G01 F480 X8.743 Y57.780
G01 F480 X8.768 Y58.014
G01 F480 X8.743 Y58.247
G01 F480 X8.671 Y58.470
G01 F480 X8.553 Y58.673
G01 F480 X8.396 Y58.848
G01 F480 X8.207 Y58.986
G01 F480 X7.992 Y59.081
G01 F480 X7.763 Y59.130
G01 F480 X7.528 Y59.130
G00 F3000 Z3.000
G00 F3000 X30.388 Y59.130
G00 F1500 Z0
G01 F480 Z-0.200
G01 F480 X30.159 Y59.081
G01 F480 X29.944 Y58.986
G01 F480 X29.755 Y58.848
G01 F480 X29.598 Y58.673
G01 F480 X29.480 Y58.470
G01 F480 X29.408 Y58.247
G01 F480 X29.383 Y58.014
G01 F480 X29.408 Y57.780
G01 F480 X29.480 Y57.557
G01 F480 X29.598 Y57.354
G01 F480 X29.755 Y57.180
G01 F480 X29.944 Y57.042
G01 F480 X30.159 Y56.946
G01 F480 X30.388 Y56.898
G01 F480 X30.623 Y56.898
G01 F480 X30.852 Y56.946
G01 F480 X31.067 Y57.042
G01 F480 X31.256 Y57.180
G01 F480 X31.413 Y57.354
G01 F480 X31.531 Y57.557
G01 F480 X31.603 Y57.780
G01 F480 X31.628 Y58.014
G01 F480 X31.603 Y58.247
G01 F480 X31.531 Y58.470
G01 F480 X31.413 Y58.673
G01 F480 X31.256 Y58.848
G01 F480 X31.067 Y58.986
G01 F480 X30.852 Y59.081
G01 F480 X30.623 Y59.130
G01 F480 X30.388 Y59.130
G00 F3000 Z3.000
G00 F3000 X38.008 Y59.130
G00 F1500 Z0
G01 F480 Z-0.200
G01 F480 X37.779 Y59.081
G01 F480 X37.564 Y58.986
G01 F480 X37.375 Y58.848
G01 F480 X37.218 Y58.673
G01 F480 X37.100 Y58.470
G01 F480 X37.028 Y58.247
G01 F480 X37.003 Y58.014
G01 F480 X37.028 Y57.780
G01 F480 X37.100 Y57.557
G01 F480 X37.218 Y57.354
G01 F480 X37.375 Y57.180
G01 F480 X37.564 Y57.042
G01 F480 X37.779 Y56.946
G01 F480 X38.008 Y56.898
G01 F480 X38.243 Y56.898
G01 F480 X38.472 Y56.946
G01 F480 X38.687 Y57.042
G01 F480 X38.876 Y57.180
G01 F480 X39.033 Y57.354
G01 F480 X39.151 Y57.557
G01 F480 X39.223 Y57.780
G01 F480 X39.248 Y58.014
G01 F480 X39.223 Y58.247
G01 F480 X39.151 Y58.470
G01 F480 X39.033 Y58.673
G01 F480 X38.876 Y58.848
G01 F480 X38.687 Y58.986
G01 F480 X38.472 Y59.081
G01 F480 X38.243 Y59.130
G01 F480 X38.008 Y59.130
G00 F3000 Z3.000
G00 F3000 X35.468 Y59.130
G00 F1500 Z0
G01 F480 Z-0.200
G01 F480 X35.239 Y59.081
G01 F480 X35.024 Y58.986
G01 F480 X34.834 Y58.848
G01 F480 X34.678 Y58.673
G01 F480 X34.560 Y58.470
G01 F480 X34.488 Y58.247
G01 F480 X34.463 Y58.014
G01 F480 X34.488 Y57.780
G01 F480 X34.560 Y57.557
G01 F480 X34.678 Y57.354
G01 F480 X34.834 Y57.180
G01 F480 X35.024 Y57.042
G01 F480 X35.239 Y56.946
G01 F480 X35.468 Y56.898
G01 F480 X35.703 Y56.898
G01 F480 X35.932 Y56.946
G01 F480 X36.147 Y57.042
G01 F480 X36.336 Y57.180
G01 F480 X36.493 Y57.354
G01 F480 X36.611 Y57.557
G01 F480 X36.683 Y57.780
G01 F480 X36.708 Y58.014
G01 F480 X36.683 Y58.247
G01 F480 X36.611 Y58.470
G01 F480 X36.493 Y58.673
G01 F480 X36.336 Y58.848
G01 F480 X36.147 Y58.986
G01 F480 X35.932 Y59.081
G01 F480 X35.703 Y59.130
G01 F480 X35.468 Y59.130
G00 F3000 Z3.000
G00 F3000 X22.768 Y59.130
G00 F1500 Z0
G01 F480 Z-0.200
G01 F480 X22.539 Y59.081
G01 F480 X22.324 Y58.986
G01 F480 X22.135 Y58.848
G01 F480 X21.978 Y58.673
G01 F480 X21.860 Y58.470
G01 F480 X21.788 Y58.247
G01 F480 X21.763 Y58.014
G01 F480 X21.788 Y57.780
G01 F480 X21.860 Y57.557
G01 F480 X21.978 Y57.354
G01 F480 X22.135 Y57.180
G01 F480 X22.324 Y57.042
G01 F480 X22.539 Y56.946
G01 F480 X22.768 Y56.898
G01 F480 X23.003 Y56.898
G01 F480 X23.232 Y56.946
G01 F480 X23.447 Y57.042
G01 F480 X23.636 Y57.180
G01 F480 X23.793 Y57.354
G01 F480 X23.911 Y57.557
G01 F480 X23.983 Y57.780
G01 F480 X24.008 Y58.014
G01 F480 X23.983 Y58.247
G01 F480 X23.911 Y58.470
G01 F480 X23.793 Y58.673
G01 F480 X23.636 Y58.848
G01 F480 X23.447 Y58.986
G01 F480 X23.232 Y59.081
G01 F480 X23.003 Y59.130
G01 F480 X22.768 Y59.130
G00 F3000 Z3.000
G00 F3000 X20.228 Y59.130
G00 F1500 Z0
G01 F480 Z-0.200
G01 F480 X19.999 Y59.081
G01 F480 X19.784 Y58.986
G01 F480 X19.595 Y58.848
G01 F480 X19.438 Y58.673
G01 F480 X19.320 Y58.470
G01 F480 X19.248 Y58.247
G01 F480 X19.223 Y58.014
G01 F480 X19.248 Y57.780
G01 F480 X19.320 Y57.557
G01 F480 X19.438 Y57.354
G01 F480 X19.595 Y57.180
G01 F480 X19.784 Y57.042
G01 F480 X19.999 Y56.946
G01 F480 X20.228 Y56.898
G01 F480 X20.463 Y56.898
G01 F480 X20.692 Y56.946
G01 F480 X20.907 Y57.042
G01 F480 X21.096 Y57.180
G01 F480 X21.253 Y57.354
G01 F480 X21.371 Y57.557
G01 F480 X21.443 Y57.780
G01 F480 X21.468 Y58.014
G01 F480 X21.443 Y58.247
G01 F480 X21.371 Y58.470
G01 F480 X21.253 Y58.673
G01 F480 X21.096 Y58.848
G01 F480 X20.907 Y58.986
G01 F480 X20.692 Y59.081
G01 F480 X20.463 Y59.130
G01 F480 X20.228 Y59.130
G00 F3000 Z3.000
G00 F3000 X25.308 Y59.130
G00 F1500 Z0
G01 F480 Z-0.200
G01 F480 X25.079 Y59.081
G01 F480 X24.864 Y58.986
G01 F480 X24.675 Y58.848
G01 F480 X24.518 Y58.673
G01 F480 X24.400 Y58.470
G01 F480 X24.328 Y58.247
G01 F480 X24.303 Y58.014
G01 F480 X24.328 Y57.780
G01 F480 X24.400 Y57.557
G01 F480 X24.518 Y57.354
G01 F480 X24.675 Y57.180
G01 F480 X24.864 Y57.042
G01 F480 X25.079 Y56.946
G01 F480 X25.308 Y56.898
G01 F480 X25.543 Y56.898
G01 F480 X25.772 Y56.946
G01 F480 X25.986 Y57.042
G01 F480 X26.176 Y57.180
G01 F480 X26.333 Y57.354
G01 F480 X26.451 Y57.557
G01 F480 X26.523 Y57.780
G01 F480 X26.548 Y58.014
G01 F480 X26.523 Y58.247
G01 F480 X26.451 Y58.470
G01 F480 X26.333 Y58.673
G01 F480 X26.176 Y58.848
G01 F480 X25.986 Y58.986
G01 F480 X25.772 Y59.081
G01 F480 X25.543 Y59.130
G01 F480 X25.308 Y59.130
G00 F3000 Z3.000
G00 F3000 X53.248 Y59.130
G00 F1500 Z0
G01 F480 Z-0.200
G01 F480 X53.019 Y59.081
G01 F480 X52.804 Y58.986
G01 F480 X52.614 Y58.848
G01 F480 X52.458 Y58.673
G01 F480 X52.340 Y58.470
G01 F480 X52.268 Y58.247
G01 F480 X52.243 Y58.014
G01 F480 X52.268 Y57.780
G01 F480 X52.340 Y57.557
G01 F480 X52.458 Y57.354
G01 F480 X52.614 Y57.180
G01 F480 X52.804 Y57.042
G01 F480 X53.019 Y56.946
G01 F480 X53.248 Y56.898
G01 F480 X53.483 Y56.898
G01 F480 X53.712 Y56.946
G01 F480 X53.927 Y57.042
G01 F480 X54.116 Y57.180
G01 F480 X54.273 Y57.354
G01 F480 X54.391 Y57.557
G01 F480 X54.463 Y57.780
G01 F480 X54.488 Y58.014
G01 F480 X54.463 Y58.247
G01 F480 X54.391 Y58.470
G01 F480 X54.273 Y58.673
G01 F480 X54.116 Y58.848
G01 F480 X53.927 Y58.986
G01 F480 X53.712 Y59.081
G01 F480 X53.483 Y59.130
G01 F480 X53.248 Y59.130
G00 F3000 Z3.000
G00 F3000 X50.708 Y59.130
G00 F1500 Z0
G01 F480 Z-0.200
G01 F480 X50.479 Y59.081
G01 F480 X50.264 Y58.986
G01 F480 X50.075 Y58.848
G01 F480 X49.918 Y58.673
G01 F480 X49.800 Y58.470
G01 F480 X49.728 Y58.247
G01 F480 X49.703 Y58.014
G01 F480 X49.728 Y57.780
G01 F480 X49.800 Y57.557
G01 F480 X49.918 Y57.354
G01 F480 X50.075 Y57.180
G01 F480 X50.264 Y57.042
G01 F480 X50.479 Y56.946
G01 F480 X50.708 Y56.898
G01 F480 X50.943 Y56.898
G01 F480 X51.172 Y56.946
G01 F480 X51.387 Y57.042
G01 F480 X51.576 Y57.180
G01 F480 X51.733 Y57.354
G01 F480 X51.851 Y57.557
G01 F480 X51.923 Y57.780
G01 F480 X51.948 Y58.014
G01 F480 X51.923 Y58.247
G01 F480 X51.851 Y58.470
G01 F480 X51.733 Y58.673
G01 F480 X51.576 Y58.848
G01 F480 X51.387 Y58.986
G01 F480 X51.172 Y59.081
G01 F480 X50.943 Y59.130
G01 F480 X50.708 Y59.130
G00 F3000 Z3.000
G00 F3000 X55.788 Y59.130
G00 F1500 Z0
G01 F480 Z-0.200
G01 F480 X55.559 Y59.081
G01 F480 X55.344 Y58.986
G01 F480 X55.155 Y58.848
G01 F480 X54.998 Y58.673
G01 F480 X54.880 Y58.470
G01 F480 X54.808 Y58.247
G01 F480 X54.783 Y58.014
G01 F480 X54.808 Y57.780
G01 F480 X54.880 Y57.557
G01 F480 X54.998 Y57.354
G01 F480 X55.155 Y57.180
G01 F480 X55.344 Y57.042
G01 F480 X55.559 Y56.946
G01 F480 X55.788 Y56.898
G01 F480 X56.023 Y56.898
G01 F480 X56.252 Y56.946
G01 F480 X56.467 Y57.042
G01 F480 X56.656 Y57.180
G01 F480 X56.813 Y57.354
G01 F480 X56.931 Y57.557
G01 F480 X57.003 Y57.780
G01 F480 X57.028 Y58.014
G01 F480 X57.003 Y58.247
G01 F480 X56.931 Y58.470
G01 F480 X56.813 Y58.673
G01 F480 X56.656 Y58.848
G01 F480 X56.467 Y58.986
G01 F480 X56.252 Y59.081
G01 F480 X56.023 Y59.130
G01 F480 X55.788 Y59.130
G00 F3000 Z3.000
G00 F3000 X43.088 Y59.130
G00 F1500 Z0
G01 F480 Z-0.200
G01 F480 X42.859 Y59.081
G01 F480 X42.644 Y58.986
G01 F480 X42.455 Y58.848
G01 F480 X42.297 Y58.673
G01 F480 X42.180 Y58.470
G01 F480 X42.108 Y58.247
G01 F480 X42.083 Y58.014
G01 F480 X42.108 Y57.780
G01 F480 X42.180 Y57.557
G01 F480 X42.297 Y57.354
G01 F480 X42.455 Y57.180
G01 F480 X42.644 Y57.042
G01 F480 X42.859 Y56.946
G01 F480 X43.088 Y56.898
G01 F480 X43.323 Y56.898
G01 F480 X43.552 Y56.946
G01 F480 X43.767 Y57.042
G01 F480 X43.956 Y57.180
G01 F480 X44.113 Y57.354
G01 F480 X44.231 Y57.557
G01 F480 X44.303 Y57.780
G01 F480 X44.328 Y58.014
G01 F480 X44.303 Y58.247
G01 F480 X44.231 Y58.470
G01 F480 X44.113 Y58.673
G01 F480 X43.956 Y58.848
G01 F480 X43.767 Y58.986
G01 F480 X43.552 Y59.081
G01 F480 X43.323 Y59.130
G01 F480 X43.088 Y59.130
G00 F3000 Z3.000
G00 F3000 X40.548 Y59.130
G00 F1500 Z0
G01 F480 Z-0.200
G01 F480 X40.319 Y59.081
G01 F480 X40.104 Y58.986
G01 F480 X39.915 Y58.848
G01 F480 X39.758 Y58.673
G01 F480 X39.640 Y58.470
G01 F480 X39.568 Y58.247
G01 F480 X39.543 Y58.014
G01 F480 X39.568 Y57.780
G01 F480 X39.640 Y57.557
G01 F480 X39.758 Y57.354
G01 F480 X39.915 Y57.180
G01 F480 X40.104 Y57.042
G01 F480 X40.319 Y56.946
G01 F480 X40.548 Y56.898
G01 F480 X40.783 Y56.898
G01 F480 X41.012 Y56.946
G01 F480 X41.227 Y57.042
G01 F480 X41.416 Y57.180
G01 F480 X41.573 Y57.354
G01 F480 X41.691 Y57.557
G01 F480 X41.763 Y57.780
G01 F480 X41.788 Y58.014
G01 F480 X41.763 Y58.247
G01 F480 X41.691 Y58.470
G01 F480 X41.573 Y58.673
G01 F480 X41.416 Y58.848
G01 F480 X41.227 Y58.986
G01 F480 X41.012 Y59.081
G01 F480 X40.783 Y59.130
G01 F480 X40.548 Y59.130
G00 F3000 Z3.000
G00 F3000 X48.168 Y59.130
G00 F1500 Z0
G01 F480 Z-0.200
G01 F480 X47.939 Y59.081
G01 F480 X47.724 Y58.986
G01 F480 X47.535 Y58.848
G01 F480 X47.378 Y58.673
G01 F480 X47.260 Y58.470
G01 F480 X47.188 Y58.247
G01 F480 X47.163 Y58.014
G01 F480 X47.188 Y57.780
G01 F480 X47.260 Y57.557
G01 F480 X47.378 Y57.354
G01 F480 X47.535 Y57.180
G01 F480 X47.724 Y57.042
G01 F480 X47.939 Y56.946
G01 F480 X48.168 Y56.898
G01 F480 X48.403 Y56.898
G01 F480 X48.632 Y56.946
G01 F480 X48.846 Y57.042
G01 F480 X49.036 Y57.180
G01 F480 X49.193 Y57.354
G01 F480 X49.311 Y57.557
G01 F480 X49.383 Y57.780
G01 F480 X49.408 Y58.014
G01 F480 X49.383 Y58.247
G01 F480 X49.311 Y58.470
G01 F480 X49.193 Y58.673
G01 F480 X49.036 Y58.848
G01 F480 X48.846 Y58.986
G01 F480 X48.632 Y59.081
G01 F480 X48.403 Y59.130
G01 F480 X48.168 Y59.130
G00 F3000 Z3.000
G00 F3000 X45.628 Y56.590
G00 F1500 Z0
G01 F480 Z-0.200
G01 F480 X45.399 Y56.541
G01 F480 X45.184 Y56.446
G01 F480 X44.994 Y56.308
G01 F480 X44.837 Y56.133
G01 F480 X44.720 Y55.930
G01 F480 X44.647 Y55.707
G01 F480 X44.623 Y55.474
G01 F480 X44.647 Y55.240
G01 F480 X44.720 Y55.017
G01 F480 X44.837 Y54.814
G01 F480 X44.994 Y54.639
G01 F480 X45.184 Y54.501
G01 F480 X45.399 Y54.406
G01 F480 X45.628 Y54.357
G01 F480 X45.863 Y54.357
G01 F480 X46.092 Y54.406
G01 F480 X46.307 Y54.501
G01 F480 X46.497 Y54.639
G01 F480 X46.654 Y54.814
G01 F480 X46.771 Y55.017
G01 F480 X46.843 Y55.240
G01 F480 X46.868 Y55.474
G01 F480 X46.843 Y55.707
G01 F480 X46.771 Y55.930
G01 F480 X46.654 Y56.133
G01 F480 X46.497 Y56.308
G01 F480 X46.307 Y56.446
G01 F480 X46.092 Y56.541
G01 F480 X45.863 Y56.590
G01 F480 X45.628 Y56.590
G00 F3000 Z3.000
G00 F3000 X15.148 Y56.590
G00 F1500 Z0
G01 F480 Z-0.200
G01 F480 X14.918 Y56.541
G01 F480 X14.704 Y56.446
G01 F480 X14.514 Y56.308
G01 F480 X14.357 Y56.133
G01 F480 X14.240 Y55.930
G01 F480 X14.167 Y55.707
G01 F480 X14.143 Y55.474
G01 F480 X14.167 Y55.240
G01 F480 X14.240 Y55.017
G01 F480 X14.357 Y54.814
G01 F480 X14.514 Y54.639
G01 F480 X14.704 Y54.501
G01 F480 X14.918 Y54.406
G01 F480 X15.148 Y54.357
G01 F480 X15.383 Y54.357
G01 F480 X15.612 Y54.406
G01 F480 X15.827 Y54.501
G01 F480 X16.017 Y54.639
G01 F480 X16.174 Y54.814
G01 F480 X16.291 Y55.017
G01 F480 X16.363 Y55.240
G01 F480 X16.388 Y55.474
G01 F480 X16.363 Y55.707
G01 F480 X16.291 Y55.930
G01 F480 X16.174 Y56.133
G01 F480 X16.017 Y56.308
G01 F480 X15.827 Y56.446
G01 F480 X15.612 Y56.541
G01 F480 X15.383 Y56.590
G01 F480 X15.148 Y56.590
G00 F3000 Z3.000
G00 F3000 X32.928 Y56.590
G00 F1500 Z0
G01 F480 Z-0.200
G01 F480 X32.699 Y56.541
G01 F480 X32.484 Y56.446
G01 F480 X32.294 Y56.308
G01 F480 X32.137 Y56.133
G01 F480 X32.090 Y56.051
G01 F480 X31.461 Y56.051
G01 F480 X31.413 Y56.133
G01 F480 X31.256 Y56.308
G01 F480 X31.067 Y56.446
G01 F480 X30.852 Y56.541
G01 F480 X30.623 Y56.590
G01 F480 X30.388 Y56.590
G01 F480 X30.159 Y56.541
G01 F480 X29.944 Y56.446
G01 F480 X29.755 Y56.308
G01 F480 X29.598 Y56.133
G01 F480 X29.480 Y55.930
G01 F480 X29.408 Y55.707
G01 F480 X29.383 Y55.474
G01 F480 X29.408 Y55.240
G01 F480 X29.480 Y55.017
G01 F480 X29.598 Y54.814
G01 F480 X29.755 Y54.640
G01 F480 X29.944 Y54.502
G01 F480 X30.159 Y54.406
G01 F480 X30.388 Y54.358
G01 F480 X30.623 Y54.358
G01 F480 X30.852 Y54.406
G01 F480 X31.067 Y54.502
G01 F480 X31.256 Y54.640
G01 F480 X31.413 Y54.814
G01 F480 X31.461 Y54.896
G01 F480 X31.624 Y54.896
G01 F480 X25.003 Y48.275
G01 F480 X24.931 Y48.195
G01 F480 X24.870 Y48.090
G01 F480 X24.832 Y47.974
G01 F480 X24.821 Y47.863
G01 F480 X24.821 Y40.369
G01 F480 X22.354 Y35.410
G01 F480 X22.318 Y35.300
G01 F480 X22.306 Y35.188
G01 F480 X22.306 Y25.964
G01 F480 X22.128 Y25.835
G01 F480 X21.970 Y25.659
G01 F480 X21.918 Y25.570
G01 F480 X16.238 Y25.547
G01 F480 X16.238 Y25.941
G01 F480 X14.292 Y25.941
G01 F480 X14.292 Y23.995
G01 F480 X16.238 Y23.995
G01 F480 X16.238 Y24.392
G01 F480 X21.919 Y24.415
G01 F480 X21.970 Y24.328
G01 F480 X22.128 Y24.152
G01 F480 X22.319 Y24.013
G01 F480 X22.536 Y23.917
G01 F480 X22.767 Y23.868
G01 F480 X23.004 Y23.868
G01 F480 X23.235 Y23.917
G01 F480 X23.451 Y24.013
G01 F480 X23.643 Y24.152
G01 F480 X23.801 Y24.328
G01 F480 X23.920 Y24.533
G01 F480 X23.993 Y24.758
G01 F480 X24.017 Y24.994
G01 F480 X23.993 Y25.229
G01 F480 X23.920 Y25.454
G01 F480 X23.801 Y25.659
G01 F480 X23.643 Y25.835
G01 F480 X23.465 Y25.964
G01 F480 X23.465 Y35.044
G01 F480 X25.932 Y40.003
G01 F480 X25.968 Y40.113
G01 F480 X25.979 Y40.224
G01 F480 X25.979 Y47.614
G01 F480 X32.758 Y54.393
G01 F480 X32.928 Y54.357
G01 F480 X33.163 Y54.357
G01 F480 X33.392 Y54.406
G01 F480 X33.607 Y54.501
G01 F480 X33.797 Y54.639
G01 F480 X33.954 Y54.814
G01 F480 X34.071 Y55.017
G01 F480 X34.143 Y55.240
G01 F480 X34.168 Y55.474
G01 F480 X34.143 Y55.707
G01 F480 X34.071 Y55.930
G01 F480 X33.954 Y56.133
G01 F480 X33.797 Y56.308
G01 F480 X33.607 Y56.446
G01 F480 X33.392 Y56.541
G01 F480 X33.163 Y56.590
G01 F480 X32.928 Y56.590
G00 F3000 Z3.000
G00 F3000 X27.848 Y56.590
G00 F1500 Z0
G01 F480 Z-0.200
G01 F480 X27.619 Y56.541
G01 F480 X27.404 Y56.446
G01 F480 X27.214 Y56.308
G01 F480 X27.057 Y56.133
G01 F480 X26.940 Y55.930
G01 F480 X26.867 Y55.707
G01 F480 X26.843 Y55.474
G01 F480 X26.867 Y55.240
G01 F480 X26.940 Y55.017
G01 F480 X27.057 Y54.814
G01 F480 X27.214 Y54.639
G01 F480 X27.404 Y54.501
G01 F480 X27.619 Y54.406
G01 F480 X27.848 Y54.357
G01 F480 X28.083 Y54.357
G01 F480 X28.312 Y54.406
G01 F480 X28.527 Y54.501
G01 F480 X28.717 Y54.639
G01 F480 X28.874 Y54.814
G01 F480 X28.991 Y55.017
G01 F480 X29.063 Y55.240
G01 F480 X29.088 Y55.474
G01 F480 X29.063 Y55.707
G01 F480 X28.991 Y55.930
G01 F480 X28.874 Y56.133
G01 F480 X28.717 Y56.308
G01 F480 X28.527 Y56.446
G01 F480 X28.312 Y56.541
G01 F480 X28.083 Y56.590
G01 F480 X27.848 Y56.590
G00 F3000 Z3.000
G00 F3000 X10.068 Y56.590
G00 F1500 Z0
G01 F480 Z-0.200
G01 F480 X9.839 Y56.541
G01 F480 X9.624 Y56.446
G01 F480 X9.434 Y56.308
G01 F480 X9.277 Y56.133
G01 F480 X9.160 Y55.930
G01 F480 X9.088 Y55.707
G01 F480 X9.063 Y55.474
G01 F480 X9.088 Y55.240
G01 F480 X9.160 Y55.017
G01 F480 X9.277 Y54.814
G01 F480 X9.434 Y54.640
G01 F480 X9.624 Y54.502
G01 F480 X9.839 Y54.406
G01 F480 X10.068 Y54.358
G01 F480 X10.303 Y54.358
G01 F480 X10.532 Y54.406
G01 F480 X10.747 Y54.502
G01 F480 X10.936 Y54.640
G01 F480 X11.093 Y54.814
G01 F480 X11.211 Y55.017
G01 F480 X11.283 Y55.240
G01 F480 X11.308 Y55.474
G01 F480 X11.283 Y55.707
G01 F480 X11.211 Y55.930
G01 F480 X11.093 Y56.133
G01 F480 X10.936 Y56.308
G01 F480 X10.747 Y56.446
G01 F480 X10.532 Y56.541
G01 F480 X10.303 Y56.590
G01 F480 X10.068 Y56.590
G00 F3000 Z3.000
G00 F3000 X12.608 Y56.590
G00 F1500 Z0
G01 F480 Z-0.200
G01 F480 X12.379 Y56.541
G01 F480 X12.164 Y56.446
G01 F480 X11.975 Y56.308
G01 F480 X11.818 Y56.133
G01 F480 X11.700 Y55.930
G01 F480 X11.628 Y55.707
G01 F480 X11.603 Y55.474
G01 F480 X11.628 Y55.240
G01 F480 X11.700 Y55.017
G01 F480 X11.818 Y54.814
G01 F480 X11.975 Y54.640
G01 F480 X12.164 Y54.502
G01 F480 X12.379 Y54.406
G01 F480 X12.608 Y54.358
G01 F480 X12.843 Y54.358
G01 F480 X13.072 Y54.406
G01 F480 X13.287 Y54.502
G01 F480 X13.476 Y54.640
G01 F480 X13.633 Y54.814
G01 F480 X13.751 Y55.017
G01 F480 X13.823 Y55.240
G01 F480 X13.848 Y55.474
G01 F480 X13.823 Y55.707
G01 F480 X13.751 Y55.930
G01 F480 X13.633 Y56.133
G01 F480 X13.476 Y56.308
G01 F480 X13.287 Y56.446
G01 F480 X13.072 Y56.541
G01 F480 X12.843 Y56.590
G01 F480 X12.608 Y56.590
G00 F3000 Z3.000
G00 F3000 X7.528 Y56.590
G00 F1500 Z0
G01 F480 Z-0.200
G01 F480 X7.299 Y56.541
G01 F480 X7.084 Y56.446
G01 F480 X6.895 Y56.308
G01 F480 X6.738 Y56.133
G01 F480 X6.620 Y55.930
G01 F480 X6.548 Y55.707
G01 F480 X6.523 Y55.474
G01 F480 X6.548 Y55.240
G01 F480 X6.553 Y55.225
G01 F480 X4.733 Y53.406
G01 F480 X4.661 Y53.326
G01 F480 X4.601 Y53.221
G01 F480 X4.563 Y53.105
G01 F480 X4.551 Y52.994
G01 F480 X4.551 Y30.115
G01 F480 X4.563 Y30.004
G01 F480 X4.601 Y29.888
G01 F480 X4.661 Y29.783
G01 F480 X4.733 Y29.704
G01 F480 X7.260 Y27.151
G01 F480 X7.355 Y27.082
G01 F480 X7.466 Y27.033
G01 F480 X7.585 Y27.007
G01 F480 X12.146 Y27.007
G01 F480 X12.146 Y18.337
G01 F480 X11.972 Y18.211
G01 F480 X11.814 Y18.036
G01 F480 X11.696 Y17.832
G01 F480 X11.624 Y17.608
G01 F480 X11.599 Y17.374
G01 F480 X11.624 Y17.139
G01 F480 X11.696 Y16.915
G01 F480 X11.814 Y16.712
G01 F480 X11.972 Y16.537
G01 F480 X11.985 Y16.527
G01 F480 X12.017 Y16.426
G01 F480 X12.078 Y16.321
G01 F480 X12.127 Y16.267
G01 F480 X12.145 Y12.987
G01 F480 X11.980 Y12.867
G01 F480 X11.824 Y12.694
G01 F480 X11.708 Y12.493
G01 F480 X11.636 Y12.271
G01 F480 X11.612 Y12.040
G01 F480 X11.636 Y11.808
G01 F480 X11.708 Y11.587
G01 F480 X11.824 Y11.385
G01 F480 X11.980 Y11.212
G01 F480 X12.168 Y11.075
G01 F480 X12.381 Y10.980
G01 F480 X12.609 Y10.932
G01 F480 X12.842 Y10.932
G01 F480 X13.070 Y10.980
G01 F480 X13.282 Y11.075
G01 F480 X13.471 Y11.212
G01 F480 X13.626 Y11.385
G01 F480 X13.743 Y11.587
G01 F480 X13.815 Y11.808
G01 F480 X13.839 Y12.040
G01 F480 X13.815 Y12.271
G01 F480 X13.743 Y12.493
G01 F480 X13.626 Y12.694
G01 F480 X13.471 Y12.867
G01 F480 X13.304 Y12.988
G01 F480 X13.285 Y16.396
G01 F480 X13.289 Y16.398
G01 F480 X13.479 Y16.537
G01 F480 X13.637 Y16.712
G01 F480 X13.755 Y16.915
G01 F480 X13.827 Y17.139
G01 F480 X13.852 Y17.374
G01 F480 X13.827 Y17.608
G01 F480 X13.755 Y17.832
G01 F480 X13.637 Y18.036
G01 F480 X13.479 Y18.211
G01 F480 X13.305 Y18.337
G01 F480 X13.305 Y33.951
G01 F480 X13.471 Y34.072
G01 F480 X13.626 Y34.245
G01 F480 X13.743 Y34.447
G01 F480 X13.815 Y34.668
G01 F480 X13.839 Y34.900
G01 F480 X13.815 Y35.131
G01 F480 X13.743 Y35.353
G01 F480 X13.626 Y35.554
G01 F480 X13.471 Y35.727
G01 F480 X13.297 Y35.854
G01 F480 X13.304 Y39.269
G01 F480 X13.479 Y39.397
G01 F480 X13.637 Y39.572
G01 F480 X13.755 Y39.775
G01 F480 X13.827 Y39.999
G01 F480 X13.852 Y40.234
G01 F480 X13.827 Y40.468
G01 F480 X13.755 Y40.692
G01 F480 X13.637 Y40.896
G01 F480 X13.479 Y41.071
G01 F480 X13.289 Y41.209
G01 F480 X13.074 Y41.305
G01 F480 X12.843 Y41.354
G01 F480 X12.608 Y41.354
G01 F480 X12.377 Y41.305
G01 F480 X12.162 Y41.209
G01 F480 X11.972 Y41.071
G01 F480 X11.814 Y40.896
G01 F480 X11.696 Y40.692
G01 F480 X11.624 Y40.468
G01 F480 X11.599 Y40.234
G01 F480 X11.624 Y39.999
G01 F480 X11.696 Y39.775
G01 F480 X11.814 Y39.572
G01 F480 X11.972 Y39.397
G01 F480 X12.146 Y39.270
G01 F480 X12.138 Y35.842
G01 F480 X11.980 Y35.727
G01 F480 X11.824 Y35.554
G01 F480 X11.708 Y35.353
G01 F480 X11.636 Y35.131
G01 F480 X11.612 Y34.900
G01 F480 X11.636 Y34.668
G01 F480 X11.708 Y34.447
G01 F480 X11.824 Y34.245
G01 F480 X11.980 Y34.072
G01 F480 X12.134 Y33.960
G01 F480 X12.122 Y28.162
G01 F480 X7.888 Y28.162
G01 F480 X5.710 Y30.362
G01 F480 X5.710 Y52.745
G01 F480 X7.358 Y54.394
G01 F480 X7.528 Y54.358
G01 F480 X7.763 Y54.358
G01 F480 X7.992 Y54.406
G01 F480 X8.207 Y54.502
G01 F480 X8.396 Y54.640
G01 F480 X8.553 Y54.814
G01 F480 X8.671 Y55.017
G01 F480 X8.743 Y55.240
G01 F480 X8.768 Y55.474
G01 F480 X8.743 Y55.707
G01 F480 X8.671 Y55.930
G01 F480 X8.553 Y56.133
G01 F480 X8.396 Y56.308
G01 F480 X8.207 Y56.446
G01 F480 X7.992 Y56.541
G01 F480 X7.763 Y56.590
G01 F480 X7.528 Y56.590
G00 F3000 Z3.000
G00 F3000 X40.548 Y56.590
G00 F1500 Z0
G01 F480 Z-0.200
G01 F480 X40.319 Y56.541
G01 F480 X40.104 Y56.446
G01 F480 X39.915 Y56.308
G01 F480 X39.758 Y56.133
G01 F480 X39.640 Y55.930
G01 F480 X39.568 Y55.707
G01 F480 X39.543 Y55.474
G01 F480 X39.568 Y55.240
G01 F480 X39.640 Y55.017
G01 F480 X39.758 Y54.814
G01 F480 X39.915 Y54.640
G01 F480 X40.104 Y54.502
G01 F480 X40.319 Y54.406
G01 F480 X40.548 Y54.358
G01 F480 X40.783 Y54.358
G01 F480 X41.012 Y54.406
G01 F480 X41.227 Y54.502
G01 F480 X41.416 Y54.640
G01 F480 X41.573 Y54.814
G01 F480 X41.691 Y55.017
G01 F480 X41.763 Y55.240
G01 F480 X41.788 Y55.474
G01 F480 X41.763 Y55.707
G01 F480 X41.691 Y55.930
G01 F480 X41.573 Y56.133
G01 F480 X41.416 Y56.308
G01 F480 X41.227 Y56.446
G01 F480 X41.012 Y56.541
G01 F480 X40.783 Y56.590
G01 F480 X40.548 Y56.590
G00 F3000 Z3.000
G00 F3000 X43.088 Y56.590
G00 F1500 Z0
G01 F480 Z-0.200
G01 F480 X42.859 Y56.541
G01 F480 X42.644 Y56.446
G01 F480 X42.455 Y56.308
G01 F480 X42.297 Y56.133
G01 F480 X42.180 Y55.930
G01 F480 X42.108 Y55.707
G01 F480 X42.083 Y55.474
G01 F480 X42.108 Y55.240
G01 F480 X42.113 Y55.225
G01 F480 X37.859 Y50.971
G01 F480 X35.499 Y50.971
G01 F480 X35.381 Y50.946
G01 F480 X35.270 Y50.896
G01 F480 X35.175 Y50.827
G01 F480 X33.206 Y48.833
G01 F480 X33.178 Y48.801
G01 F480 X32.072 Y48.801
G01 F480 X32.072 Y48.410
G01 F480 X30.549 Y48.431
G01 F480 X30.445 Y48.431
G01 F480 X30.326 Y48.406
G01 F480 X30.215 Y48.356
G01 F480 X30.121 Y48.288
G01 F480 X27.543 Y45.761
G01 F480 X27.471 Y45.680
G01 F480 X27.410 Y45.575
G01 F480 X27.372 Y45.460
G01 F480 X27.360 Y45.339
G01 F480 X27.372 Y45.218
G01 F480 X27.386 Y45.176
G01 F480 X27.386 Y40.365
G01 F480 X25.292 Y36.004
G01 F480 X25.081 Y35.959
G01 F480 X24.869 Y35.864
G01 F480 X24.680 Y35.727
G01 F480 X24.524 Y35.554
G01 F480 X24.408 Y35.353
G01 F480 X24.336 Y35.131
G01 F480 X24.312 Y34.900
G01 F480 X24.336 Y34.668
G01 F480 X24.408 Y34.447
G01 F480 X24.524 Y34.245
G01 F480 X24.680 Y34.072
G01 F480 X24.869 Y33.935
G01 F480 X25.081 Y33.840
G01 F480 X25.309 Y33.792
G01 F480 X25.542 Y33.792
G01 F480 X25.770 Y33.840
G01 F480 X25.982 Y33.935
G01 F480 X26.171 Y34.072
G01 F480 X26.326 Y34.245
G01 F480 X26.443 Y34.447
G01 F480 X26.515 Y34.668
G01 F480 X26.539 Y34.900
G01 F480 X26.515 Y35.131
G01 F480 X26.443 Y35.353
G01 F480 X26.345 Y35.522
G01 F480 X28.498 Y40.004
G01 F480 X28.533 Y40.113
G01 F480 X28.545 Y40.224
G01 F480 X28.545 Y45.121
G01 F480 X30.740 Y47.273
G01 F480 X32.072 Y47.254
G01 F480 X32.072 Y46.855
G01 F480 X34.018 Y46.855
G01 F480 X34.018 Y48.008
G01 F480 X35.803 Y49.816
G01 F480 X38.161 Y49.816
G01 F480 X38.279 Y49.842
G01 F480 X38.390 Y49.891
G01 F480 X38.485 Y49.960
G01 F480 X42.918 Y54.394
G01 F480 X43.088 Y54.358
G01 F480 X43.323 Y54.358
G01 F480 X43.552 Y54.406
G01 F480 X43.767 Y54.502
G01 F480 X43.956 Y54.640
G01 F480 X44.113 Y54.814
G01 F480 X44.231 Y55.017
G01 F480 X44.303 Y55.240
G01 F480 X44.328 Y55.474
G01 F480 X44.303 Y55.707
G01 F480 X44.231 Y55.930
G01 F480 X44.113 Y56.133
G01 F480 X43.956 Y56.308
G01 F480 X43.767 Y56.446
G01 F480 X43.552 Y56.541
G01 F480 X43.323 Y56.590
G01 F480 X43.088 Y56.590
G00 F3000 Z3.000
G00 F3000 X35.468 Y56.590
G00 F1500 Z0
G01 F480 Z-0.200
G01 F480 X35.239 Y56.541
G01 F480 X35.024 Y56.446
G01 F480 X34.834 Y56.308
G01 F480 X34.678 Y56.133
G01 F480 X34.560 Y55.930
G01 F480 X34.488 Y55.707
G01 F480 X34.463 Y55.474
G01 F480 X34.488 Y55.240
G01 F480 X34.560 Y55.017
G01 F480 X34.678 Y54.814
G01 F480 X34.834 Y54.640
G01 F480 X35.024 Y54.502
G01 F480 X35.239 Y54.406
G01 F480 X35.468 Y54.358
G01 F480 X35.703 Y54.358
G01 F480 X35.932 Y54.406
G01 F480 X36.147 Y54.502
G01 F480 X36.336 Y54.640
G01 F480 X36.493 Y54.814
G01 F480 X36.611 Y55.017
G01 F480 X36.683 Y55.240
G01 F480 X36.708 Y55.474
G01 F480 X36.683 Y55.707
G01 F480 X36.611 Y55.930
G01 F480 X36.493 Y56.133
G01 F480 X36.336 Y56.308
G01 F480 X36.147 Y56.446
G01 F480 X35.932 Y56.541
G01 F480 X35.703 Y56.590
G01 F480 X35.468 Y56.590
G00 F3000 Z3.000
G00 F3000 X38.008 Y56.590
G00 F1500 Z0
G01 F480 Z-0.200
G01 F480 X37.779 Y56.541
G01 F480 X37.564 Y56.446
G01 F480 X37.375 Y56.308
G01 F480 X37.218 Y56.133
G01 F480 X37.100 Y55.930
G01 F480 X37.028 Y55.707
G01 F480 X37.003 Y55.474
G01 F480 X37.028 Y55.240
G01 F480 X37.033 Y55.225
G01 F480 X32.803 Y50.971
G01 F480 X31.472 Y50.971
G01 F480 X31.421 Y51.059
G01 F480 X31.263 Y51.235
G01 F480 X31.071 Y51.374
G01 F480 X30.855 Y51.470
G01 F480 X30.624 Y51.519
G01 F480 X30.387 Y51.519
G01 F480 X30.156 Y51.470
G01 F480 X29.939 Y51.374
G01 F480 X29.748 Y51.235
G01 F480 X29.590 Y51.059
G01 F480 X29.471 Y50.854
G01 F480 X29.398 Y50.629
G01 F480 X29.373 Y50.394
G01 F480 X29.398 Y50.158
G01 F480 X29.471 Y49.933
G01 F480 X29.590 Y49.728
G01 F480 X29.748 Y49.552
G01 F480 X29.939 Y49.413
G01 F480 X30.156 Y49.317
G01 F480 X30.387 Y49.268
G01 F480 X30.624 Y49.268
G01 F480 X30.855 Y49.317
G01 F480 X31.071 Y49.413
G01 F480 X31.263 Y49.552
G01 F480 X31.421 Y49.728
G01 F480 X31.472 Y49.816
G01 F480 X33.106 Y49.816
G01 F480 X33.225 Y49.842
G01 F480 X33.336 Y49.891
G01 F480 X33.431 Y49.960
G01 F480 X37.839 Y54.394
G01 F480 X38.008 Y54.358
G01 F480 X38.243 Y54.358
G01 F480 X38.472 Y54.406
G01 F480 X38.687 Y54.502
G01 F480 X38.876 Y54.640
G01 F480 X39.033 Y54.814
G01 F480 X39.151 Y55.017
G01 F480 X39.223 Y55.240
G01 F480 X39.248 Y55.474
G01 F480 X39.223 Y55.707
G01 F480 X39.151 Y55.930
G01 F480 X39.033 Y56.133
G01 F480 X38.876 Y56.308
G01 F480 X38.687 Y56.446
G01 F480 X38.472 Y56.541
G01 F480 X38.243 Y56.590
G01 F480 X38.008 Y56.590
G00 F3000 Z3.000
G00 F3000 X50.708 Y56.590
G00 F1500 Z0
G01 F480 Z-0.200
G01 F480 X50.479 Y56.541
G01 F480 X50.264 Y56.446
G01 F480 X50.075 Y56.308
G01 F480 X49.918 Y56.133
G01 F480 X49.800 Y55.930
G01 F480 X49.728 Y55.707
G01 F480 X49.703 Y55.474
G01 F480 X49.728 Y55.240
G01 F480 X49.800 Y55.017
G01 F480 X49.918 Y54.814
G01 F480 X50.075 Y54.640
G01 F480 X50.264 Y54.502
G01 F480 X50.479 Y54.406
G01 F480 X50.708 Y54.358
G01 F480 X50.943 Y54.358
G01 F480 X51.172 Y54.406
G01 F480 X51.387 Y54.502
G01 F480 X51.576 Y54.640
G01 F480 X51.733 Y54.814
G01 F480 X51.851 Y55.017
G01 F480 X51.923 Y55.240
G01 F480 X51.948 Y55.474
G01 F480 X51.923 Y55.707
G01 F480 X51.851 Y55.930
G01 F480 X51.733 Y56.133
G01 F480 X51.576 Y56.308
G01 F480 X51.387 Y56.446
G01 F480 X51.172 Y56.541
G01 F480 X50.943 Y56.590
G01 F480 X50.708 Y56.590
G00 F3000 Z3.000
G00 F3000 X53.248 Y56.590
G00 F1500 Z0
G01 F480 Z-0.200
G01 F480 X53.019 Y56.541
G01 F480 X52.804 Y56.446
G01 F480 X52.614 Y56.308
G01 F480 X52.458 Y56.133
G01 F480 X52.340 Y55.930
G01 F480 X52.268 Y55.707
G01 F480 X52.243 Y55.474
G01 F480 X52.268 Y55.240
G01 F480 X52.273 Y55.225
G01 F480 X50.559 Y53.511
G01 F480 X43.145 Y53.511
G01 F480 X43.026 Y53.486
G01 F480 X42.915 Y53.436
G01 F480 X42.821 Y53.368
G01 F480 X38.366 Y48.953
G01 F480 X38.244 Y48.979
G01 F480 X38.007 Y48.979
G01 F480 X37.776 Y48.930
G01 F480 X37.559 Y48.834
G01 F480 X37.368 Y48.695
G01 F480 X37.210 Y48.519
G01 F480 X37.091 Y48.314
G01 F480 X37.018 Y48.089
G01 F480 X36.993 Y47.854
G01 F480 X37.018 Y47.618
G01 F480 X37.091 Y47.393
G01 F480 X37.210 Y47.188
G01 F480 X37.368 Y47.012
G01 F480 X37.559 Y46.873
G01 F480 X37.776 Y46.777
G01 F480 X38.007 Y46.728
G01 F480 X38.244 Y46.728
G01 F480 X38.475 Y46.777
G01 F480 X38.691 Y46.873
G01 F480 X38.883 Y47.012
G01 F480 X39.041 Y47.188
G01 F480 X39.160 Y47.393
G01 F480 X39.233 Y47.618
G01 F480 X39.257 Y47.854
G01 F480 X39.233 Y48.089
G01 F480 X39.214 Y48.148
G01 F480 X43.446 Y52.356
G01 F480 X50.861 Y52.356
G01 F480 X50.979 Y52.382
G01 F480 X51.090 Y52.431
G01 F480 X51.185 Y52.500
G01 F480 X53.078 Y54.394
G01 F480 X53.248 Y54.358
G01 F480 X53.483 Y54.358
G01 F480 X53.634 Y54.390
G01 F480 X55.547 Y52.549
G01 F480 X55.641 Y52.482
G01 F480 X55.752 Y52.433
G01 F480 X55.870 Y52.407
G01 F480 X58.198 Y52.407
G01 F480 X60.405 Y50.112
G01 F480 X60.381 Y40.450
G01 F480 X58.026 Y38.118
G01 F480 X56.140 Y36.236
G01 F480 X56.022 Y36.261
G01 F480 X55.789 Y36.261
G01 F480 X55.561 Y36.213
G01 F480 X55.349 Y36.118
G01 F480 X55.160 Y35.981
G01 F480 X55.004 Y35.808
G01 F480 X54.888 Y35.607
G01 F480 X54.816 Y35.385
G01 F480 X54.792 Y35.154
G01 F480 X54.816 Y34.922
G01 F480 X54.888 Y34.701
G01 F480 X55.004 Y34.499
G01 F480 X55.160 Y34.326
G01 F480 X55.349 Y34.189
G01 F480 X55.561 Y34.094
G01 F480 X55.789 Y34.046
G01 F480 X56.024 Y34.046
G01 F480 X56.163 Y34.079
G01 F480 X58.025 Y32.241
G01 F480 X60.381 Y29.815
G01 F480 X60.381 Y12.893
G01 F480 X56.851 Y12.872
G01 F480 X56.806 Y12.948
G01 F480 X56.651 Y13.121
G01 F480 X56.462 Y13.258
G01 F480 X56.250 Y13.353
G01 F480 X56.022 Y13.401
G01 F480 X55.789 Y13.401
G01 F480 X55.561 Y13.353
G01 F480 X55.349 Y13.258
G01 F480 X55.160 Y13.121
G01 F480 X55.004 Y12.948
G01 F480 X54.888 Y12.747
G01 F480 X54.816 Y12.525
G01 F480 X54.792 Y12.294
G01 F480 X54.816 Y12.062
G01 F480 X54.888 Y11.841
G01 F480 X55.004 Y11.639
G01 F480 X55.160 Y11.466
G01 F480 X55.328 Y11.344
G01 F480 X55.348 Y10.015
G01 F480 X53.149 Y7.816
G01 F480 X40.906 Y7.791
G01 F480 X38.679 Y10.018
G01 F480 X38.679 Y11.328
G01 F480 X38.682 Y11.329
G01 F480 X38.871 Y11.466
G01 F480 X39.026 Y11.639
G01 F480 X39.143 Y11.841
G01 F480 X39.215 Y12.062
G01 F480 X39.239 Y12.294
G01 F480 X39.215 Y12.525
G01 F480 X39.143 Y12.747
G01 F480 X39.026 Y12.948
G01 F480 X38.871 Y13.121
G01 F480 X38.682 Y13.258
G01 F480 X38.470 Y13.353
G01 F480 X38.242 Y13.401
G01 F480 X38.009 Y13.401
G01 F480 X37.781 Y13.353
G01 F480 X37.569 Y13.258
G01 F480 X37.380 Y13.121
G01 F480 X37.224 Y12.948
G01 F480 X37.108 Y12.747
G01 F480 X37.036 Y12.525
G01 F480 X37.012 Y12.294
G01 F480 X37.036 Y12.062
G01 F480 X37.108 Y11.841
G01 F480 X37.224 Y11.639
G01 F480 X37.380 Y11.466
G01 F480 X37.521 Y11.364
G01 F480 X37.521 Y9.770
G01 F480 X37.532 Y9.658
G01 F480 X37.570 Y9.543
G01 F480 X37.631 Y9.438
G01 F480 X37.703 Y9.358
G01 F480 X40.281 Y6.780
G01 F480 X40.375 Y6.711
G01 F480 X40.486 Y6.662
G01 F480 X40.605 Y6.636
G01 F480 X40.708 Y6.636
G01 F480 X53.452 Y6.662
G01 F480 X53.570 Y6.687
G01 F480 X53.681 Y6.736
G01 F480 X53.775 Y6.805
G01 F480 X56.328 Y9.358
G01 F480 X56.400 Y9.438
G01 F480 X56.461 Y9.543
G01 F480 X56.498 Y9.658
G01 F480 X56.510 Y9.771
G01 F480 X56.487 Y11.347
G01 F480 X56.651 Y11.466
G01 F480 X56.806 Y11.639
G01 F480 X56.852 Y11.717
G01 F480 X60.381 Y11.738
G01 F480 X60.381 Y10.016
G01 F480 X55.663 Y5.251
G01 F480 X25.712 Y5.251
G01 F480 X21.350 Y11.818
G01 F480 X21.363 Y11.841
G01 F480 X21.435 Y12.062
G01 F480 X21.459 Y12.294
G01 F480 X21.435 Y12.525
G01 F480 X21.363 Y12.747
G01 F480 X21.246 Y12.948
G01 F480 X21.091 Y13.121
G01 F480 X20.902 Y13.258
G01 F480 X20.690 Y13.353
G01 F480 X20.462 Y13.401
G01 F480 X20.229 Y13.401
G01 F480 X20.001 Y13.353
G01 F480 X19.789 Y13.258
G01 F480 X19.600 Y13.121
G01 F480 X19.444 Y12.948
G01 F480 X19.328 Y12.747
G01 F480 X19.256 Y12.525
G01 F480 X19.232 Y12.294
G01 F480 X19.256 Y12.062
G01 F480 X19.328 Y11.841
G01 F480 X19.444 Y11.639
G01 F480 X19.600 Y11.466
G01 F480 X19.789 Y11.329
G01 F480 X20.001 Y11.234
G01 F480 X20.229 Y11.186
G01 F480 X20.379 Y11.186
G01 F480 X24.934 Y4.328
G01 F480 X25.012 Y4.242
G01 F480 X25.110 Y4.171
G01 F480 X25.221 Y4.122
G01 F480 X25.339 Y4.096
G01 F480 X55.966 Y4.096
G01 F480 X56.085 Y4.122
G01 F480 X56.196 Y4.171
G01 F480 X56.290 Y4.240
G01 F480 X61.358 Y9.358
G01 F480 X61.430 Y9.438
G01 F480 X61.490 Y9.543
G01 F480 X61.528 Y9.658
G01 F480 X61.539 Y9.770
G01 F480 X61.539 Y30.057
G01 F480 X61.528 Y30.169
G01 F480 X61.490 Y30.284
G01 F480 X61.430 Y30.389
G01 F480 X61.358 Y30.468
G01 F480 X58.815 Y33.088
G01 F480 X56.986 Y34.894
G01 F480 X56.995 Y34.922
G01 F480 X57.019 Y35.154
G01 F480 X56.995 Y35.385
G01 F480 X56.985 Y35.416
G01 F480 X58.814 Y37.269
G01 F480 X61.357 Y39.787
G01 F480 X61.430 Y39.867
G01 F480 X61.490 Y39.972
G01 F480 X61.528 Y40.087
G01 F480 X61.539 Y40.199
G01 F480 X61.565 Y50.352
G01 F480 X61.553 Y50.464
G01 F480 X61.516 Y50.579
G01 F480 X61.455 Y50.684
G01 F480 X61.384 Y50.763
G01 F480 X58.831 Y53.417
G01 F480 X58.736 Y53.487
G01 F480 X58.625 Y53.536
G01 F480 X58.506 Y53.562
G01 F480 X56.166 Y53.562
G01 F480 X54.453 Y55.209
G01 F480 X54.463 Y55.240
G01 F480 X54.488 Y55.474
G01 F480 X54.463 Y55.707
G01 F480 X54.391 Y55.930
G01 F480 X54.273 Y56.133
G01 F480 X54.116 Y56.308
G01 F480 X53.927 Y56.446
G01 F480 X53.712 Y56.541
G01 F480 X53.483 Y56.590
G01 F480 X53.248 Y56.590
G00 F3000 Z3.000
G00 F3000 X48.168 Y56.590
G00 F1500 Z0
G01 F480 Z-0.200
G01 F480 X47.939 Y56.541
G01 F480 X47.724 Y56.446
G01 F480 X47.535 Y56.308
G01 F480 X47.378 Y56.133
G01 F480 X47.260 Y55.930
G01 F480 X47.188 Y55.707
G01 F480 X47.163 Y55.474
G01 F480 X47.188 Y55.240
G01 F480 X47.260 Y55.017
G01 F480 X47.378 Y54.814
G01 F480 X47.535 Y54.640
G01 F480 X47.724 Y54.502
G01 F480 X47.939 Y54.406
G01 F480 X48.168 Y54.358
G01 F480 X48.403 Y54.358
G01 F480 X48.632 Y54.406
G01 F480 X48.846 Y54.502
G01 F480 X49.036 Y54.640
G01 F480 X49.193 Y54.814
G01 F480 X49.311 Y55.017
G01 F480 X49.383 Y55.240
G01 F480 X49.408 Y55.474
G01 F480 X49.383 Y55.707
G01 F480 X49.311 Y55.930
G01 F480 X49.193 Y56.133
G01 F480 X49.036 Y56.308
G01 F480 X48.846 Y56.446
G01 F480 X48.632 Y56.541
G01 F480 X48.403 Y56.590
G01 F480 X48.168 Y56.590
G00 F3000 Z3.000
G00 F3000 X20.228 Y56.590
G00 F1500 Z0
G01 F480 Z-0.200
G01 F480 X19.999 Y56.541
G01 F480 X19.784 Y56.446
G01 F480 X19.595 Y56.308
G01 F480 X19.438 Y56.133
G01 F480 X19.320 Y55.930
G01 F480 X19.248 Y55.707
G01 F480 X19.223 Y55.474
G01 F480 X19.248 Y55.240
G01 F480 X19.320 Y55.017
G01 F480 X19.438 Y54.814
G01 F480 X19.595 Y54.640
G01 F480 X19.784 Y54.502
G01 F480 X19.999 Y54.406
G01 F480 X20.228 Y54.358
G01 F480 X20.463 Y54.358
G01 F480 X20.692 Y54.406
G01 F480 X20.907 Y54.502
G01 F480 X21.096 Y54.640
G01 F480 X21.253 Y54.814
G01 F480 X21.371 Y55.017
G01 F480 X21.443 Y55.240
G01 F480 X21.468 Y55.474
G01 F480 X21.443 Y55.707
G01 F480 X21.371 Y55.930
G01 F480 X21.253 Y56.133
G01 F480 X21.096 Y56.308
G01 F480 X20.907 Y56.446
G01 F480 X20.692 Y56.541
G01 F480 X20.463 Y56.590
G01 F480 X20.228 Y56.590
G00 F3000 Z3.000
G00 F3000 X22.768 Y56.590
G00 F1500 Z0
G01 F480 Z-0.200
G01 F480 X22.539 Y56.541
G01 F480 X22.324 Y56.446
G01 F480 X22.135 Y56.308
G01 F480 X21.978 Y56.133
G01 F480 X21.860 Y55.930
G01 F480 X21.788 Y55.707
G01 F480 X21.763 Y55.474
G01 F480 X21.788 Y55.240
G01 F480 X21.860 Y55.017
G01 F480 X21.978 Y54.814
G01 F480 X22.135 Y54.640
G01 F480 X22.324 Y54.502
G01 F480 X22.539 Y54.406
G01 F480 X22.768 Y54.358
G01 F480 X23.003 Y54.358
G01 F480 X23.232 Y54.406
G01 F480 X23.447 Y54.502
G01 F480 X23.636 Y54.640
G01 F480 X23.793 Y54.814
G01 F480 X23.911 Y55.017
G01 F480 X23.983 Y55.240
G01 F480 X24.008 Y55.474
G01 F480 X23.983 Y55.707
G01 F480 X23.911 Y55.930
G01 F480 X23.793 Y56.133
G01 F480 X23.636 Y56.308
G01 F480 X23.447 Y56.446
G01 F480 X23.232 Y56.541
G01 F480 X23.003 Y56.590
G01 F480 X22.768 Y56.590
G00 F3000 Z3.000
G00 F3000 X17.688 Y56.590
G00 F1500 Z0
G01 F480 Z-0.200
G01 F480 X17.459 Y56.541
G01 F480 X17.244 Y56.446
G01 F480 X17.055 Y56.308
G01 F480 X16.898 Y56.133
G01 F480 X16.780 Y55.930
G01 F480 X16.708 Y55.707
G01 F480 X16.683 Y55.474
G01 F480 X16.708 Y55.240
G01 F480 X16.780 Y55.017
G01 F480 X16.898 Y54.814
G01 F480 X17.055 Y54.640
G01 F480 X17.244 Y54.502
G01 F480 X17.459 Y54.406
G01 F480 X17.688 Y54.358
G01 F480 X17.923 Y54.358
G01 F480 X18.152 Y54.406
G01 F480 X18.367 Y54.502
G01 F480 X18.556 Y54.640
G01 F480 X18.713 Y54.814
G01 F480 X18.831 Y55.017
G01 F480 X18.903 Y55.240
G01 F480 X18.928 Y55.474
G01 F480 X18.903 Y55.707
G01 F480 X18.831 Y55.930
G01 F480 X18.713 Y56.133
G01 F480 X18.556 Y56.308
G01 F480 X18.367 Y56.446
G01 F480 X18.152 Y56.541
G01 F480 X17.923 Y56.590
G01 F480 X17.688 Y56.590
G00 F3000 Z3.000
G00 F3000 X25.308 Y56.590
G00 F1500 Z0
G01 F480 Z-0.200
G01 F480 X25.079 Y56.541
G01 F480 X24.864 Y56.446
G01 F480 X24.675 Y56.308
G01 F480 X24.518 Y56.133
G01 F480 X24.400 Y55.930
G01 F480 X24.328 Y55.707
G01 F480 X24.303 Y55.474
G01 F480 X24.328 Y55.240
G01 F480 X24.400 Y55.017
G01 F480 X24.518 Y54.814
G01 F480 X24.675 Y54.640
G01 F480 X24.864 Y54.502
G01 F480 X25.079 Y54.406
G01 F480 X25.308 Y54.358
G01 F480 X25.543 Y54.358
G01 F480 X25.772 Y54.406
G01 F480 X25.986 Y54.502
G01 F480 X26.176 Y54.640
G01 F480 X26.333 Y54.814
G01 F480 X26.451 Y55.017
G01 F480 X26.523 Y55.240
G01 F480 X26.548 Y55.474
G01 F480 X26.523 Y55.707
G01 F480 X26.451 Y55.930
G01 F480 X26.333 Y56.133
G01 F480 X26.176 Y56.308
G01 F480 X25.986 Y56.446
G01 F480 X25.772 Y56.541
G01 F480 X25.543 Y56.590
G01 F480 X25.308 Y56.590
G00 F3000 Z3.000
G00 F3000 X55.788 Y56.590
G00 F1500 Z0
G01 F480 Z-0.200
G01 F480 X55.559 Y56.541
G01 F480 X55.344 Y56.446
G01 F480 X55.155 Y56.308
G01 F480 X54.998 Y56.133
G01 F480 X54.880 Y55.930
G01 F480 X54.808 Y55.707
G01 F480 X54.783 Y55.474
G01 F480 X54.808 Y55.240
G01 F480 X54.880 Y55.017
G01 F480 X54.998 Y54.814
G01 F480 X55.155 Y54.640
G01 F480 X55.344 Y54.502
G01 F480 X55.559 Y54.406
G01 F480 X55.788 Y54.358
G01 F480 X56.023 Y54.358
G01 F480 X56.252 Y54.406
G01 F480 X56.467 Y54.502
G01 F480 X56.656 Y54.640
G01 F480 X56.813 Y54.814
G01 F480 X56.931 Y55.017
G01 F480 X57.003 Y55.240
G01 F480 X57.028 Y55.474
G01 F480 X57.003 Y55.707
G01 F480 X56.931 Y55.930
G01 F480 X56.813 Y56.133
G01 F480 X56.656 Y56.308
G01 F480 X56.467 Y56.446
G01 F480 X56.252 Y56.541
G01 F480 X56.023 Y56.590
G01 F480 X55.788 Y56.590
G00 F3000 Z3.000
G00 F3000 X49.852 Y48.801
G00 F1500 Z0
G01 F480 Z-0.200
G01 F480 X49.852 Y48.405
G01 F480 X45.634 Y48.405
G01 F480 X45.515 Y48.380
G01 F480 X45.404 Y48.331
G01 F480 X45.310 Y48.262
G01 F480 X42.782 Y45.709
G01 F480 X42.711 Y45.629
G01 F480 X42.650 Y45.524
G01 F480 X42.612 Y45.409
G01 F480 X42.601 Y45.297
G01 F480 X42.626 Y35.848
G01 F480 X42.460 Y35.727
G01 F480 X42.304 Y35.554
G01 F480 X42.188 Y35.353
G01 F480 X42.116 Y35.131
G01 F480 X42.092 Y34.900
G01 F480 X42.116 Y34.668
G01 F480 X42.188 Y34.447
G01 F480 X42.304 Y34.245
G01 F480 X42.460 Y34.072
G01 F480 X42.648 Y33.935
G01 F480 X42.861 Y33.840
G01 F480 X43.089 Y33.792
G01 F480 X43.322 Y33.792
G01 F480 X43.550 Y33.840
G01 F480 X43.762 Y33.935
G01 F480 X43.951 Y34.072
G01 F480 X44.106 Y34.245
G01 F480 X44.223 Y34.447
G01 F480 X44.295 Y34.668
G01 F480 X44.319 Y34.900
G01 F480 X44.295 Y35.131
G01 F480 X44.223 Y35.353
G01 F480 X44.106 Y35.554
G01 F480 X43.951 Y35.727
G01 F480 X43.784 Y35.848
G01 F480 X43.760 Y45.052
G01 F480 X45.938 Y47.251
G01 F480 X49.852 Y47.251
G01 F480 X49.852 Y46.855
G01 F480 X51.798 Y46.855
G01 F480 X51.798 Y48.801
G01 F480 X49.852 Y48.801
G00 F3000 Z3.000
G00 F3000 X14.292 Y48.801
G00 F1500 Z0
G01 F480 Z-0.200
G01 F480 X14.292 Y46.855
G01 F480 X16.238 Y46.855
G01 F480 X16.238 Y48.801
G01 F480 X14.292 Y48.801
G00 F3000 Z3.000
G00 F3000 X32.944 Y46.282
G00 F1500 Z0
G01 F480 Z-0.200
G01 F480 X32.744 Y46.240
G01 F480 X32.558 Y46.157
G01 F480 X32.394 Y46.037
G01 F480 X32.258 Y45.886
G01 F480 X32.156 Y45.710
G01 F480 X32.093 Y45.516
G01 F480 X32.071 Y45.314
G01 F480 X32.093 Y45.111
G01 F480 X32.156 Y44.918
G01 F480 X32.258 Y44.741
G01 F480 X32.394 Y44.590
G01 F480 X32.558 Y44.470
G01 F480 X32.744 Y44.387
G01 F480 X32.944 Y44.345
G01 F480 X33.147 Y44.345
G01 F480 X33.346 Y44.387
G01 F480 X33.532 Y44.470
G01 F480 X33.697 Y44.590
G01 F480 X33.828 Y44.735
G01 F480 X37.858 Y44.712
G01 F480 X40.061 Y42.509
G01 F480 X40.061 Y41.179
G01 F480 X39.912 Y41.071
G01 F480 X39.754 Y40.896
G01 F480 X39.636 Y40.692
G01 F480 X39.564 Y40.468
G01 F480 X39.539 Y40.236
G01 F480 X39.551 Y40.081
G01 F480 X39.526 Y40.038
G01 F480 X39.488 Y39.922
G01 F480 X39.475 Y39.802
G01 F480 X39.488 Y39.681
G01 F480 X39.526 Y39.566
G01 F480 X39.586 Y39.461
G01 F480 X39.668 Y39.370
G01 F480 X39.766 Y39.299
G01 F480 X39.877 Y39.250
G01 F480 X39.995 Y39.225
G01 F480 X40.109 Y39.225
G01 F480 X40.163 Y39.231
G01 F480 X40.317 Y39.162
G01 F480 X40.548 Y39.113
G01 F480 X40.783 Y39.113
G01 F480 X41.014 Y39.162
G01 F480 X41.229 Y39.258
G01 F480 X41.419 Y39.397
G01 F480 X41.577 Y39.572
G01 F480 X41.695 Y39.775
G01 F480 X41.767 Y39.999
G01 F480 X41.792 Y40.234
G01 F480 X41.767 Y40.468
G01 F480 X41.695 Y40.692
G01 F480 X41.577 Y40.896
G01 F480 X41.419 Y41.071
G01 F480 X41.229 Y41.209
G01 F480 X41.219 Y41.213
G01 F480 X41.219 Y42.757
G01 F480 X41.208 Y42.869
G01 F480 X41.170 Y42.984
G01 F480 X41.110 Y43.089
G01 F480 X41.038 Y43.169
G01 F480 X38.485 Y45.722
G01 F480 X38.390 Y45.791
G01 F480 X38.279 Y45.840
G01 F480 X38.161 Y45.865
G01 F480 X33.830 Y45.890
G01 F480 X33.697 Y46.037
G01 F480 X33.532 Y46.157
G01 F480 X33.346 Y46.240
G01 F480 X33.147 Y46.282
G01 F480 X32.944 Y46.282
G00 F3000 Z3.000
G00 F3000 X50.724 Y46.282
G00 F1500 Z0
G01 F480 Z-0.200
G01 F480 X50.524 Y46.240
G01 F480 X50.338 Y46.157
G01 F480 X50.174 Y46.037
G01 F480 X50.038 Y45.886
G01 F480 X49.936 Y45.710
G01 F480 X49.873 Y45.516
G01 F480 X49.851 Y45.314
G01 F480 X49.873 Y45.111
G01 F480 X49.936 Y44.918
G01 F480 X50.038 Y44.741
G01 F480 X50.174 Y44.590
G01 F480 X50.338 Y44.470
G01 F480 X50.524 Y44.387
G01 F480 X50.724 Y44.345
G01 F480 X50.927 Y44.345
G01 F480 X51.126 Y44.387
G01 F480 X51.187 Y44.414
G01 F480 X51.205 Y44.406
G01 F480 X51.324 Y44.381
G01 F480 X51.445 Y44.381
G01 F480 X51.564 Y44.406
G01 F480 X51.674 Y44.455
G01 F480 X51.773 Y44.527
G01 F480 X51.854 Y44.617
G01 F480 X51.908 Y44.711
G01 F480 X55.688 Y44.711
G01 F480 X57.866 Y42.511
G01 F480 X57.866 Y41.197
G01 F480 X57.692 Y41.071
G01 F480 X57.534 Y40.896
G01 F480 X57.416 Y40.692
G01 F480 X57.344 Y40.468
G01 F480 X57.319 Y40.234
G01 F480 X57.344 Y39.999
G01 F480 X57.416 Y39.775
G01 F480 X57.534 Y39.572
G01 F480 X57.692 Y39.397
G01 F480 X57.882 Y39.258
G01 F480 X58.097 Y39.162
G01 F480 X58.328 Y39.113
G01 F480 X58.563 Y39.113
G01 F480 X58.794 Y39.162
G01 F480 X59.009 Y39.258
G01 F480 X59.199 Y39.397
G01 F480 X59.357 Y39.572
G01 F480 X59.475 Y39.775
G01 F480 X59.547 Y39.999
G01 F480 X59.572 Y40.234
G01 F480 X59.547 Y40.468
G01 F480 X59.475 Y40.692
G01 F480 X59.357 Y40.896
G01 F480 X59.199 Y41.071
G01 F480 X59.025 Y41.197
G01 F480 X59.025 Y42.757
G01 F480 X59.013 Y42.869
G01 F480 X58.976 Y42.984
G01 F480 X58.915 Y43.089
G01 F480 X58.843 Y43.169
G01 F480 X56.316 Y45.722
G01 F480 X56.221 Y45.791
G01 F480 X56.110 Y45.840
G01 F480 X55.992 Y45.865
G01 F480 X51.625 Y45.865
G01 F480 X51.613 Y45.886
G01 F480 X51.477 Y46.037
G01 F480 X51.312 Y46.157
G01 F480 X51.126 Y46.240
G01 F480 X50.927 Y46.282
G01 F480 X50.724 Y46.282
G00 F3000 Z3.000
G00 F3000 X15.164 Y46.282
G00 F1500 Z0
G01 F480 Z-0.200
G01 F480 X14.964 Y46.240
G01 F480 X14.778 Y46.157
G01 F480 X14.614 Y46.037
G01 F480 X14.478 Y45.886
G01 F480 X14.376 Y45.710
G01 F480 X14.313 Y45.516
G01 F480 X14.291 Y45.314
G01 F480 X14.313 Y45.111
G01 F480 X14.376 Y44.918
G01 F480 X14.478 Y44.741
G01 F480 X14.614 Y44.590
G01 F480 X14.778 Y44.470
G01 F480 X14.964 Y44.387
G01 F480 X15.164 Y44.345
G01 F480 X15.367 Y44.345
G01 F480 X15.566 Y44.387
G01 F480 X15.752 Y44.470
G01 F480 X15.917 Y44.590
G01 F480 X16.048 Y44.735
G01 F480 X20.052 Y44.712
G01 F480 X22.254 Y42.510
G01 F480 X22.237 Y41.147
G01 F480 X22.132 Y41.071
G01 F480 X21.974 Y40.896
G01 F480 X21.856 Y40.691
G01 F480 X21.804 Y40.526
G01 F480 X21.786 Y40.513
G01 F480 X21.705 Y40.422
G01 F480 X21.644 Y40.317
G01 F480 X21.607 Y40.202
G01 F480 X21.594 Y40.081
G01 F480 X21.607 Y39.961
G01 F480 X21.644 Y39.845
G01 F480 X21.705 Y39.740
G01 F480 X21.786 Y39.650
G01 F480 X21.884 Y39.579
G01 F480 X21.987 Y39.533
G01 F480 X22.018 Y39.523
G01 F480 X22.132 Y39.397
G01 F480 X22.322 Y39.258
G01 F480 X22.537 Y39.162
G01 F480 X22.768 Y39.113
G01 F480 X23.003 Y39.113
G01 F480 X23.233 Y39.162
G01 F480 X23.449 Y39.258
G01 F480 X23.639 Y39.397
G01 F480 X23.797 Y39.572
G01 F480 X23.915 Y39.775
G01 F480 X23.987 Y39.999
G01 F480 X24.012 Y40.234
G01 F480 X23.987 Y40.468
G01 F480 X23.915 Y40.692
G01 F480 X23.797 Y40.896
G01 F480 X23.639 Y41.071
G01 F480 X23.449 Y41.209
G01 F480 X23.414 Y41.224
G01 F480 X23.414 Y42.757
G01 F480 X23.402 Y42.869
G01 F480 X23.365 Y42.984
G01 F480 X23.304 Y43.089
G01 F480 X23.232 Y43.169
G01 F480 X20.679 Y45.722
G01 F480 X20.585 Y45.791
G01 F480 X20.474 Y45.840
G01 F480 X20.356 Y45.865
G01 F480 X16.050 Y45.890
G01 F480 X15.917 Y46.037
G01 F480 X15.752 Y46.157
G01 F480 X15.566 Y46.240
G01 F480 X15.367 Y46.282
G01 F480 X15.164 Y46.282
G00 F3000 Z3.000
G00 F3000 X30.388 Y41.354
G00 F1500 Z0
G01 F480 Z-0.200
G01 F480 X30.157 Y41.305
G01 F480 X29.942 Y41.209
G01 F480 X29.752 Y41.071
G01 F480 X29.594 Y40.896
G01 F480 X29.476 Y40.692
G01 F480 X29.404 Y40.468
G01 F480 X29.379 Y40.234
G01 F480 X29.404 Y39.999
G01 F480 X29.476 Y39.775
G01 F480 X29.594 Y39.572
G01 F480 X29.752 Y39.397
G01 F480 X29.930 Y39.267
G01 F480 X29.951 Y37.693
G01 F480 X29.928 Y35.849
G01 F480 X29.760 Y35.727
G01 F480 X29.604 Y35.554
G01 F480 X29.488 Y35.353
G01 F480 X29.416 Y35.131
G01 F480 X29.392 Y34.900
G01 F480 X29.416 Y34.668
G01 F480 X29.488 Y34.447
G01 F480 X29.604 Y34.245
G01 F480 X29.760 Y34.072
G01 F480 X29.926 Y33.951
G01 F480 X29.926 Y18.337
G01 F480 X29.752 Y18.211
G01 F480 X29.594 Y18.036
G01 F480 X29.476 Y17.832
G01 F480 X29.404 Y17.608
G01 F480 X29.379 Y17.374
G01 F480 X29.404 Y17.139
G01 F480 X29.476 Y16.915
G01 F480 X29.594 Y16.712
G01 F480 X29.752 Y16.537
G01 F480 X29.927 Y16.409
G01 F480 X29.947 Y13.003
G01 F480 X29.760 Y12.867
G01 F480 X29.604 Y12.694
G01 F480 X29.488 Y12.493
G01 F480 X29.416 Y12.271
G01 F480 X29.392 Y12.040
G01 F480 X29.416 Y11.808
G01 F480 X29.488 Y11.587
G01 F480 X29.604 Y11.385
G01 F480 X29.760 Y11.212
G01 F480 X29.949 Y11.075
G01 F480 X30.161 Y10.980
G01 F480 X30.389 Y10.932
G01 F480 X30.622 Y10.932
G01 F480 X30.850 Y10.980
G01 F480 X31.062 Y11.075
G01 F480 X31.251 Y11.212
G01 F480 X31.406 Y11.385
G01 F480 X31.523 Y11.587
G01 F480 X31.595 Y11.808
G01 F480 X31.619 Y12.040
G01 F480 X31.595 Y12.271
G01 F480 X31.523 Y12.493
G01 F480 X31.406 Y12.694
G01 F480 X31.251 Y12.867
G01 F480 X31.150 Y12.940
G01 F480 X31.149 Y12.948
G01 F480 X31.112 Y13.063
G01 F480 X31.106 Y13.074
G01 F480 X31.086 Y16.411
G01 F480 X31.259 Y16.537
G01 F480 X31.417 Y16.712
G01 F480 X31.535 Y16.915
G01 F480 X31.607 Y17.139
G01 F480 X31.632 Y17.374
G01 F480 X31.607 Y17.608
G01 F480 X31.535 Y17.832
G01 F480 X31.417 Y18.036
G01 F480 X31.259 Y18.211
G01 F480 X31.085 Y18.337
G01 F480 X31.085 Y33.951
G01 F480 X31.251 Y34.072
G01 F480 X31.406 Y34.245
G01 F480 X31.523 Y34.447
G01 F480 X31.595 Y34.668
G01 F480 X31.619 Y34.900
G01 F480 X31.595 Y35.131
G01 F480 X31.523 Y35.353
G01 F480 X31.406 Y35.554
G01 F480 X31.251 Y35.727
G01 F480 X31.087 Y35.846
G01 F480 X31.110 Y37.694
G01 F480 X31.088 Y39.272
G01 F480 X31.259 Y39.397
G01 F480 X31.417 Y39.572
G01 F480 X31.535 Y39.775
G01 F480 X31.607 Y39.999
G01 F480 X31.632 Y40.234
G01 F480 X31.607 Y40.468
G01 F480 X31.535 Y40.692
G01 F480 X31.417 Y40.896
G01 F480 X31.259 Y41.071
G01 F480 X31.069 Y41.209
G01 F480 X30.854 Y41.305
G01 F480 X30.623 Y41.354
G01 F480 X30.388 Y41.354
G00 F3000 Z3.000
G00 F3000 X48.168 Y41.354
G00 F1500 Z0
G01 F480 Z-0.200
G01 F480 X47.937 Y41.305
G01 F480 X47.722 Y41.209
G01 F480 X47.532 Y41.071
G01 F480 X47.374 Y40.896
G01 F480 X47.256 Y40.691
G01 F480 X47.204 Y40.526
G01 F480 X47.186 Y40.513
G01 F480 X47.105 Y40.422
G01 F480 X47.044 Y40.317
G01 F480 X47.007 Y40.202
G01 F480 X46.994 Y40.081
G01 F480 X47.007 Y39.961
G01 F480 X47.044 Y39.845
G01 F480 X47.105 Y39.740
G01 F480 X47.186 Y39.650
G01 F480 X47.284 Y39.579
G01 F480 X47.387 Y39.533
G01 F480 X47.418 Y39.523
G01 F480 X47.532 Y39.397
G01 F480 X47.660 Y39.303
G01 F480 X47.680 Y35.829
G01 F480 X47.540 Y35.727
G01 F480 X47.384 Y35.554
G01 F480 X47.268 Y35.353
G01 F480 X47.196 Y35.131
G01 F480 X47.172 Y34.900
G01 F480 X47.190 Y34.724
G01 F480 X45.351 Y33.038
G01 F480 X45.276 Y32.955
G01 F480 X45.215 Y32.850
G01 F480 X45.178 Y32.734
G01 F480 X45.166 Y32.623
G01 F480 X45.166 Y19.905
G01 F480 X45.178 Y19.793
G01 F480 X45.215 Y19.678
G01 F480 X45.276 Y19.573
G01 F480 X45.348 Y19.493
G01 F480 X47.190 Y17.628
G01 F480 X47.184 Y17.608
G01 F480 X47.159 Y17.374
G01 F480 X47.184 Y17.139
G01 F480 X47.256 Y16.915
G01 F480 X47.374 Y16.712
G01 F480 X47.532 Y16.537
G01 F480 X47.679 Y16.429
G01 F480 X47.660 Y13.163
G01 F480 X47.603 Y13.063
G01 F480 X47.565 Y12.948
G01 F480 X47.558 Y12.881
G01 F480 X47.540 Y12.867
G01 F480 X47.384 Y12.694
G01 F480 X47.268 Y12.493
G01 F480 X47.196 Y12.271
G01 F480 X47.172 Y12.040
G01 F480 X47.196 Y11.808
G01 F480 X47.268 Y11.587
G01 F480 X47.384 Y11.385
G01 F480 X47.540 Y11.212
G01 F480 X47.729 Y11.075
G01 F480 X47.941 Y10.980
G01 F480 X48.169 Y10.932
G01 F480 X48.402 Y10.932
G01 F480 X48.630 Y10.980
G01 F480 X48.842 Y11.075
G01 F480 X49.031 Y11.212
G01 F480 X49.186 Y11.385
G01 F480 X49.303 Y11.587
G01 F480 X49.375 Y11.808
G01 F480 X49.399 Y12.040
G01 F480 X49.375 Y12.271
G01 F480 X49.303 Y12.493
G01 F480 X49.186 Y12.694
G01 F480 X49.031 Y12.867
G01 F480 X48.842 Y13.004
G01 F480 X48.818 Y13.015
G01 F480 X48.838 Y16.393
G01 F480 X48.849 Y16.398
G01 F480 X49.039 Y16.537
G01 F480 X49.197 Y16.712
G01 F480 X49.315 Y16.915
G01 F480 X49.387 Y17.139
G01 F480 X49.412 Y17.374
G01 F480 X49.387 Y17.608
G01 F480 X49.315 Y17.832
G01 F480 X49.197 Y18.036
G01 F480 X49.039 Y18.211
G01 F480 X48.849 Y18.349
G01 F480 X48.634 Y18.445
G01 F480 X48.403 Y18.494
G01 F480 X48.168 Y18.494
G01 F480 X47.996 Y18.457
G01 F480 X46.325 Y20.150
G01 F480 X46.325 Y32.359
G01 F480 X47.941 Y33.840
G01 F480 X48.169 Y33.792
G01 F480 X48.402 Y33.792
G01 F480 X48.630 Y33.840
G01 F480 X48.842 Y33.935
G01 F480 X49.031 Y34.072
G01 F480 X49.186 Y34.245
G01 F480 X49.303 Y34.447
G01 F480 X49.375 Y34.668
G01 F480 X49.399 Y34.900
G01 F480 X49.375 Y35.131
G01 F480 X49.303 Y35.353
G01 F480 X49.186 Y35.554
G01 F480 X49.031 Y35.727
G01 F480 X48.842 Y35.864
G01 F480 X48.838 Y35.866
G01 F480 X48.820 Y39.245
G01 F480 X48.849 Y39.258
G01 F480 X49.039 Y39.397
G01 F480 X49.197 Y39.572
G01 F480 X49.315 Y39.775
G01 F480 X49.387 Y39.999
G01 F480 X49.412 Y40.234
G01 F480 X49.387 Y40.468
G01 F480 X49.315 Y40.692
G01 F480 X49.197 Y40.896
G01 F480 X49.039 Y41.071
G01 F480 X48.849 Y41.209
G01 F480 X48.634 Y41.305
G01 F480 X48.403 Y41.354
G01 F480 X48.168 Y41.354
G00 F3000 Z3.000
G00 F3000 X27.849 Y36.261
G00 F1500 Z0
G01 F480 Z-0.200
G01 F480 X27.621 Y36.213
G01 F480 X27.409 Y36.118
G01 F480 X27.220 Y35.981
G01 F480 X27.064 Y35.808
G01 F480 X26.948 Y35.607
G01 F480 X26.876 Y35.385
G01 F480 X26.852 Y35.154
G01 F480 X26.876 Y34.922
G01 F480 X26.948 Y34.701
G01 F480 X27.064 Y34.499
G01 F480 X27.220 Y34.326
G01 F480 X27.409 Y34.189
G01 F480 X27.621 Y34.094
G01 F480 X27.849 Y34.046
G01 F480 X28.082 Y34.046
G01 F480 X28.310 Y34.094
G01 F480 X28.522 Y34.189
G01 F480 X28.711 Y34.326
G01 F480 X28.866 Y34.499
G01 F480 X28.983 Y34.701
G01 F480 X29.055 Y34.922
G01 F480 X29.079 Y35.154
G01 F480 X29.055 Y35.385
G01 F480 X28.983 Y35.607
G01 F480 X28.866 Y35.808
G01 F480 X28.711 Y35.981
G01 F480 X28.522 Y36.118
G01 F480 X28.310 Y36.213
G01 F480 X28.082 Y36.261
G01 F480 X27.849 Y36.261
G00 F3000 Z3.000
G00 F3000 X45.629 Y36.261
G00 F1500 Z0
G01 F480 Z-0.200
G01 F480 X45.401 Y36.213
G01 F480 X45.189 Y36.118
G01 F480 X45.000 Y35.981
G01 F480 X44.844 Y35.808
G01 F480 X44.728 Y35.607
G01 F480 X44.656 Y35.385
G01 F480 X44.632 Y35.154
G01 F480 X44.656 Y34.922
G01 F480 X44.728 Y34.701
G01 F480 X44.844 Y34.499
G01 F480 X45.000 Y34.326
G01 F480 X45.189 Y34.189
G01 F480 X45.401 Y34.094
G01 F480 X45.629 Y34.046
G01 F480 X45.862 Y34.046
G01 F480 X46.090 Y34.094
G01 F480 X46.302 Y34.189
G01 F480 X46.491 Y34.326
G01 F480 X46.646 Y34.499
G01 F480 X46.763 Y34.701
G01 F480 X46.835 Y34.922
G01 F480 X46.859 Y35.154
G01 F480 X46.835 Y35.385
G01 F480 X46.763 Y35.607
G01 F480 X46.646 Y35.808
G01 F480 X46.491 Y35.981
G01 F480 X46.302 Y36.118
G01 F480 X46.090 Y36.213
G01 F480 X45.862 Y36.261
G01 F480 X45.629 Y36.261
G00 F3000 Z3.000
G00 F3000 X50.709 Y36.261
G00 F1500 Z0
G01 F480 Z-0.200
G01 F480 X50.481 Y36.213
G01 F480 X50.269 Y36.118
G01 F480 X50.080 Y35.981
G01 F480 X49.924 Y35.808
G01 F480 X49.808 Y35.607
G01 F480 X49.736 Y35.385
G01 F480 X49.712 Y35.154
G01 F480 X49.736 Y34.922
G01 F480 X49.808 Y34.701
G01 F480 X49.924 Y34.499
G01 F480 X50.080 Y34.326
G01 F480 X50.246 Y34.205
G01 F480 X50.246 Y32.853
G01 F480 X47.888 Y30.495
G01 F480 X47.816 Y30.415
G01 F480 X47.755 Y30.310
G01 F480 X47.718 Y30.194
G01 F480 X47.706 Y30.083
G01 F480 X47.706 Y22.445
G01 F480 X47.718 Y22.333
G01 F480 X47.754 Y22.223
G01 F480 X50.246 Y17.238
G01 F480 X50.246 Y13.242
G01 F480 X50.080 Y13.121
G01 F480 X49.924 Y12.948
G01 F480 X49.808 Y12.747
G01 F480 X49.736 Y12.525
G01 F480 X49.712 Y12.294
G01 F480 X49.736 Y12.062
G01 F480 X49.808 Y11.841
G01 F480 X49.924 Y11.639
G01 F480 X50.080 Y11.466
G01 F480 X50.269 Y11.329
G01 F480 X50.481 Y11.234
G01 F480 X50.709 Y11.186
G01 F480 X50.942 Y11.186
G01 F480 X51.170 Y11.234
G01 F480 X51.382 Y11.329
G01 F480 X51.571 Y11.466
G01 F480 X51.726 Y11.639
G01 F480 X51.843 Y11.841
G01 F480 X51.915 Y12.062
G01 F480 X51.939 Y12.294
G01 F480 X51.915 Y12.525
G01 F480 X51.843 Y12.747
G01 F480 X51.726 Y12.948
G01 F480 X51.571 Y13.121
G01 F480 X51.405 Y13.242
G01 F480 X51.405 Y17.383
G01 F480 X51.393 Y17.494
G01 F480 X51.357 Y17.605
G01 F480 X48.865 Y22.589
G01 F480 X48.865 Y29.835
G01 F480 X51.223 Y32.193
G01 F480 X51.295 Y32.273
G01 F480 X51.356 Y32.378
G01 F480 X51.393 Y32.493
G01 F480 X51.405 Y32.605
G01 F480 X51.405 Y34.205
G01 F480 X51.571 Y34.326
G01 F480 X51.726 Y34.499
G01 F480 X51.843 Y34.701
G01 F480 X51.915 Y34.922
G01 F480 X51.939 Y35.154
G01 F480 X51.915 Y35.385
G01 F480 X51.843 Y35.607
G01 F480 X51.726 Y35.808
G01 F480 X51.571 Y35.981
G01 F480 X51.382 Y36.118
G01 F480 X51.170 Y36.213
G01 F480 X50.942 Y36.261
G01 F480 X50.709 Y36.261
G00 F3000 Z3.000
G00 F3000 X10.069 Y36.261
G00 F1500 Z0
G01 F480 Z-0.200
G01 F480 X9.841 Y36.213
G01 F480 X9.629 Y36.118
G01 F480 X9.440 Y35.981
G01 F480 X9.284 Y35.808
G01 F480 X9.168 Y35.607
G01 F480 X9.096 Y35.385
G01 F480 X9.072 Y35.154
G01 F480 X9.096 Y34.922
G01 F480 X9.168 Y34.701
G01 F480 X9.284 Y34.499
G01 F480 X9.440 Y34.326
G01 F480 X9.629 Y34.189
G01 F480 X9.841 Y34.094
G01 F480 X10.069 Y34.046
G01 F480 X10.302 Y34.046
G01 F480 X10.530 Y34.094
G01 F480 X10.742 Y34.189
G01 F480 X10.931 Y34.326
G01 F480 X11.086 Y34.499
G01 F480 X11.203 Y34.701
G01 F480 X11.275 Y34.922
G01 F480 X11.299 Y35.154
G01 F480 X11.275 Y35.385
G01 F480 X11.203 Y35.607
G01 F480 X11.086 Y35.808
G01 F480 X10.931 Y35.981
G01 F480 X10.742 Y36.118
G01 F480 X10.530 Y36.213
G01 F480 X10.302 Y36.261
G01 F480 X10.069 Y36.261
G00 F3000 Z3.000
G00 F3000 X15.149 Y36.261
G00 F1500 Z0
G01 F480 Z-0.200
G01 F480 X14.921 Y36.213
G01 F480 X14.709 Y36.118
G01 F480 X14.520 Y35.981
G01 F480 X14.364 Y35.808
G01 F480 X14.248 Y35.607
G01 F480 X14.176 Y35.385
G01 F480 X14.152 Y35.154
G01 F480 X14.176 Y34.922
G01 F480 X14.248 Y34.701
G01 F480 X14.364 Y34.499
G01 F480 X14.520 Y34.326
G01 F480 X14.709 Y34.189
G01 F480 X14.921 Y34.094
G01 F480 X15.149 Y34.046
G01 F480 X15.382 Y34.046
G01 F480 X15.610 Y34.094
G01 F480 X15.822 Y34.189
G01 F480 X16.011 Y34.326
G01 F480 X16.166 Y34.499
G01 F480 X16.283 Y34.701
G01 F480 X16.355 Y34.922
G01 F480 X16.379 Y35.154
G01 F480 X16.355 Y35.385
G01 F480 X16.283 Y35.607
G01 F480 X16.166 Y35.808
G01 F480 X16.011 Y35.981
G01 F480 X15.822 Y36.118
G01 F480 X15.610 Y36.213
G01 F480 X15.382 Y36.261
G01 F480 X15.149 Y36.261
G00 F3000 Z3.000
G00 F3000 X32.929 Y36.261
G00 F1500 Z0
G01 F480 Z-0.200
G01 F480 X32.701 Y36.213
G01 F480 X32.489 Y36.118
G01 F480 X32.300 Y35.981
G01 F480 X32.144 Y35.808
G01 F480 X32.028 Y35.607
G01 F480 X31.956 Y35.385
G01 F480 X31.932 Y35.154
G01 F480 X31.956 Y34.922
G01 F480 X32.028 Y34.701
G01 F480 X32.144 Y34.499
G01 F480 X32.300 Y34.326
G01 F480 X32.489 Y34.189
G01 F480 X32.701 Y34.094
G01 F480 X32.929 Y34.046
G01 F480 X33.162 Y34.046
G01 F480 X33.390 Y34.094
G01 F480 X33.602 Y34.189
G01 F480 X33.791 Y34.326
G01 F480 X33.946 Y34.499
G01 F480 X34.063 Y34.701
G01 F480 X34.135 Y34.922
G01 F480 X34.159 Y35.154
G01 F480 X34.135 Y35.385
G01 F480 X34.063 Y35.607
G01 F480 X33.946 Y35.808
G01 F480 X33.791 Y35.981
G01 F480 X33.602 Y36.118
G01 F480 X33.390 Y36.213
G01 F480 X33.162 Y36.261
G01 F480 X32.929 Y36.261
G00 F3000 Z3.000
G00 F3000 X38.009 Y36.261
G00 F1500 Z0
G01 F480 Z-0.200
G01 F480 X37.781 Y36.213
G01 F480 X37.569 Y36.118
G01 F480 X37.380 Y35.981
G01 F480 X37.224 Y35.808
G01 F480 X37.108 Y35.607
G01 F480 X37.036 Y35.385
G01 F480 X37.012 Y35.154
G01 F480 X37.036 Y34.922
G01 F480 X37.108 Y34.701
G01 F480 X37.224 Y34.499
G01 F480 X37.380 Y34.326
G01 F480 X37.569 Y34.189
G01 F480 X37.781 Y34.094
G01 F480 X38.009 Y34.046
G01 F480 X38.242 Y34.046
G01 F480 X38.470 Y34.094
G01 F480 X38.682 Y34.189
G01 F480 X38.871 Y34.326
G01 F480 X39.026 Y34.499
G01 F480 X39.143 Y34.701
G01 F480 X39.215 Y34.922
G01 F480 X39.239 Y35.154
G01 F480 X39.215 Y35.385
G01 F480 X39.143 Y35.607
G01 F480 X39.026 Y35.808
G01 F480 X38.871 Y35.981
G01 F480 X38.682 Y36.118
G01 F480 X38.470 Y36.213
G01 F480 X38.242 Y36.261
G01 F480 X38.009 Y36.261
G00 F3000 Z3.000
G00 F3000 X20.229 Y36.261
G00 F1500 Z0
G01 F480 Z-0.200
G01 F480 X20.001 Y36.213
G01 F480 X19.789 Y36.118
G01 F480 X19.600 Y35.981
G01 F480 X19.444 Y35.808
G01 F480 X19.328 Y35.607
G01 F480 X19.256 Y35.385
G01 F480 X19.232 Y35.154
G01 F480 X19.256 Y34.922
G01 F480 X19.328 Y34.701
G01 F480 X19.444 Y34.499
G01 F480 X19.600 Y34.326
G01 F480 X19.789 Y34.189
G01 F480 X20.001 Y34.094
G01 F480 X20.229 Y34.046
G01 F480 X20.462 Y34.046
G01 F480 X20.690 Y34.094
G01 F480 X20.902 Y34.189
G01 F480 X21.091 Y34.326
G01 F480 X21.246 Y34.499
G01 F480 X21.363 Y34.701
G01 F480 X21.435 Y34.922
G01 F480 X21.459 Y35.154
G01 F480 X21.435 Y35.385
G01 F480 X21.363 Y35.607
G01 F480 X21.246 Y35.808
G01 F480 X21.091 Y35.981
G01 F480 X20.902 Y36.118
G01 F480 X20.690 Y36.213
G01 F480 X20.462 Y36.261
G01 F480 X20.229 Y36.261
G00 F3000 Z3.000
G00 F3000 X53.249 Y36.007
G00 F1500 Z0
G01 F480 Z-0.200
G01 F480 X53.021 Y35.959
G01 F480 X52.809 Y35.864
G01 F480 X52.620 Y35.727
G01 F480 X52.464 Y35.554
G01 F480 X52.348 Y35.353
G01 F480 X52.276 Y35.131
G01 F480 X52.252 Y34.900
G01 F480 X52.276 Y34.668
G01 F480 X52.348 Y34.447
G01 F480 X52.464 Y34.245
G01 F480 X52.620 Y34.072
G01 F480 X52.809 Y33.935
G01 F480 X53.021 Y33.840
G01 F480 X53.249 Y33.792
G01 F480 X53.482 Y33.792
G01 F480 X53.710 Y33.840
G01 F480 X53.922 Y33.935
G01 F480 X54.111 Y34.072
G01 F480 X54.266 Y34.245
G01 F480 X54.383 Y34.447
G01 F480 X54.455 Y34.668
G01 F480 X54.479 Y34.900
G01 F480 X54.455 Y35.131
G01 F480 X54.383 Y35.353
G01 F480 X54.266 Y35.554
G01 F480 X54.111 Y35.727
G01 F480 X53.922 Y35.864
G01 F480 X53.710 Y35.959
G01 F480 X53.482 Y36.007
G01 F480 X53.249 Y36.007
G00 F3000 Z3.000
G00 F3000 X7.529 Y36.007
G00 F1500 Z0
G01 F480 Z-0.200
G01 F480 X7.301 Y35.959
G01 F480 X7.089 Y35.864
G01 F480 X6.900 Y35.727
G01 F480 X6.744 Y35.554
G01 F480 X6.628 Y35.353
G01 F480 X6.556 Y35.131
G01 F480 X6.532 Y34.900
G01 F480 X6.556 Y34.668
G01 F480 X6.628 Y34.447
G01 F480 X6.744 Y34.245
G01 F480 X6.900 Y34.072
G01 F480 X7.089 Y33.935
G01 F480 X7.301 Y33.840
G01 F480 X7.529 Y33.792
G01 F480 X7.762 Y33.792
G01 F480 X7.990 Y33.840
G01 F480 X8.202 Y33.935
G01 F480 X8.391 Y34.072
G01 F480 X8.546 Y34.245
G01 F480 X8.663 Y34.447
G01 F480 X8.735 Y34.668
G01 F480 X8.759 Y34.900
G01 F480 X8.735 Y35.131
G01 F480 X8.663 Y35.353
G01 F480 X8.546 Y35.554
G01 F480 X8.391 Y35.727
G01 F480 X8.202 Y35.864
G01 F480 X7.990 Y35.959
G01 F480 X7.762 Y36.007
G01 F480 X7.529 Y36.007
G00 F3000 Z3.000
G00 F3000 X35.469 Y36.007
G00 F1500 Z0
G01 F480 Z-0.200
G01 F480 X35.241 Y35.959
G01 F480 X35.029 Y35.864
G01 F480 X34.840 Y35.727
G01 F480 X34.684 Y35.554
G01 F480 X34.568 Y35.353
G01 F480 X34.496 Y35.131
G01 F480 X34.472 Y34.900
G01 F480 X34.496 Y34.668
G01 F480 X34.568 Y34.447
G01 F480 X34.684 Y34.245
G01 F480 X34.840 Y34.072
G01 F480 X35.029 Y33.935
G01 F480 X35.241 Y33.840
G01 F480 X35.469 Y33.792
G01 F480 X35.702 Y33.792
G01 F480 X35.930 Y33.840
G01 F480 X36.142 Y33.935
G01 F480 X36.331 Y34.072
G01 F480 X36.486 Y34.245
G01 F480 X36.603 Y34.447
G01 F480 X36.675 Y34.668
G01 F480 X36.699 Y34.900
G01 F480 X36.675 Y35.131
G01 F480 X36.603 Y35.353
G01 F480 X36.486 Y35.554
G01 F480 X36.331 Y35.727
G01 F480 X36.142 Y35.864
G01 F480 X35.930 Y35.959
G01 F480 X35.702 Y36.007
G01 F480 X35.469 Y36.007
G00 F3000 Z3.000
G00 F3000 X17.689 Y36.007
G00 F1500 Z0
G01 F480 Z-0.200
G01 F480 X17.461 Y35.959
G01 F480 X17.248 Y35.864
G01 F480 X17.060 Y35.727
G01 F480 X16.904 Y35.554
G01 F480 X16.788 Y35.353
G01 F480 X16.716 Y35.131
G01 F480 X16.692 Y34.900
G01 F480 X16.716 Y34.668
G01 F480 X16.788 Y34.447
G01 F480 X16.904 Y34.245
G01 F480 X17.060 Y34.072
G01 F480 X17.248 Y33.935
G01 F480 X17.461 Y33.840
G01 F480 X17.689 Y33.792
G01 F480 X17.922 Y33.792
G01 F480 X18.150 Y33.840
G01 F480 X18.362 Y33.935
G01 F480 X18.551 Y34.072
G01 F480 X18.706 Y34.245
G01 F480 X18.823 Y34.447
G01 F480 X18.895 Y34.668
G01 F480 X18.919 Y34.900
G01 F480 X18.895 Y35.131
G01 F480 X18.823 Y35.353
G01 F480 X18.706 Y35.554
G01 F480 X18.551 Y35.727
G01 F480 X18.362 Y35.864
G01 F480 X18.150 Y35.959
G01 F480 X17.922 Y36.007
G01 F480 X17.689 Y36.007
G00 F3000 Z3.000
G00 F3000 X32.072 Y25.941
G00 F1500 Z0
G01 F480 Z-0.200
G01 F480 X32.072 Y23.995
G01 F480 X34.018 Y23.995
G01 F480 X34.018 Y25.941
G01 F480 X32.072 Y25.941
G00 F3000 Z3.000
G00 F3000 X49.852 Y25.941
G00 F1500 Z0
G01 F480 Z-0.200
G01 F480 X49.852 Y23.995
G01 F480 X51.798 Y23.995
G01 F480 X51.798 Y25.941
G01 F480 X49.852 Y25.941
G00 F3000 Z3.000
G00 F3000 X50.724 Y23.422
G00 F1500 Z0
G01 F480 Z-0.200
G01 F480 X50.524 Y23.380
G01 F480 X50.338 Y23.297
G01 F480 X50.174 Y23.177
G01 F480 X50.038 Y23.026
G01 F480 X49.936 Y22.850
G01 F480 X49.873 Y22.656
G01 F480 X49.851 Y22.454
G01 F480 X49.873 Y22.251
G01 F480 X49.936 Y22.058
G01 F480 X50.038 Y21.881
G01 F480 X50.174 Y21.730
G01 F480 X50.338 Y21.610
G01 F480 X50.524 Y21.527
G01 F480 X50.724 Y21.485
G01 F480 X50.927 Y21.485
G01 F480 X51.126 Y21.527
G01 F480 X51.312 Y21.610
G01 F480 X51.477 Y21.730
G01 F480 X51.608 Y21.875
G01 F480 X55.687 Y21.828
G01 F480 X57.866 Y19.649
G01 F480 X57.866 Y18.337
G01 F480 X57.692 Y18.211
G01 F480 X57.534 Y18.036
G01 F480 X57.416 Y17.832
G01 F480 X57.344 Y17.608
G01 F480 X57.319 Y17.374
G01 F480 X57.344 Y17.139
G01 F480 X57.416 Y16.915
G01 F480 X57.534 Y16.712
G01 F480 X57.692 Y16.537
G01 F480 X57.882 Y16.398
G01 F480 X58.097 Y16.302
G01 F480 X58.328 Y16.253
G01 F480 X58.563 Y16.253
G01 F480 X58.686 Y16.279
G01 F480 X58.723 Y16.263
G01 F480 X58.842 Y16.238
G01 F480 X58.963 Y16.238
G01 F480 X59.082 Y16.263
G01 F480 X59.193 Y16.312
G01 F480 X59.291 Y16.384
G01 F480 X59.372 Y16.474
G01 F480 X59.433 Y16.579
G01 F480 X59.470 Y16.694
G01 F480 X59.483 Y16.815
G01 F480 X59.473 Y16.912
G01 F480 X59.475 Y16.915
G01 F480 X59.547 Y17.139
G01 F480 X59.572 Y17.374
G01 F480 X59.547 Y17.608
G01 F480 X59.475 Y17.832
G01 F480 X59.357 Y18.036
G01 F480 X59.199 Y18.211
G01 F480 X59.025 Y18.337
G01 F480 X59.025 Y19.897
G01 F480 X59.013 Y20.009
G01 F480 X58.976 Y20.124
G01 F480 X58.915 Y20.229
G01 F480 X58.843 Y20.309
G01 F480 X56.315 Y22.837
G01 F480 X56.221 Y22.905
G01 F480 X56.110 Y22.955
G01 F480 X55.992 Y22.980
G01 F480 X51.610 Y23.030
G01 F480 X51.477 Y23.177
G01 F480 X51.312 Y23.297
G01 F480 X51.126 Y23.380
G01 F480 X50.927 Y23.422
G01 F480 X50.724 Y23.422
G00 F3000 Z3.000
G00 F3000 X32.944 Y23.422
G00 F1500 Z0
G01 F480 Z-0.200
G01 F480 X32.744 Y23.380
G01 F480 X32.558 Y23.297
G01 F480 X32.394 Y23.177
G01 F480 X32.258 Y23.026
G01 F480 X32.156 Y22.850
G01 F480 X32.093 Y22.656
G01 F480 X32.071 Y22.454
G01 F480 X32.093 Y22.251
G01 F480 X32.156 Y22.058
G01 F480 X32.258 Y21.881
G01 F480 X32.394 Y21.730
G01 F480 X32.558 Y21.610
G01 F480 X32.744 Y21.527
G01 F480 X32.944 Y21.485
G01 F480 X33.147 Y21.485
G01 F480 X33.346 Y21.527
G01 F480 X33.532 Y21.610
G01 F480 X33.697 Y21.730
G01 F480 X33.828 Y21.875
G01 F480 X37.858 Y21.828
G01 F480 X40.061 Y19.647
G01 F480 X40.061 Y18.319
G01 F480 X39.912 Y18.211
G01 F480 X39.754 Y18.036
G01 F480 X39.636 Y17.832
G01 F480 X39.564 Y17.608
G01 F480 X39.539 Y17.374
G01 F480 X39.564 Y17.139
G01 F480 X39.634 Y16.922
G01 F480 X39.684 Y16.818
G01 F480 X39.679 Y16.764
G01 F480 X39.691 Y16.643
G01 F480 X39.729 Y16.528
G01 F480 X39.790 Y16.423
G01 F480 X39.871 Y16.333
G01 F480 X39.969 Y16.261
G01 F480 X40.080 Y16.212
G01 F480 X40.198 Y16.187
G01 F480 X40.320 Y16.187
G01 F480 X40.438 Y16.212
G01 F480 X40.536 Y16.256
G01 F480 X40.548 Y16.253
G01 F480 X40.783 Y16.253
G01 F480 X41.014 Y16.302
G01 F480 X41.229 Y16.398
G01 F480 X41.419 Y16.537
G01 F480 X41.577 Y16.712
G01 F480 X41.695 Y16.915
G01 F480 X41.767 Y17.139
G01 F480 X41.792 Y17.374
G01 F480 X41.767 Y17.608
G01 F480 X41.695 Y17.832
G01 F480 X41.577 Y18.036
G01 F480 X41.419 Y18.211
G01 F480 X41.229 Y18.349
G01 F480 X41.219 Y18.353
G01 F480 X41.219 Y19.897
G01 F480 X41.208 Y20.009
G01 F480 X41.170 Y20.124
G01 F480 X41.110 Y20.229
G01 F480 X41.037 Y20.310
G01 F480 X38.484 Y22.837
G01 F480 X38.390 Y22.905
G01 F480 X38.279 Y22.955
G01 F480 X38.162 Y22.980
G01 F480 X33.830 Y23.030
G01 F480 X33.697 Y23.177
G01 F480 X33.532 Y23.297
G01 F480 X33.346 Y23.380
G01 F480 X33.147 Y23.422
G01 F480 X32.944 Y23.422
G00 F3000 Z3.000
G00 F3000 X15.164 Y23.422
G00 F1500 Z0
G01 F480 Z-0.200
G01 F480 X14.964 Y23.380
G01 F480 X14.778 Y23.297
G01 F480 X14.614 Y23.177
G01 F480 X14.478 Y23.026
G01 F480 X14.376 Y22.850
G01 F480 X14.313 Y22.656
G01 F480 X14.291 Y22.454
G01 F480 X14.313 Y22.251
G01 F480 X14.376 Y22.058
G01 F480 X14.478 Y21.881
G01 F480 X14.614 Y21.730
G01 F480 X14.778 Y21.610
G01 F480 X14.964 Y21.527
G01 F480 X15.164 Y21.485
G01 F480 X15.367 Y21.485
G01 F480 X15.566 Y21.527
G01 F480 X15.752 Y21.610
G01 F480 X15.917 Y21.730
G01 F480 X16.047 Y21.874
G01 F480 X20.053 Y21.828
G01 F480 X22.254 Y19.648
G01 F480 X22.237 Y18.287
G01 F480 X22.132 Y18.211
G01 F480 X21.974 Y18.036
G01 F480 X21.856 Y17.832
G01 F480 X21.783 Y17.606
G01 F480 X21.768 Y17.424
G01 F480 X21.756 Y17.410
G01 F480 X21.695 Y17.305
G01 F480 X21.657 Y17.190
G01 F480 X21.645 Y17.069
G01 F480 X21.657 Y16.948
G01 F480 X21.695 Y16.833
G01 F480 X21.756 Y16.728
G01 F480 X21.837 Y16.637
G01 F480 X21.935 Y16.566
G01 F480 X22.046 Y16.517
G01 F480 X22.164 Y16.492
G01 F480 X22.194 Y16.492
G01 F480 X22.322 Y16.398
G01 F480 X22.537 Y16.302
G01 F480 X22.768 Y16.253
G01 F480 X23.003 Y16.253
G01 F480 X23.233 Y16.302
G01 F480 X23.449 Y16.398
G01 F480 X23.639 Y16.537
G01 F480 X23.797 Y16.712
G01 F480 X23.915 Y16.915
G01 F480 X23.987 Y17.139
G01 F480 X24.012 Y17.374
G01 F480 X23.987 Y17.608
G01 F480 X23.915 Y17.832
G01 F480 X23.797 Y18.036
G01 F480 X23.639 Y18.211
G01 F480 X23.449 Y18.349
G01 F480 X23.414 Y18.364
G01 F480 X23.414 Y19.897
G01 F480 X23.402 Y20.009
G01 F480 X23.365 Y20.124
G01 F480 X23.304 Y20.229
G01 F480 X23.232 Y20.310
G01 F480 X20.679 Y22.837
G01 F480 X20.585 Y22.905
G01 F480 X20.474 Y22.955
G01 F480 X20.356 Y22.980
G01 F480 X16.050 Y23.030
G01 F480 X15.917 Y23.177
G01 F480 X15.752 Y23.297
G01 F480 X15.566 Y23.380
G01 F480 X15.367 Y23.422
G01 F480 X15.164 Y23.422
G00 F3000 Z3.000
G00 F3000 X10.069 Y13.401
G00 F1500 Z0
G01 F480 Z-0.200
G01 F480 X9.841 Y13.353
G01 F480 X9.629 Y13.258
G01 F480 X9.440 Y13.121
G01 F480 X9.284 Y12.948
G01 F480 X9.168 Y12.747
G01 F480 X9.096 Y12.525
G01 F480 X9.072 Y12.294
G01 F480 X9.096 Y12.062
G01 F480 X9.168 Y11.841
G01 F480 X9.284 Y11.639
G01 F480 X9.440 Y11.466
G01 F480 X9.629 Y11.329
G01 F480 X9.841 Y11.234
G01 F480 X10.069 Y11.186
G01 F480 X10.302 Y11.186
G01 F480 X10.530 Y11.234
G01 F480 X10.742 Y11.329
G01 F480 X10.931 Y11.466
G01 F480 X11.086 Y11.639
G01 F480 X11.203 Y11.841
G01 F480 X11.275 Y12.062
G01 F480 X11.299 Y12.294
G01 F480 X11.275 Y12.525
G01 F480 X11.203 Y12.747
G01 F480 X11.086 Y12.948
G01 F480 X10.931 Y13.121
G01 F480 X10.742 Y13.258
G01 F480 X10.530 Y13.353
G01 F480 X10.302 Y13.401
G01 F480 X10.069 Y13.401
G00 F3000 Z3.000
G00 F3000 X27.849 Y13.401
G00 F1500 Z0
G01 F480 Z-0.200
G01 F480 X27.621 Y13.353
G01 F480 X27.409 Y13.258
G01 F480 X27.220 Y13.121
G01 F480 X27.064 Y12.948
G01 F480 X26.948 Y12.747
G01 F480 X26.876 Y12.525
G01 F480 X26.852 Y12.294
G01 F480 X26.876 Y12.062
G01 F480 X26.948 Y11.841
G01 F480 X27.064 Y11.639
G01 F480 X27.220 Y11.466
G01 F480 X27.409 Y11.329
G01 F480 X27.621 Y11.234
G01 F480 X27.849 Y11.186
G01 F480 X28.082 Y11.186
G01 F480 X28.310 Y11.234
G01 F480 X28.522 Y11.329
G01 F480 X28.711 Y11.466
G01 F480 X28.866 Y11.639
G01 F480 X28.983 Y11.841
G01 F480 X29.055 Y12.062
G01 F480 X29.079 Y12.294
G01 F480 X29.055 Y12.525
G01 F480 X28.983 Y12.747
G01 F480 X28.866 Y12.948
G01 F480 X28.711 Y13.121
G01 F480 X28.522 Y13.258
G01 F480 X28.310 Y13.353
G01 F480 X28.082 Y13.401
G01 F480 X27.849 Y13.401
G00 F3000 Z3.000
G00 F3000 X32.929 Y13.401
G00 F1500 Z0
G01 F480 Z-0.200
G01 F480 X32.701 Y13.353
G01 F480 X32.489 Y13.258
G01 F480 X32.300 Y13.121
G01 F480 X32.144 Y12.948
G01 F480 X32.028 Y12.747
G01 F480 X31.956 Y12.525
G01 F480 X31.932 Y12.294
G01 F480 X31.956 Y12.062
G01 F480 X32.028 Y11.841
G01 F480 X32.144 Y11.639
G01 F480 X32.300 Y11.466
G01 F480 X32.489 Y11.329
G01 F480 X32.701 Y11.234
G01 F480 X32.929 Y11.186
G01 F480 X33.162 Y11.186
G01 F480 X33.390 Y11.234
G01 F480 X33.602 Y11.329
G01 F480 X33.791 Y11.466
G01 F480 X33.933 Y11.624
G01 F480 X34.586 Y11.556
G01 F480 X34.684 Y11.385
G01 F480 X34.840 Y11.212
G01 F480 X35.029 Y11.075
G01 F480 X35.241 Y10.980
G01 F480 X35.469 Y10.932
G01 F480 X35.702 Y10.932
G01 F480 X35.930 Y10.980
G01 F480 X36.142 Y11.075
G01 F480 X36.331 Y11.212
G01 F480 X36.486 Y11.385
G01 F480 X36.603 Y11.587
G01 F480 X36.675 Y11.808
G01 F480 X36.699 Y12.040
G01 F480 X36.675 Y12.271
G01 F480 X36.603 Y12.493
G01 F480 X36.486 Y12.694
G01 F480 X36.331 Y12.867
G01 F480 X36.142 Y13.004
G01 F480 X35.930 Y13.099
G01 F480 X35.702 Y13.147
G01 F480 X35.469 Y13.147
G01 F480 X35.241 Y13.099
G01 F480 X35.029 Y13.004
G01 F480 X34.840 Y12.867
G01 F480 X34.698 Y12.709
G01 F480 X34.045 Y12.778
G01 F480 X33.946 Y12.948
G01 F480 X33.791 Y13.121
G01 F480 X33.602 Y13.258
G01 F480 X33.390 Y13.353
G01 F480 X33.162 Y13.401
G01 F480 X32.929 Y13.401
G00 F3000 Z3.000
G00 F3000 X15.149 Y13.401
G00 F1500 Z0
G01 F480 Z-0.200
G01 F480 X14.921 Y13.353
G01 F480 X14.709 Y13.258
G01 F480 X14.520 Y13.121
G01 F480 X14.364 Y12.948
G01 F480 X14.248 Y12.747
G01 F480 X14.176 Y12.525
G01 F480 X14.152 Y12.294
G01 F480 X14.176 Y12.062
G01 F480 X14.248 Y11.841
G01 F480 X14.364 Y11.639
G01 F480 X14.520 Y11.466
G01 F480 X14.709 Y11.329
G01 F480 X14.921 Y11.234
G01 F480 X15.149 Y11.186
G01 F480 X15.382 Y11.186
G01 F480 X15.610 Y11.234
G01 F480 X15.822 Y11.329
G01 F480 X16.011 Y11.466
G01 F480 X16.166 Y11.639
G01 F480 X16.283 Y11.841
G01 F480 X16.355 Y12.062
G01 F480 X16.379 Y12.294
G01 F480 X16.355 Y12.525
G01 F480 X16.283 Y12.747
G01 F480 X16.166 Y12.948
G01 F480 X16.011 Y13.121
G01 F480 X15.822 Y13.258
G01 F480 X15.610 Y13.353
G01 F480 X15.382 Y13.401
G01 F480 X15.149 Y13.401
G00 F3000 Z3.000
G00 F3000 X45.629 Y13.401
G00 F1500 Z0
G01 F480 Z-0.200
G01 F480 X45.401 Y13.353
G01 F480 X45.189 Y13.258
G01 F480 X45.000 Y13.121
G01 F480 X44.844 Y12.948
G01 F480 X44.728 Y12.747
G01 F480 X44.656 Y12.525
G01 F480 X44.632 Y12.294
G01 F480 X44.656 Y12.062
G01 F480 X44.728 Y11.841
G01 F480 X44.844 Y11.639
G01 F480 X45.000 Y11.466
G01 F480 X45.189 Y11.329
G01 F480 X45.401 Y11.234
G01 F480 X45.629 Y11.186
G01 F480 X45.862 Y11.186
G01 F480 X46.090 Y11.234
G01 F480 X46.302 Y11.329
G01 F480 X46.491 Y11.466
G01 F480 X46.646 Y11.639
G01 F480 X46.763 Y11.841
G01 F480 X46.835 Y12.062
G01 F480 X46.859 Y12.294
G01 F480 X46.835 Y12.525
G01 F480 X46.763 Y12.747
G01 F480 X46.646 Y12.948
G01 F480 X46.491 Y13.121
G01 F480 X46.302 Y13.258
G01 F480 X46.090 Y13.353
G01 F480 X45.862 Y13.401
G01 F480 X45.629 Y13.401
G00 F3000 Z3.000
G00 F3000 X7.529 Y13.147
G00 F1500 Z0
G01 F480 Z-0.200
G01 F480 X7.301 Y13.099
G01 F480 X7.089 Y13.004
G01 F480 X6.900 Y12.867
G01 F480 X6.744 Y12.694
G01 F480 X6.628 Y12.493
G01 F480 X6.556 Y12.271
G01 F480 X6.532 Y12.040
G01 F480 X6.556 Y11.808
G01 F480 X6.628 Y11.587
G01 F480 X6.744 Y11.385
G01 F480 X6.900 Y11.212
G01 F480 X7.089 Y11.075
G01 F480 X7.301 Y10.980
G01 F480 X7.529 Y10.932
G01 F480 X7.762 Y10.932
G01 F480 X7.990 Y10.980
G01 F480 X8.202 Y11.075
G01 F480 X8.391 Y11.212
G01 F480 X8.546 Y11.385
G01 F480 X8.663 Y11.587
G01 F480 X8.735 Y11.808
G01 F480 X8.759 Y12.040
G01 F480 X8.735 Y12.271
G01 F480 X8.663 Y12.493
G01 F480 X8.546 Y12.694
G01 F480 X8.391 Y12.867
G01 F480 X8.202 Y13.004
G01 F480 X7.990 Y13.099
G01 F480 X7.762 Y13.147
G01 F480 X7.529 Y13.147
G00 F3000 Z3.000
G00 F3000 X25.309 Y13.147
G00 F1500 Z0
G01 F480 Z-0.200
G01 F480 X25.081 Y13.099
G01 F480 X24.869 Y13.004
G01 F480 X24.680 Y12.867
G01 F480 X24.524 Y12.694
G01 F480 X24.408 Y12.493
G01 F480 X24.336 Y12.271
G01 F480 X24.312 Y12.040
G01 F480 X24.336 Y11.808
G01 F480 X24.408 Y11.587
G01 F480 X24.524 Y11.385
G01 F480 X24.680 Y11.212
G01 F480 X24.869 Y11.075
G01 F480 X25.081 Y10.980
G01 F480 X25.309 Y10.932
G01 F480 X25.542 Y10.932
G01 F480 X25.770 Y10.980
G01 F480 X25.982 Y11.075
G01 F480 X26.171 Y11.212
G01 F480 X26.326 Y11.385
G01 F480 X26.443 Y11.587
G01 F480 X26.515 Y11.808
G01 F480 X26.539 Y12.040
G01 F480 X26.515 Y12.271
G01 F480 X26.443 Y12.493
G01 F480 X26.326 Y12.694
G01 F480 X26.171 Y12.867
G01 F480 X25.982 Y13.004
G01 F480 X25.770 Y13.099
G01 F480 X25.542 Y13.147
G01 F480 X25.309 Y13.147
G00 F3000 Z3.000
G00 F3000 X17.689 Y13.147
G00 F1500 Z0
G01 F480 Z-0.200
G01 F480 X17.461 Y13.099
G01 F480 X17.248 Y13.004
G01 F480 X17.060 Y12.867
G01 F480 X16.904 Y12.694
G01 F480 X16.788 Y12.493
G01 F480 X16.716 Y12.271
G01 F480 X16.692 Y12.040
G01 F480 X16.716 Y11.808
G01 F480 X16.788 Y11.587
G01 F480 X16.904 Y11.385
G01 F480 X17.060 Y11.212
G01 F480 X17.248 Y11.075
G01 F480 X17.461 Y10.980
G01 F480 X17.689 Y10.932
G01 F480 X17.922 Y10.932
G01 F480 X18.150 Y10.980
G01 F480 X18.362 Y11.075
G01 F480 X18.551 Y11.212
G01 F480 X18.706 Y11.385
G01 F480 X18.823 Y11.587
G01 F480 X18.895 Y11.808
G01 F480 X18.919 Y12.040
G01 F480 X18.895 Y12.271
G01 F480 X18.823 Y12.493
G01 F480 X18.706 Y12.694
G01 F480 X18.551 Y12.867
G01 F480 X18.362 Y13.004
G01 F480 X18.150 Y13.099
G01 F480 X17.922 Y13.147
G01 F480 X17.689 Y13.147
G00 F3000 Z3.000
G00 F3000 X53.249 Y13.147
G00 F1500 Z0
G01 F480 Z-0.200
G01 F480 X53.021 Y13.099
G01 F480 X52.809 Y13.004
G01 F480 X52.620 Y12.867
G01 F480 X52.464 Y12.694
G01 F480 X52.348 Y12.493
G01 F480 X52.276 Y12.271
G01 F480 X52.252 Y12.040
G01 F480 X52.276 Y11.808
G01 F480 X52.348 Y11.587
G01 F480 X52.464 Y11.385
G01 F480 X52.620 Y11.212
G01 F480 X52.809 Y11.075
G01 F480 X53.021 Y10.980
G01 F480 X53.249 Y10.932
G01 F480 X53.482 Y10.932
G01 F480 X53.710 Y10.980
G01 F480 X53.922 Y11.075
G01 F480 X54.111 Y11.212
G01 F480 X54.266 Y11.385
G01 F480 X54.383 Y11.587
G01 F480 X54.455 Y11.808
G01 F480 X54.479 Y12.040
G01 F480 X54.455 Y12.271
G01 F480 X54.383 Y12.493
G01 F480 X54.266 Y12.694
G01 F480 X54.111 Y12.867
G01 F480 X53.922 Y13.004
G01 F480 X53.710 Y13.099
G01 F480 X53.482 Y13.147
G01 F480 X53.249 Y13.147
G00 F3000 Z3.000
G00 F3000 X43.089 Y13.147
G00 F1500 Z0
G01 F480 Z-0.200
G01 F480 X42.861 Y13.099
G01 F480 X42.648 Y13.004
G01 F480 X42.460 Y12.867
G01 F480 X42.304 Y12.694
G01 F480 X42.188 Y12.493
G01 F480 X42.116 Y12.271
G01 F480 X42.092 Y12.040
G01 F480 X42.116 Y11.808
G01 F480 X42.188 Y11.587
G01 F480 X42.304 Y11.385
G01 F480 X42.460 Y11.212
G01 F480 X42.648 Y11.075
G01 F480 X42.861 Y10.980
G01 F480 X43.089 Y10.932
G01 F480 X43.322 Y10.932
G01 F480 X43.550 Y10.980
G01 F480 X43.762 Y11.075
G01 F480 X43.951 Y11.212
G01 F480 X44.106 Y11.385
G01 F480 X44.223 Y11.587
G01 F480 X44.295 Y11.808
G01 F480 X44.319 Y12.040
G01 F480 X44.295 Y12.271
G01 F480 X44.223 Y12.493
G01 F480 X44.106 Y12.694
G01 F480 X43.951 Y12.867
G01 F480 X43.762 Y13.004
G01 F480 X43.550 Y13.099
G01 F480 X43.322 Y13.147
G01 F480 X43.089 Y13.147
G00 F3000 Z3.000
G00 F3000 X15.127 Y59.330
G00 F1500 Z0
G01 F480 Z-0.200
G01 F480 X14.856 Y59.273
G01 F480 X14.604 Y59.160
G01 F480 X14.380 Y58.997
G01 F480 X14.195 Y58.792
G01 F480 X14.056 Y58.552
G01 F480 X13.995 Y58.364
G01 F480 X13.934 Y58.552
G01 F480 X13.796 Y58.791
G01 F480 X13.611 Y58.997
G01 F480 X13.387 Y59.160
G01 F480 X13.134 Y59.272
G01 F480 X12.864 Y59.330
G01 F480 X12.587 Y59.330
G01 F480 X12.317 Y59.272
G01 F480 X12.064 Y59.160
G01 F480 X11.840 Y58.997
G01 F480 X11.655 Y58.791
G01 F480 X11.517 Y58.552
G01 F480 X11.455 Y58.364
G01 F480 X11.394 Y58.552
G01 F480 X11.256 Y58.791
G01 F480 X11.071 Y58.997
G01 F480 X10.847 Y59.160
G01 F480 X10.594 Y59.272
G01 F480 X10.324 Y59.330
G01 F480 X10.047 Y59.330
G01 F480 X9.777 Y59.272
G01 F480 X9.524 Y59.160
G01 F480 X9.300 Y58.997
G01 F480 X9.115 Y58.791
G01 F480 X8.976 Y58.552
G01 F480 X8.915 Y58.364
G01 F480 X8.854 Y58.552
G01 F480 X8.716 Y58.791
G01 F480 X8.531 Y58.997
G01 F480 X8.307 Y59.160
G01 F480 X8.054 Y59.272
G01 F480 X7.784 Y59.330
G01 F480 X7.507 Y59.330
G01 F480 X7.237 Y59.272
G01 F480 X6.984 Y59.160
G01 F480 X6.760 Y58.997
G01 F480 X6.575 Y58.791
G01 F480 X6.437 Y58.552
G01 F480 X6.351 Y58.289
G01 F480 X6.322 Y58.014
G01 F480 X6.351 Y57.739
G01 F480 X6.437 Y57.475
G01 F480 X6.575 Y57.236
G01 F480 X6.760 Y57.030
G01 F480 X6.984 Y56.867
G01 F480 X7.237 Y56.755
G01 F480 X7.290 Y56.744
G01 F480 X7.237 Y56.732
G01 F480 X6.984 Y56.620
G01 F480 X6.760 Y56.457
G01 F480 X6.575 Y56.251
G01 F480 X6.437 Y56.012
G01 F480 X6.351 Y55.749
G01 F480 X6.322 Y55.474
G01 F480 X6.341 Y55.296
G01 F480 X4.588 Y53.543
G01 F480 X4.499 Y53.444
G01 F480 X4.417 Y53.302
G01 F480 X4.366 Y53.147
G01 F480 X4.351 Y53.004
G01 F480 X4.351 Y30.105
G01 F480 X4.366 Y29.962
G01 F480 X4.417 Y29.806
G01 F480 X4.499 Y29.665
G01 F480 X4.588 Y29.566
G01 F480 X7.130 Y26.998
G01 F480 X7.255 Y26.908
G01 F480 X7.404 Y26.841
G01 F480 X7.564 Y26.807
G01 F480 X11.946 Y26.807
G01 F480 X11.946 Y18.439
G01 F480 X11.837 Y18.360
G01 F480 X11.651 Y18.154
G01 F480 X11.513 Y17.914
G01 F480 X11.427 Y17.650
G01 F480 X11.398 Y17.374
G01 F480 X11.427 Y17.098
G01 F480 X11.513 Y16.834
G01 F480 X11.651 Y16.593
G01 F480 X11.810 Y16.417
G01 F480 X11.834 Y16.345
G01 F480 X11.915 Y16.203
G01 F480 X11.927 Y16.190
G01 F480 X11.945 Y13.089
G01 F480 X11.846 Y13.017
G01 F480 X11.662 Y12.812
G01 F480 X11.524 Y12.574
G01 F480 X11.484 Y12.450
G01 F480 X11.472 Y12.567
G01 F480 X11.387 Y12.828
G01 F480 X11.249 Y13.066
G01 F480 X11.065 Y13.271
G01 F480 X10.843 Y13.432
G01 F480 X10.592 Y13.544
G01 F480 X10.323 Y13.601
G01 F480 X10.048 Y13.601
G01 F480 X9.779 Y13.544
G01 F480 X9.528 Y13.432
G01 F480 X9.306 Y13.271
G01 F480 X9.122 Y13.066
G01 F480 X8.984 Y12.828
G01 F480 X8.899 Y12.567
G01 F480 X8.887 Y12.450
G01 F480 X8.847 Y12.574
G01 F480 X8.709 Y12.812
G01 F480 X8.525 Y13.017
G01 F480 X8.303 Y13.178
G01 F480 X8.052 Y13.290
G01 F480 X7.783 Y13.347
G01 F480 X7.508 Y13.347
G01 F480 X7.239 Y13.290
G01 F480 X6.988 Y13.178
G01 F480 X6.766 Y13.017
G01 F480 X6.582 Y12.812
G01 F480 X6.444 Y12.574
G01 F480 X6.359 Y12.313
G01 F480 X6.331 Y12.040
G01 F480 X6.359 Y11.766
G01 F480 X6.444 Y11.505
G01 F480 X6.582 Y11.267
G01 F480 X6.766 Y11.063
G01 F480 X6.988 Y10.901
G01 F480 X7.239 Y10.789
G01 F480 X7.508 Y10.732
G01 F480 X7.783 Y10.732
G01 F480 X8.052 Y10.789
G01 F480 X8.303 Y10.901
G01 F480 X8.525 Y11.063
G01 F480 X8.709 Y11.267
G01 F480 X8.847 Y11.505
G01 F480 X8.931 Y11.766
G01 F480 X8.944 Y11.883
G01 F480 X8.984 Y11.759
G01 F480 X9.122 Y11.521
G01 F480 X9.306 Y11.317
G01 F480 X9.528 Y11.155
G01 F480 X9.779 Y11.043
G01 F480 X10.048 Y10.986
G01 F480 X10.323 Y10.986
G01 F480 X10.592 Y11.043
G01 F480 X10.843 Y11.155
G01 F480 X11.065 Y11.317
G01 F480 X11.249 Y11.521
G01 F480 X11.387 Y11.759
G01 F480 X11.427 Y11.883
G01 F480 X11.439 Y11.766
G01 F480 X11.524 Y11.505
G01 F480 X11.662 Y11.267
G01 F480 X11.846 Y11.063
G01 F480 X12.068 Y10.901
G01 F480 X12.319 Y10.789
G01 F480 X12.588 Y10.732
G01 F480 X12.863 Y10.732
G01 F480 X13.132 Y10.789
G01 F480 X13.383 Y10.901
G01 F480 X13.605 Y11.063
G01 F480 X13.789 Y11.267
G01 F480 X13.927 Y11.505
G01 F480 X14.011 Y11.766
G01 F480 X14.024 Y11.883
G01 F480 X14.064 Y11.759
G01 F480 X14.202 Y11.521
G01 F480 X14.386 Y11.317
G01 F480 X14.608 Y11.155
G01 F480 X14.859 Y11.043
G01 F480 X15.128 Y10.986
G01 F480 X15.403 Y10.986
G01 F480 X15.672 Y11.043
G01 F480 X15.923 Y11.155
G01 F480 X16.145 Y11.317
G01 F480 X16.329 Y11.521
G01 F480 X16.467 Y11.759
G01 F480 X16.507 Y11.883
G01 F480 X16.519 Y11.766
G01 F480 X16.604 Y11.505
G01 F480 X16.742 Y11.267
G01 F480 X16.926 Y11.063
G01 F480 X17.148 Y10.901
G01 F480 X17.399 Y10.789
G01 F480 X17.668 Y10.732
G01 F480 X17.943 Y10.732
G01 F480 X18.212 Y10.789
G01 F480 X18.463 Y10.901
G01 F480 X18.685 Y11.063
G01 F480 X18.869 Y11.267
G01 F480 X19.007 Y11.505
G01 F480 X19.091 Y11.766
G01 F480 X19.104 Y11.883
G01 F480 X19.144 Y11.759
G01 F480 X19.282 Y11.521
G01 F480 X19.466 Y11.317
G01 F480 X19.688 Y11.155
G01 F480 X19.939 Y11.043
G01 F480 X20.208 Y10.986
G01 F480 X20.272 Y10.986
G01 F480 X24.776 Y4.205
G01 F480 X24.877 Y4.093
G01 F480 X25.009 Y3.997
G01 F480 X25.159 Y3.931
G01 F480 X25.318 Y3.896
G01 F480 X55.987 Y3.896
G01 F480 X56.147 Y3.931
G01 F480 X56.296 Y3.997
G01 F480 X56.421 Y4.088
G01 F480 X61.503 Y9.221
G01 F480 X61.592 Y9.320
G01 F480 X61.674 Y9.461
G01 F480 X61.724 Y9.617
G01 F480 X61.739 Y9.759
G01 F480 X61.739 Y30.068
G01 F480 X61.724 Y30.211
G01 F480 X61.674 Y30.366
G01 F480 X61.592 Y30.508
G01 F480 X61.504 Y30.605
G01 F480 X58.957 Y33.229
G01 F480 X57.200 Y34.963
G01 F480 X57.220 Y35.154
G01 F480 X57.200 Y35.349
G01 F480 X58.954 Y37.127
G01 F480 X61.502 Y39.649
G01 F480 X61.592 Y39.749
G01 F480 X61.674 Y39.890
G01 F480 X61.724 Y40.046
G01 F480 X61.739 Y40.188
G01 F480 X61.765 Y50.362
G01 F480 X61.750 Y50.505
G01 F480 X61.699 Y50.661
G01 F480 X61.618 Y50.802
G01 F480 X61.531 Y50.899
G01 F480 X58.963 Y53.569
G01 F480 X58.836 Y53.661
G01 F480 X58.687 Y53.727
G01 F480 X58.527 Y53.762
G01 F480 X56.247 Y53.762
G01 F480 X55.835 Y54.158
G01 F480 X56.044 Y54.158
G01 F480 X56.314 Y54.215
G01 F480 X56.567 Y54.328
G01 F480 X56.791 Y54.490
G01 F480 X56.976 Y54.696
G01 F480 X57.114 Y54.935
G01 F480 X57.200 Y55.199
G01 F480 X57.229 Y55.474
G01 F480 X57.200 Y55.749
G01 F480 X57.114 Y56.012
G01 F480 X56.976 Y56.251
G01 F480 X56.791 Y56.457
G01 F480 X56.567 Y56.620
G01 F480 X56.314 Y56.732
G01 F480 X56.261 Y56.744
G01 F480 X56.314 Y56.755
G01 F480 X56.567 Y56.867
G01 F480 X56.791 Y57.030
G01 F480 X56.976 Y57.236
G01 F480 X57.114 Y57.475
G01 F480 X57.200 Y57.739
G01 F480 X57.229 Y58.014
G01 F480 X57.200 Y58.289
G01 F480 X57.114 Y58.552
G01 F480 X56.976 Y58.791
G01 F480 X56.791 Y58.997
G01 F480 X56.567 Y59.160
G01 F480 X56.314 Y59.272
G01 F480 X56.044 Y59.330
G01 F480 X55.767 Y59.330
G01 F480 X55.497 Y59.272
G01 F480 X55.244 Y59.160
G01 F480 X55.020 Y58.997
G01 F480 X54.835 Y58.791
G01 F480 X54.697 Y58.552
G01 F480 X54.635 Y58.364
G01 F480 X54.574 Y58.552
G01 F480 X54.436 Y58.791
G01 F480 X54.251 Y58.997
G01 F480 X54.027 Y59.160
G01 F480 X53.774 Y59.272
G01 F480 X53.504 Y59.330
G01 F480 X53.227 Y59.330
G01 F480 X52.957 Y59.272
G01 F480 X52.704 Y59.160
G01 F480 X52.480 Y58.997
G01 F480 X52.295 Y58.791
G01 F480 X52.157 Y58.552
G01 F480 X52.095 Y58.364
G01 F480 X52.034 Y58.552
G01 F480 X51.896 Y58.791
G01 F480 X51.711 Y58.997
G01 F480 X51.487 Y59.160
G01 F480 X51.234 Y59.272
G01 F480 X50.964 Y59.330
G01 F480 X50.687 Y59.330
G01 F480 X50.416 Y59.272
G01 F480 X50.164 Y59.160
G01 F480 X49.940 Y58.997
G01 F480 X49.755 Y58.791
G01 F480 X49.617 Y58.552
G01 F480 X49.555 Y58.364
G01 F480 X49.494 Y58.552
G01 F480 X49.356 Y58.791
G01 F480 X49.171 Y58.997
G01 F480 X48.947 Y59.160
G01 F480 X48.694 Y59.272
G01 F480 X48.424 Y59.330
G01 F480 X48.147 Y59.330
G01 F480 X47.877 Y59.272
G01 F480 X47.624 Y59.160
G01 F480 X47.400 Y58.997
G01 F480 X47.215 Y58.791
G01 F480 X47.077 Y58.552
G01 F480 X47.016 Y58.364
G01 F480 X46.955 Y58.552
G01 F480 X46.816 Y58.792
G01 F480 X46.631 Y58.997
G01 F480 X46.407 Y59.160
G01 F480 X46.154 Y59.273
G01 F480 X45.884 Y59.330
G01 F480 X45.607 Y59.330
G01 F480 X45.336 Y59.273
G01 F480 X45.084 Y59.160
G01 F480 X44.860 Y58.997
G01 F480 X44.675 Y58.792
G01 F480 X44.536 Y58.552
G01 F480 X44.475 Y58.364
G01 F480 X44.414 Y58.552
G01 F480 X44.276 Y58.791
G01 F480 X44.091 Y58.997
G01 F480 X43.867 Y59.160
G01 F480 X43.614 Y59.272
G01 F480 X43.344 Y59.330
G01 F480 X43.067 Y59.330
G01 F480 X42.797 Y59.272
G01 F480 X42.544 Y59.160
G01 F480 X42.320 Y58.997
G01 F480 X42.135 Y58.791
G01 F480 X41.997 Y58.552
G01 F480 X41.935 Y58.364
G01 F480 X41.874 Y58.552
G01 F480 X41.736 Y58.791
G01 F480 X41.551 Y58.997
G01 F480 X41.327 Y59.160
G01 F480 X41.074 Y59.272
G01 F480 X40.804 Y59.330
G01 F480 X40.527 Y59.330
G01 F480 X40.257 Y59.272
G01 F480 X40.004 Y59.160
G01 F480 X39.780 Y58.997
G01 F480 X39.595 Y58.791
G01 F480 X39.456 Y58.552
G01 F480 X39.395 Y58.364
G01 F480 X39.334 Y58.552
G01 F480 X39.196 Y58.791
G01 F480 X39.011 Y58.997
G01 F480 X38.787 Y59.160
G01 F480 X38.534 Y59.272
G01 F480 X38.264 Y59.330
G01 F480 X37.987 Y59.330
G01 F480 X37.717 Y59.272
G01 F480 X37.464 Y59.160
G01 F480 X37.240 Y58.997
G01 F480 X37.055 Y58.791
G01 F480 X36.916 Y58.552
G01 F480 X36.855 Y58.364
G01 F480 X36.794 Y58.552
G01 F480 X36.656 Y58.791
G01 F480 X36.471 Y58.997
G01 F480 X36.247 Y59.160
G01 F480 X35.994 Y59.272
G01 F480 X35.724 Y59.330
G01 F480 X35.447 Y59.330
G01 F480 X35.177 Y59.272
G01 F480 X34.924 Y59.160
G01 F480 X34.700 Y58.997
G01 F480 X34.515 Y58.791
G01 F480 X34.377 Y58.552
G01 F480 X34.316 Y58.364
G01 F480 X34.255 Y58.552
G01 F480 X34.116 Y58.792
G01 F480 X33.931 Y58.997
G01 F480 X33.707 Y59.160
G01 F480 X33.454 Y59.273
G01 F480 X33.184 Y59.330
G01 F480 X32.907 Y59.330
G01 F480 X32.636 Y59.273
G01 F480 X32.384 Y59.160
G01 F480 X32.160 Y58.997
G01 F480 X31.975 Y58.792
G01 F480 X31.836 Y58.552
G01 F480 X31.775 Y58.364
G01 F480 X31.714 Y58.552
G01 F480 X31.576 Y58.791
G01 F480 X31.391 Y58.997
G01 F480 X31.167 Y59.160
G01 F480 X30.914 Y59.272
G01 F480 X30.644 Y59.330
G01 F480 X30.367 Y59.330
G01 F480 X30.097 Y59.272
G01 F480 X29.844 Y59.160
G01 F480 X29.620 Y58.997
G01 F480 X29.435 Y58.791
G01 F480 X29.297 Y58.552
G01 F480 X29.236 Y58.364
G01 F480 X29.175 Y58.552
G01 F480 X29.036 Y58.792
G01 F480 X28.851 Y58.997
G01 F480 X28.627 Y59.160
G01 F480 X28.374 Y59.273
G01 F480 X28.104 Y59.330
G01 F480 X27.827 Y59.330
G01 F480 X27.556 Y59.273
G01 F480 X27.304 Y59.160
G01 F480 X27.080 Y58.997
G01 F480 X26.895 Y58.792
G01 F480 X26.756 Y58.552
G01 F480 X26.695 Y58.364
G01 F480 X26.634 Y58.552
G01 F480 X26.496 Y58.791
G01 F480 X26.311 Y58.997
G01 F480 X26.087 Y59.160
G01 F480 X25.834 Y59.272
G01 F480 X25.564 Y59.330
G01 F480 X25.287 Y59.330
G01 F480 X25.017 Y59.272
G01 F480 X24.764 Y59.160
G01 F480 X24.540 Y58.997
G01 F480 X24.355 Y58.791
G01 F480 X24.216 Y58.552
G01 F480 X24.155 Y58.364
G01 F480 X24.094 Y58.552
G01 F480 X23.956 Y58.791
G01 F480 X23.771 Y58.997
G01 F480 X23.547 Y59.160
G01 F480 X23.294 Y59.272
G01 F480 X23.024 Y59.330
G01 F480 X22.747 Y59.330
G01 F480 X22.477 Y59.272
G01 F480 X22.224 Y59.160
G01 F480 X22.000 Y58.997
G01 F480 X21.815 Y58.791
G01 F480 X21.677 Y58.552
G01 F480 X21.615 Y58.364
G01 F480 X21.554 Y58.552
G01 F480 X21.416 Y58.791
G01 F480 X21.231 Y58.997
G01 F480 X21.007 Y59.160
G01 F480 X20.754 Y59.272
G01 F480 X20.484 Y59.330
G01 F480 X20.207 Y59.330
G01 F480 X19.937 Y59.272
G01 F480 X19.684 Y59.160
G01 F480 X19.460 Y58.997
G01 F480 X19.275 Y58.791
G01 F480 X19.137 Y58.552
G01 F480 X19.075 Y58.364
G01 F480 X19.014 Y58.552
G01 F480 X18.876 Y58.791
G01 F480 X18.691 Y58.997
G01 F480 X18.467 Y59.160
G01 F480 X18.214 Y59.272
G01 F480 X17.944 Y59.330
G01 F480 X17.667 Y59.330
G01 F480 X17.396 Y59.272
G01 F480 X17.144 Y59.160
G01 F480 X16.920 Y58.997
G01 F480 X16.735 Y58.791
G01 F480 X16.597 Y58.552
G01 F480 X16.536 Y58.364
G01 F480 X16.475 Y58.552
G01 F480 X16.336 Y58.792
G01 F480 X16.151 Y58.997
G01 F480 X15.927 Y59.160
G01 F480 X15.674 Y59.273
G01 F480 X15.404 Y59.330
G01 F480 X15.127 Y59.330
G00 F3000 Z3.000
G00 F3000 X8.915 Y57.663
G00 F1500 Z0
G01 F480 Z-0.200
G01 F480 X8.976 Y57.475
G01 F480 X9.115 Y57.236
G01 F480 X9.300 Y57.030
G01 F480 X9.524 Y56.867
G01 F480 X9.777 Y56.755
G01 F480 X9.830 Y56.744
G01 F480 X9.777 Y56.732
G01 F480 X9.524 Y56.620
G01 F480 X9.300 Y56.457
G01 F480 X9.115 Y56.251
G01 F480 X8.976 Y56.012
G01 F480 X8.915 Y55.824
G01 F480 X8.854 Y56.012
G01 F480 X8.716 Y56.251
G01 F480 X8.531 Y56.457
G01 F480 X8.307 Y56.620
G01 F480 X8.054 Y56.732
G01 F480 X8.001 Y56.744
G01 F480 X8.054 Y56.755
G01 F480 X8.307 Y56.867
G01 F480 X8.531 Y57.030
G01 F480 X8.716 Y57.236
G01 F480 X8.854 Y57.475
G01 F480 X8.915 Y57.663
G00 F3000 Z3.000
G00 F3000 X11.455 Y57.663
G00 F1500 Z0
G01 F480 Z-0.200
G01 F480 X11.517 Y57.475
G01 F480 X11.655 Y57.236
G01 F480 X11.840 Y57.030
G01 F480 X12.064 Y56.867
G01 F480 X12.317 Y56.755
G01 F480 X12.370 Y56.744
G01 F480 X12.317 Y56.732
G01 F480 X12.064 Y56.620
G01 F480 X11.840 Y56.457
G01 F480 X11.655 Y56.251
G01 F480 X11.517 Y56.012
G01 F480 X11.455 Y55.824
G01 F480 X11.394 Y56.012
G01 F480 X11.256 Y56.251
G01 F480 X11.071 Y56.457
G01 F480 X10.847 Y56.620
G01 F480 X10.594 Y56.732
G01 F480 X10.541 Y56.744
G01 F480 X10.594 Y56.755
G01 F480 X10.847 Y56.867
G01 F480 X11.071 Y57.030
G01 F480 X11.256 Y57.236
G01 F480 X11.394 Y57.475
G01 F480 X11.455 Y57.663
G00 F3000 Z3.000
G00 F3000 X19.075 Y57.663
G00 F1500 Z0
G01 F480 Z-0.200
G01 F480 X19.137 Y57.475
G01 F480 X19.275 Y57.236
G01 F480 X19.460 Y57.030
G01 F480 X19.684 Y56.867
G01 F480 X19.937 Y56.755
G01 F480 X19.990 Y56.744
G01 F480 X19.937 Y56.732
G01 F480 X19.684 Y56.620
G01 F480 X19.460 Y56.457
G01 F480 X19.275 Y56.251
G01 F480 X19.137 Y56.012
G01 F480 X19.075 Y55.824
G01 F480 X19.014 Y56.012
G01 F480 X18.876 Y56.251
G01 F480 X18.691 Y56.457
G01 F480 X18.467 Y56.620
G01 F480 X18.214 Y56.732
G01 F480 X18.161 Y56.744
G01 F480 X18.214 Y56.755
G01 F480 X18.467 Y56.867
G01 F480 X18.691 Y57.030
G01 F480 X18.876 Y57.236
G01 F480 X19.014 Y57.475
G01 F480 X19.075 Y57.663
G00 F3000 Z3.000
G00 F3000 X21.615 Y57.663
G00 F1500 Z0
G01 F480 Z-0.200
