( PCB drills )
( Generated by Rapid-PCB.com )
( Material Size)
( X= 72.290, Y= 100.000, Z= 1.490)
()
G00
G17
G21
G40
G49
G54
G80
G90
G94
G00 F3000 Z3.000
M03 S9000
G00 F3000 X53.358 Y55.479
G00 F1500 Z0
G01 F60 Z-2.000
G00 F3000 Z3.000
G00 F3000 X38.118 Y55.479
G00 F1500 Z0
G01 F60 Z-2.000
G00 F3000 Z3.000
G00 F3000 X10.178 Y58.019
G00 F1500 Z0
G01 F60 Z-2.000
G00 F3000 Z3.000
G00 F3000 X35.578 Y55.479
G00 F1500 Z0
G01 F60 Z-2.000
G00 F3000 Z3.000
G00 F3000 X48.278 Y58.019
G00 F1500 Z0
G01 F60 Z-2.000
G00 F3000 Z3.000
G00 F3000 X17.798 Y55.479
G00 F1500 Z0
G01 F60 Z-2.000
G00 F3000 Z3.000
G00 F3000 X25.418 Y58.019
G00 F1500 Z0
G01 F60 Z-2.000
G00 F3000 Z3.000
G00 F3000 X48.278 Y55.479
G00 F1500 Z0
G01 F60 Z-2.000
G00 F3000 Z3.000
G00 F3000 X53.358 Y58.019
G00 F1500 Z0
G01 F60 Z-2.000
G00 F3000 Z3.000
G00 F3000 X43.198 Y58.019
G00 F1500 Z0
G01 F60 Z-2.000
G00 F3000 Z3.000
G00 F3000 X30.498 Y58.019
G00 F1500 Z0
G01 F60 Z-2.000
G00 F3000 Z3.000
G00 F3000 X35.578 Y58.019
G00 F1500 Z0
G01 F60 Z-2.000
G00 F3000 Z3.000
G00 F3000 X20.335 Y55.479
G00 F1500 Z0
G01 F60 Z-2.000
G00 F3000 Z3.000
G00 F3000 X22.878 Y55.479
G00 F1500 Z0
G01 F60 Z-2.000
G00 F3000 Z3.000
G00 F3000 X12.718 Y58.019
G00 F1500 Z0
G01 F60 Z-2.000
G00 F3000 Z3.000
G00 F3000 X25.418 Y55.479
G00 F1500 Z0
G01 F60 Z-2.000
G00 F3000 Z3.000
G00 F3000 X12.718 Y55.479
G00 F1500 Z0
G01 F60 Z-2.000
G00 F3000 Z3.000
G00 F3000 X7.635 Y55.479
G00 F1500 Z0
G01 F60 Z-2.000
G00 F3000 Z3.000
G00 F3000 X50.818 Y58.019
G00 F1500 Z0
G01 F60 Z-2.000
G00 F3000 Z3.000
G00 F3000 X55.898 Y58.019
G00 F1500 Z0
G01 F60 Z-2.000
G00 F3000 Z3.000
G00 F3000 X17.798 Y58.019
G00 F1500 Z0
G01 F60 Z-2.000
G00 F3000 Z3.000
G00 F3000 X55.898 Y55.479
G00 F1500 Z0
G01 F60 Z-2.000
G00 F3000 Z3.000
G00 F3000 X30.498 Y55.479
G00 F1500 Z0
G01 F60 Z-2.000
G00 F3000 Z3.000
G00 F3000 X50.818 Y55.479
G00 F1500 Z0
G01 F60 Z-2.000
G00 F3000 Z3.000
G00 F3000 X43.198 Y55.479
G00 F1500 Z0
G01 F60 Z-2.000
G00 F3000 Z3.000
G00 F3000 X10.178 Y55.479
G00 F1500 Z0
G01 F60 Z-2.000
G00 F3000 Z3.000
G00 F3000 X20.335 Y58.019
G00 F1500 Z0
G01 F60 Z-2.000
G00 F3000 Z3.000
G00 F3000 X40.658 Y58.019
G00 F1500 Z0
G01 F60 Z-2.000
G00 F3000 Z3.000
G00 F3000 X22.878 Y58.019
G00 F1500 Z0
G01 F60 Z-2.000
G00 F3000 Z3.000
G00 F3000 X7.635 Y58.019
G00 F1500 Z0
G01 F60 Z-2.000
G00 F3000 Z3.000
G00 F3000 X40.658 Y55.479
G00 F1500 Z0
G01 F60 Z-2.000
G00 F3000 Z3.000
G00 F3000 X38.118 Y58.019
G00 F1500 Z0
G01 F60 Z-2.000
G00 F3000 Z3.000
G00 F3000 X35.578 Y12.045
G00 F1500 Z0
G01 F60 Z-2.000
G00 F3000 Z3.000
G00 F3000 X20.338 Y12.299
G00 F1500 Z0
G01 F60 Z-2.000
G00 F3000 Z3.000
G00 F3000 X20.338 Y35.159
G00 F1500 Z0
G01 F60 Z-2.000
G00 F3000 Z3.000
G00 F3000 X10.178 Y35.159
G00 F1500 Z0
G01 F60 Z-2.000
G00 F3000 Z3.000
G00 F3000 X17.798 Y34.905
G00 F1500 Z0
G01 F60 Z-2.000
G00 F3000 Z3.000
G00 F3000 X45.738 Y12.299
G00 F1500 Z0
G01 F60 Z-2.000
G00 F3000 Z3.000
G00 F3000 X12.718 Y34.905
G00 F1500 Z0
G01 F60 Z-2.000
G00 F3000 Z3.000
G00 F3000 X27.958 Y35.159
G00 F1500 Z0
G01 F60 Z-2.000
G00 F3000 Z3.000
G00 F3000 X33.038 Y12.299
G00 F1500 Z0
G01 F60 Z-2.000
G00 F3000 Z3.000
G00 F3000 X33.038 Y35.159
G00 F1500 Z0
G01 F60 Z-2.000
G00 F3000 Z3.000
G00 F3000 X38.118 Y35.159
G00 F1500 Z0
G01 F60 Z-2.000
G00 F3000 Z3.000
G00 F3000 X25.418 Y12.045
G00 F1500 Z0
G01 F60 Z-2.000
G00 F3000 Z3.000
G00 F3000 X7.638 Y12.045
G00 F1500 Z0
G01 F60 Z-2.000
G00 F3000 Z3.000
G00 F3000 X12.718 Y12.045
G00 F1500 Z0
G01 F60 Z-2.000
G00 F3000 Z3.000
G00 F3000 X10.178 Y12.299
G00 F1500 Z0
G01 F60 Z-2.000
G00 F3000 Z3.000
G00 F3000 X27.958 Y12.299
G00 F1500 Z0
G01 F60 Z-2.000
G00 F3000 Z3.000
G00 F3000 X15.258 Y12.299
G00 F1500 Z0
G01 F60 Z-2.000
G00 F3000 Z3.000
G00 F3000 X35.578 Y34.905
G00 F1500 Z0
G01 F60 Z-2.000
G00 F3000 Z3.000
G00 F3000 X53.358 Y12.045
G00 F1500 Z0
G01 F60 Z-2.000
G00 F3000 Z3.000
G00 F3000 X55.898 Y35.159
G00 F1500 Z0
G01 F60 Z-2.000
G00 F3000 Z3.000
G00 F3000 X15.258 Y35.159
G00 F1500 Z0
G01 F60 Z-2.000
G00 F3000 Z3.000
G00 F3000 X38.118 Y12.299
G00 F1500 Z0
G01 F60 Z-2.000
G00 F3000 Z3.000
G00 F3000 X30.498 Y12.045
G00 F1500 Z0
G01 F60 Z-2.000
G00 F3000 Z3.000
G00 F3000 X48.278 Y34.905
G00 F1500 Z0
G01 F60 Z-2.000
G00 F3000 Z3.000
G00 F3000 X7.638 Y34.905
G00 F1500 Z0
G01 F60 Z-2.000
G00 F3000 Z3.000
G00 F3000 X53.358 Y34.905
G00 F1500 Z0
G01 F60 Z-2.000
G00 F3000 Z3.000
G00 F3000 X50.818 Y35.159
G00 F1500 Z0
G01 F60 Z-2.000
G00 F3000 Z3.000
G00 F3000 X43.198 Y12.045
G00 F1500 Z0
G01 F60 Z-2.000
G00 F3000 Z3.000
G00 F3000 X17.798 Y12.045
G00 F1500 Z0
G01 F60 Z-2.000
G00 F3000 Z3.000
G00 F3000 X48.278 Y12.045
G00 F1500 Z0
G01 F60 Z-2.000
G00 F3000 Z3.000
G00 F3000 X30.498 Y34.905
G00 F1500 Z0
G01 F60 Z-2.000
G00 F3000 Z3.000
G00 F3000 X45.738 Y35.159
G00 F1500 Z0
G01 F60 Z-2.000
G00 F3000 Z3.000
G00 F3000 X43.198 Y34.905
G00 F1500 Z0
G01 F60 Z-2.000
G00 F3000 Z3.000
G00 F3000 X55.898 Y12.299
G00 F1500 Z0
G01 F60 Z-2.000
G00 F3000 Z3.000
G00 F3000 X50.818 Y12.299
G00 F1500 Z0
G01 F60 Z-2.000
G00 F3000 Z3.000
G00 F3000 X25.418 Y34.905
G00 F1500 Z0
G01 F60 Z-2.000
G00 F3000 Z3.000
G00 F3000 X30.498 Y40.239
G00 F1500 Z0
G01 F60 Z-2.000
G00 F3000 Z3.000
G00 F3000 X40.658 Y17.379
G00 F1500 Z0
G01 F60 Z-2.000
G00 F3000 Z3.000
G00 F3000 X12.718 Y17.379
G00 F1500 Z0
G01 F60 Z-2.000
G00 F3000 Z3.000
G00 F3000 X22.878 Y17.379
G00 F1500 Z0
G01 F60 Z-2.000
G00 F3000 Z3.000
G00 F3000 X48.278 Y17.379
G00 F1500 Z0
G01 F60 Z-2.000
G00 F3000 Z3.000
G00 F3000 X58.438 Y40.239
G00 F1500 Z0
G01 F60 Z-2.000
G00 F3000 Z3.000
G00 F3000 X40.658 Y40.239
G00 F1500 Z0
G01 F60 Z-2.000
G00 F3000 Z3.000
G00 F3000 X12.718 Y40.239
G00 F1500 Z0
G01 F60 Z-2.000
G00 F3000 Z3.000
G00 F3000 X58.438 Y17.379
G00 F1500 Z0
G01 F60 Z-2.000
G00 F3000 Z3.000
G00 F3000 X22.878 Y40.239
G00 F1500 Z0
G01 F60 Z-2.000
G00 F3000 Z3.000
G00 F3000 X48.278 Y40.239
G00 F1500 Z0
G01 F60 Z-2.000
G00 F3000 Z3.000
G00 F3000 X30.498 Y17.379
G00 F1500 Z0
G01 F60 Z-2.000
G00 F3000 Z3.000
G00 F3000 X22.878 Y24.999
G00 F1500 Z0
G01 F60 Z-2.000
G00 F3000 Z3.000
G00 F3000 X30.498 Y50.399
G00 F1500 Z0
G01 F60 Z-2.000
G00 F3000 Z3.000
G00 F3000 X38.118 Y47.859
G00 F1500 Z0
G01 F60 Z-2.000
G00 F3000 Z3.000
G00 F3000 X50.818 Y24.958
G00 F1500 Z0
G01 F60 Z-2.000
G00 F3000 Z3.000
G00 F3000 X50.818 Y45.319
G00 F1500 Z0
G01 F60 Z-2.000
G00 F3000 Z3.000
G00 F3000 X15.258 Y47.818
G00 F1500 Z0
G01 F60 Z-2.000
G00 F3000 Z3.000
G00 F3000 X33.038 Y45.319
G00 F1500 Z0
G01 F60 Z-2.000
G00 F3000 Z3.000
G00 F3000 X15.258 Y24.958
G00 F1500 Z0
G01 F60 Z-2.000
G00 F3000 Z3.000
G00 F3000 X15.258 Y45.319
G00 F1500 Z0
G01 F60 Z-2.000
G00 F3000 Z3.000
G00 F3000 X50.818 Y47.818
G00 F1500 Z0
G01 F60 Z-2.000
G00 F3000 Z3.000
G00 F3000 X50.818 Y22.459
G00 F1500 Z0
G01 F60 Z-2.000
G00 F3000 Z3.000
G00 F3000 X33.038 Y24.958
G00 F1500 Z0
G01 F60 Z-2.000
G00 F3000 Z3.000
G00 F3000 X33.038 Y47.818
G00 F1500 Z0
G01 F60 Z-2.000
G00 F3000 Z3.000
G00 F3000 X33.038 Y22.459
G00 F1500 Z0
G01 F60 Z-2.000
G00 F3000 Z3.000
G00 F3000 X15.258 Y22.459
G00 F1500 Z0
G01 F60 Z-2.000
G00 F3000 Z3.000
G00 F3000 X15.258 Y58.019
G00 F1500 Z0
G01 F60 Z-2.000
G00 F3000 Z3.000
G00 F3000 X33.038 Y58.019
G00 F1500 Z0
G01 F60 Z-2.000
G00 F3000 Z3.000
G00 F3000 X27.958 Y55.479
G00 F1500 Z0
G01 F60 Z-2.000
G00 F3000 Z3.000
G00 F3000 X45.738 Y58.019
G00 F1500 Z0
G01 F60 Z-2.000
G00 F3000 Z3.000
G00 F3000 X33.038 Y55.479
G00 F1500 Z0
G01 F60 Z-2.000
G00 F3000 Z3.000
G00 F3000 X15.258 Y55.479
G00 F1500 Z0
G01 F60 Z-2.000
G00 F3000 Z3.000
G00 F3000 X45.738 Y55.479
G00 F1500 Z0
G01 F60 Z-2.000
G00 F3000 Z3.000
G00 F3000 X27.958 Y58.019
G00 F1500 Z0
G01 F60 Z-2.000
G00 F3000 Z3.000
G00 F3000 Z3.000
G00 F3000 X0.000 Y0.000
M05
M30
%