( PCB Contour )
( Generated by Rapid-PCB.com )
( Material Size)
( X= 72.290, Y= 100.000, Z= 1.490)
()
G00
G17
G21
G40
G49
G54
G80
G90
G94
G00 F3000 Z3.000
M03 S9000
G00 F3000 X27.861 Y59.007
G00 F1500 Z0
G01 F600 Z-0.200
G01 F600 X27.657 Y58.964
G01 F600 X27.466 Y58.879
G01 F600 X27.297 Y58.756
G01 F600 X27.157 Y58.601
G01 F600 X27.053 Y58.420
G01 F600 X26.988 Y58.221
G01 F600 X26.966 Y58.014
G01 F600 X26.988 Y57.806
G01 F600 X27.053 Y57.607
G01 F600 X27.157 Y57.426
G01 F600 X27.297 Y57.271
G01 F600 X27.466 Y57.148
G01 F600 X27.657 Y57.063
G01 F600 X27.861 Y57.020
G01 F600 X28.070 Y57.020
G01 F600 X28.274 Y57.063
G01 F600 X28.465 Y57.148
G01 F600 X28.634 Y57.271
G01 F600 X28.774 Y57.426
G01 F600 X28.878 Y57.607
G01 F600 X28.943 Y57.806
G01 F600 X28.965 Y58.014
G01 F600 X28.943 Y58.221
G01 F600 X28.878 Y58.420
G01 F600 X28.774 Y58.601
G01 F600 X28.634 Y58.756
G01 F600 X28.465 Y58.879
G01 F600 X28.274 Y58.964
G01 F600 X28.070 Y59.007
G01 F600 X27.861 Y59.007
G00 F3000 Z3.000
G00 F3000 X32.941 Y59.007
G00 F1500 Z0
G01 F600 Z-0.200
G01 F600 X32.737 Y58.964
G01 F600 X32.546 Y58.879
G01 F600 X32.377 Y58.756
G01 F600 X32.237 Y58.601
G01 F600 X32.133 Y58.420
G01 F600 X32.068 Y58.221
G01 F600 X32.046 Y58.014
G01 F600 X32.068 Y57.806
G01 F600 X32.133 Y57.607
G01 F600 X32.237 Y57.426
G01 F600 X32.377 Y57.271
G01 F600 X32.546 Y57.148
G01 F600 X32.737 Y57.063
G01 F600 X32.941 Y57.020
G01 F600 X33.150 Y57.020
G01 F600 X33.354 Y57.063
G01 F600 X33.545 Y57.148
G01 F600 X33.714 Y57.271
G01 F600 X33.854 Y57.426
G01 F600 X33.958 Y57.607
G01 F600 X34.023 Y57.806
G01 F600 X34.044 Y58.014
G01 F600 X34.023 Y58.221
G01 F600 X33.958 Y58.420
G01 F600 X33.854 Y58.601
G01 F600 X33.714 Y58.756
G01 F600 X33.545 Y58.879
G01 F600 X33.354 Y58.964
G01 F600 X33.150 Y59.007
G01 F600 X32.941 Y59.007
G00 F3000 Z3.000
G00 F3000 X45.641 Y59.007
G00 F1500 Z0
G01 F600 Z-0.200
G01 F600 X45.437 Y58.964
G01 F600 X45.246 Y58.879
G01 F600 X45.077 Y58.756
G01 F600 X44.937 Y58.601
G01 F600 X44.833 Y58.420
G01 F600 X44.768 Y58.221
G01 F600 X44.746 Y58.014
G01 F600 X44.768 Y57.806
G01 F600 X44.833 Y57.607
G01 F600 X44.937 Y57.426
G01 F600 X45.077 Y57.271
G01 F600 X45.246 Y57.148
G01 F600 X45.437 Y57.063
G01 F600 X45.641 Y57.020
G01 F600 X45.850 Y57.020
G01 F600 X46.054 Y57.063
G01 F600 X46.245 Y57.148
G01 F600 X46.414 Y57.271
G01 F600 X46.554 Y57.426
G01 F600 X46.658 Y57.607
G01 F600 X46.723 Y57.806
G01 F600 X46.745 Y58.014
G01 F600 X46.723 Y58.221
G01 F600 X46.658 Y58.420
G01 F600 X46.554 Y58.601
G01 F600 X46.414 Y58.756
G01 F600 X46.245 Y58.879
G01 F600 X46.054 Y58.964
G01 F600 X45.850 Y59.007
G01 F600 X45.641 Y59.007
G00 F3000 Z3.000
G00 F3000 X15.161 Y59.007
G00 F1500 Z0
G01 F600 Z-0.200
G01 F600 X14.957 Y58.964
G01 F600 X14.766 Y58.879
G01 F600 X14.597 Y58.756
G01 F600 X14.457 Y58.601
G01 F600 X14.353 Y58.420
G01 F600 X14.288 Y58.221
G01 F600 X14.266 Y58.014
G01 F600 X14.288 Y57.806
G01 F600 X14.353 Y57.607
G01 F600 X14.457 Y57.426
G01 F600 X14.597 Y57.271
G01 F600 X14.766 Y57.148
G01 F600 X14.957 Y57.063
G01 F600 X15.161 Y57.020
G01 F600 X15.370 Y57.020
G01 F600 X15.574 Y57.063
G01 F600 X15.765 Y57.148
G01 F600 X15.934 Y57.271
G01 F600 X16.074 Y57.426
G01 F600 X16.178 Y57.607
G01 F600 X16.243 Y57.806
G01 F600 X16.265 Y58.014
G01 F600 X16.243 Y58.221
G01 F600 X16.178 Y58.420
G01 F600 X16.074 Y58.601
G01 F600 X15.934 Y58.756
G01 F600 X15.765 Y58.879
G01 F600 X15.574 Y58.964
G01 F600 X15.370 Y59.007
G01 F600 X15.161 Y59.007
G00 F3000 Z3.000
G00 F3000 X30.401 Y59.007
G00 F1500 Z0
G01 F600 Z-0.200
G01 F600 X30.197 Y58.964
G01 F600 X30.006 Y58.879
G01 F600 X29.837 Y58.756
G01 F600 X29.697 Y58.601
G01 F600 X29.593 Y58.420
G01 F600 X29.529 Y58.221
G01 F600 X29.507 Y58.014
G01 F600 X29.529 Y57.806
G01 F600 X29.593 Y57.607
G01 F600 X29.697 Y57.427
G01 F600 X29.837 Y57.271
G01 F600 X30.006 Y57.149
G01 F600 X30.197 Y57.064
G01 F600 X30.401 Y57.020
G01 F600 X30.610 Y57.020
G01 F600 X30.814 Y57.064
G01 F600 X31.005 Y57.149
G01 F600 X31.174 Y57.271
G01 F600 X31.313 Y57.427
G01 F600 X31.418 Y57.607
G01 F600 X31.482 Y57.806
G01 F600 X31.504 Y58.014
G01 F600 X31.482 Y58.221
G01 F600 X31.418 Y58.420
G01 F600 X31.313 Y58.601
G01 F600 X31.174 Y58.756
G01 F600 X31.005 Y58.879
G01 F600 X30.814 Y58.964
G01 F600 X30.610 Y59.007
G01 F600 X30.401 Y59.007
G00 F3000 Z3.000
G00 F3000 X35.481 Y59.007
G00 F1500 Z0
G01 F600 Z-0.200
G01 F600 X35.277 Y58.964
G01 F600 X35.086 Y58.879
G01 F600 X34.917 Y58.756
G01 F600 X34.777 Y58.601
G01 F600 X34.673 Y58.420
G01 F600 X34.608 Y58.221
G01 F600 X34.587 Y58.014
G01 F600 X34.608 Y57.806
G01 F600 X34.673 Y57.607
G01 F600 X34.777 Y57.427
G01 F600 X34.917 Y57.271
G01 F600 X35.086 Y57.149
G01 F600 X35.277 Y57.064
G01 F600 X35.481 Y57.020
G01 F600 X35.690 Y57.020
G01 F600 X35.894 Y57.064
G01 F600 X36.085 Y57.149
G01 F600 X36.254 Y57.271
G01 F600 X36.393 Y57.427
G01 F600 X36.498 Y57.607
G01 F600 X36.562 Y57.806
G01 F600 X36.584 Y58.014
G01 F600 X36.562 Y58.221
G01 F600 X36.498 Y58.420
G01 F600 X36.393 Y58.601
G01 F600 X36.254 Y58.756
G01 F600 X36.085 Y58.879
G01 F600 X35.894 Y58.964
G01 F600 X35.690 Y59.007
G01 F600 X35.481 Y59.007
G00 F3000 Z3.000
G00 F3000 X20.241 Y59.007
G00 F1500 Z0
G01 F600 Z-0.200
G01 F600 X20.037 Y58.964
G01 F600 X19.846 Y58.879
G01 F600 X19.677 Y58.756
G01 F600 X19.537 Y58.601
G01 F600 X19.433 Y58.420
G01 F600 X19.369 Y58.221
G01 F600 X19.347 Y58.014
G01 F600 X19.369 Y57.806
G01 F600 X19.433 Y57.607
G01 F600 X19.537 Y57.427
G01 F600 X19.677 Y57.271
G01 F600 X19.846 Y57.149
G01 F600 X20.037 Y57.064
G01 F600 X20.241 Y57.020
G01 F600 X20.450 Y57.020
G01 F600 X20.654 Y57.064
G01 F600 X20.845 Y57.149
G01 F600 X21.014 Y57.271
G01 F600 X21.153 Y57.427
G01 F600 X21.258 Y57.607
G01 F600 X21.322 Y57.806
G01 F600 X21.344 Y58.014
G01 F600 X21.322 Y58.221
G01 F600 X21.258 Y58.420
G01 F600 X21.153 Y58.601
G01 F600 X21.014 Y58.756
G01 F600 X20.845 Y58.879
G01 F600 X20.654 Y58.964
G01 F600 X20.450 Y59.007
G01 F600 X20.241 Y59.007
G00 F3000 Z3.000
G00 F3000 X17.701 Y59.007
G00 F1500 Z0
G01 F600 Z-0.200
G01 F600 X17.497 Y58.964
G01 F600 X17.306 Y58.879
G01 F600 X17.137 Y58.756
G01 F600 X16.997 Y58.601
G01 F600 X16.893 Y58.420
G01 F600 X16.829 Y58.221
G01 F600 X16.807 Y58.014
G01 F600 X16.829 Y57.806
G01 F600 X16.893 Y57.607
G01 F600 X16.997 Y57.427
G01 F600 X17.137 Y57.271
G01 F600 X17.306 Y57.149
G01 F600 X17.497 Y57.064
G01 F600 X17.701 Y57.020
G01 F600 X17.910 Y57.020
G01 F600 X18.114 Y57.064
G01 F600 X18.305 Y57.149
G01 F600 X18.474 Y57.271
G01 F600 X18.613 Y57.427
G01 F600 X18.718 Y57.607
G01 F600 X18.782 Y57.806
G01 F600 X18.804 Y58.014
G01 F600 X18.782 Y58.221
G01 F600 X18.718 Y58.420
G01 F600 X18.613 Y58.601
G01 F600 X18.474 Y58.756
G01 F600 X18.305 Y58.879
G01 F600 X18.114 Y58.964
G01 F600 X17.910 Y59.007
G01 F600 X17.701 Y59.007
G00 F3000 Z3.000
G00 F3000 X25.321 Y59.007
G00 F1500 Z0
G01 F600 Z-0.200
G01 F600 X25.117 Y58.964
G01 F600 X24.926 Y58.879
G01 F600 X24.757 Y58.756
G01 F600 X24.617 Y58.601
G01 F600 X24.513 Y58.420
G01 F600 X24.449 Y58.221
G01 F600 X24.427 Y58.014
G01 F600 X24.449 Y57.806
G01 F600 X24.513 Y57.607
G01 F600 X24.617 Y57.427
G01 F600 X24.757 Y57.271
G01 F600 X24.926 Y57.149
G01 F600 X25.117 Y57.064
G01 F600 X25.321 Y57.020
G01 F600 X25.530 Y57.020
G01 F600 X25.734 Y57.064
G01 F600 X25.925 Y57.149
G01 F600 X26.094 Y57.271
G01 F600 X26.233 Y57.427
G01 F600 X26.338 Y57.607
G01 F600 X26.402 Y57.806
G01 F600 X26.424 Y58.014
G01 F600 X26.402 Y58.221
G01 F600 X26.338 Y58.420
G01 F600 X26.233 Y58.601
G01 F600 X26.094 Y58.756
G01 F600 X25.925 Y58.879
G01 F600 X25.734 Y58.964
G01 F600 X25.530 Y59.007
G01 F600 X25.321 Y59.007
G00 F3000 Z3.000
G00 F3000 X22.781 Y59.007
G00 F1500 Z0
G01 F600 Z-0.200
G01 F600 X22.577 Y58.964
G01 F600 X22.386 Y58.879
G01 F600 X22.217 Y58.756
G01 F600 X22.077 Y58.601
G01 F600 X21.973 Y58.420
G01 F600 X21.909 Y58.221
G01 F600 X21.887 Y58.014
G01 F600 X21.909 Y57.806
G01 F600 X21.973 Y57.607
G01 F600 X22.077 Y57.427
G01 F600 X22.217 Y57.271
G01 F600 X22.386 Y57.149
G01 F600 X22.577 Y57.064
G01 F600 X22.781 Y57.020
G01 F600 X22.990 Y57.020
G01 F600 X23.194 Y57.064
G01 F600 X23.385 Y57.149
G01 F600 X23.554 Y57.271
G01 F600 X23.693 Y57.427
G01 F600 X23.798 Y57.607
G01 F600 X23.862 Y57.806
G01 F600 X23.884 Y58.014
G01 F600 X23.862 Y58.221
G01 F600 X23.798 Y58.420
G01 F600 X23.693 Y58.601
G01 F600 X23.554 Y58.756
G01 F600 X23.385 Y58.879
G01 F600 X23.194 Y58.964
G01 F600 X22.990 Y59.007
G01 F600 X22.781 Y59.007
G00 F3000 Z3.000
G00 F3000 X50.721 Y59.007
G00 F1500 Z0
G01 F600 Z-0.200
G01 F600 X50.517 Y58.964
G01 F600 X50.326 Y58.879
G01 F600 X50.157 Y58.756
G01 F600 X50.017 Y58.601
G01 F600 X49.913 Y58.420
G01 F600 X49.849 Y58.221
G01 F600 X49.827 Y58.014
G01 F600 X49.849 Y57.806
G01 F600 X49.913 Y57.607
G01 F600 X50.017 Y57.427
G01 F600 X50.157 Y57.271
G01 F600 X50.326 Y57.149
G01 F600 X50.517 Y57.064
G01 F600 X50.721 Y57.020
G01 F600 X50.930 Y57.020
G01 F600 X51.134 Y57.064
G01 F600 X51.325 Y57.149
G01 F600 X51.494 Y57.271
G01 F600 X51.633 Y57.427
G01 F600 X51.738 Y57.607
G01 F600 X51.802 Y57.806
G01 F600 X51.824 Y58.014
G01 F600 X51.802 Y58.221
G01 F600 X51.738 Y58.420
G01 F600 X51.633 Y58.601
G01 F600 X51.494 Y58.756
G01 F600 X51.325 Y58.879
G01 F600 X51.134 Y58.964
G01 F600 X50.930 Y59.007
G01 F600 X50.721 Y59.007
G00 F3000 Z3.000
G00 F3000 X48.181 Y59.007
G00 F1500 Z0
G01 F600 Z-0.200
G01 F600 X47.977 Y58.964
G01 F600 X47.786 Y58.879
G01 F600 X47.617 Y58.756
G01 F600 X47.477 Y58.601
G01 F600 X47.373 Y58.420
G01 F600 X47.309 Y58.221
G01 F600 X47.287 Y58.014
G01 F600 X47.309 Y57.806
G01 F600 X47.373 Y57.607
G01 F600 X47.477 Y57.427
G01 F600 X47.617 Y57.271
G01 F600 X47.786 Y57.149
G01 F600 X47.977 Y57.064
G01 F600 X48.181 Y57.020
G01 F600 X48.390 Y57.020
G01 F600 X48.594 Y57.064
G01 F600 X48.785 Y57.149
G01 F600 X48.954 Y57.271
G01 F600 X49.093 Y57.427
G01 F600 X49.198 Y57.607
G01 F600 X49.262 Y57.806
G01 F600 X49.284 Y58.014
G01 F600 X49.262 Y58.221
G01 F600 X49.198 Y58.420
G01 F600 X49.093 Y58.601
G01 F600 X48.954 Y58.756
G01 F600 X48.785 Y58.879
G01 F600 X48.594 Y58.964
G01 F600 X48.390 Y59.007
G01 F600 X48.181 Y59.007
G00 F3000 Z3.000
G00 F3000 X55.801 Y59.007
G00 F1500 Z0
G01 F600 Z-0.200
G01 F600 X55.597 Y58.964
G01 F600 X55.406 Y58.879
G01 F600 X55.237 Y58.756
G01 F600 X55.097 Y58.601
G01 F600 X54.993 Y58.420
G01 F600 X54.928 Y58.221
G01 F600 X54.907 Y58.014
G01 F600 X54.928 Y57.806
G01 F600 X54.993 Y57.607
G01 F600 X55.097 Y57.427
G01 F600 X55.237 Y57.271
G01 F600 X55.406 Y57.149
G01 F600 X55.597 Y57.064
G01 F600 X55.801 Y57.020
G01 F600 X56.010 Y57.020
G01 F600 X56.214 Y57.064
G01 F600 X56.405 Y57.149
G01 F600 X56.574 Y57.271
G01 F600 X56.713 Y57.427
G01 F600 X56.818 Y57.607
G01 F600 X56.882 Y57.806
G01 F600 X56.904 Y58.014
G01 F600 X56.882 Y58.221
G01 F600 X56.818 Y58.420
G01 F600 X56.713 Y58.601
G01 F600 X56.574 Y58.756
G01 F600 X56.405 Y58.879
G01 F600 X56.214 Y58.964
G01 F600 X56.010 Y59.007
G01 F600 X55.801 Y59.007
G00 F3000 Z3.000
G00 F3000 X53.261 Y59.007
G00 F1500 Z0
G01 F600 Z-0.200
G01 F600 X53.057 Y58.964
G01 F600 X52.866 Y58.879
G01 F600 X52.697 Y58.756
G01 F600 X52.557 Y58.601
G01 F600 X52.453 Y58.420
G01 F600 X52.389 Y58.221
G01 F600 X52.367 Y58.014
G01 F600 X52.389 Y57.806
G01 F600 X52.453 Y57.607
G01 F600 X52.557 Y57.427
G01 F600 X52.697 Y57.271
G01 F600 X52.866 Y57.149
G01 F600 X53.057 Y57.064
G01 F600 X53.261 Y57.020
G01 F600 X53.470 Y57.020
G01 F600 X53.674 Y57.064
G01 F600 X53.865 Y57.149
G01 F600 X54.034 Y57.271
G01 F600 X54.173 Y57.427
G01 F600 X54.278 Y57.607
G01 F600 X54.342 Y57.806
G01 F600 X54.364 Y58.014
G01 F600 X54.342 Y58.221
G01 F600 X54.278 Y58.420
G01 F600 X54.173 Y58.601
G01 F600 X54.034 Y58.756
G01 F600 X53.865 Y58.879
G01 F600 X53.674 Y58.964
G01 F600 X53.470 Y59.007
G01 F600 X53.261 Y59.007
G00 F3000 Z3.000
G00 F3000 X40.561 Y59.007
G00 F1500 Z0
G01 F600 Z-0.200
G01 F600 X40.357 Y58.964
G01 F600 X40.166 Y58.879
G01 F600 X39.997 Y58.756
G01 F600 X39.857 Y58.601
G01 F600 X39.753 Y58.420
G01 F600 X39.689 Y58.221
G01 F600 X39.667 Y58.014
G01 F600 X39.689 Y57.806
G01 F600 X39.753 Y57.607
G01 F600 X39.857 Y57.427
G01 F600 X39.997 Y57.271
G01 F600 X40.166 Y57.149
G01 F600 X40.357 Y57.064
G01 F600 X40.561 Y57.020
G01 F600 X40.770 Y57.020
G01 F600 X40.974 Y57.064
G01 F600 X41.165 Y57.149
G01 F600 X41.334 Y57.271
G01 F600 X41.473 Y57.427
G01 F600 X41.578 Y57.607
G01 F600 X41.642 Y57.806
G01 F600 X41.664 Y58.014
G01 F600 X41.642 Y58.221
G01 F600 X41.578 Y58.420
G01 F600 X41.473 Y58.601
G01 F600 X41.334 Y58.756
G01 F600 X41.165 Y58.879
G01 F600 X40.974 Y58.964
G01 F600 X40.770 Y59.007
G01 F600 X40.561 Y59.007
G00 F3000 Z3.000
G00 F3000 X38.021 Y59.007
G00 F1500 Z0
G01 F600 Z-0.200
G01 F600 X37.817 Y58.964
G01 F600 X37.626 Y58.879
G01 F600 X37.457 Y58.756
G01 F600 X37.317 Y58.601
G01 F600 X37.213 Y58.420
G01 F600 X37.148 Y58.221
G01 F600 X37.127 Y58.014
G01 F600 X37.148 Y57.806
G01 F600 X37.213 Y57.607
G01 F600 X37.317 Y57.427
G01 F600 X37.457 Y57.271
G01 F600 X37.626 Y57.149
G01 F600 X37.817 Y57.064
G01 F600 X38.021 Y57.020
G01 F600 X38.230 Y57.020
G01 F600 X38.434 Y57.064
G01 F600 X38.625 Y57.149
G01 F600 X38.794 Y57.271
G01 F600 X38.933 Y57.427
G01 F600 X39.038 Y57.607
G01 F600 X39.102 Y57.806
G01 F600 X39.124 Y58.014
G01 F600 X39.102 Y58.221
G01 F600 X39.038 Y58.420
G01 F600 X38.933 Y58.601
G01 F600 X38.794 Y58.756
G01 F600 X38.625 Y58.879
G01 F600 X38.434 Y58.964
G01 F600 X38.230 Y59.007
G01 F600 X38.021 Y59.007
G00 F3000 Z3.000
G00 F3000 X43.101 Y59.007
G00 F1500 Z0
G01 F600 Z-0.200
G01 F600 X42.897 Y58.964
G01 F600 X42.706 Y58.879
G01 F600 X42.537 Y58.756
G01 F600 X42.397 Y58.601
G01 F600 X42.293 Y58.420
G01 F600 X42.229 Y58.221
G01 F600 X42.207 Y58.014
G01 F600 X42.229 Y57.806
G01 F600 X42.293 Y57.607
G01 F600 X42.397 Y57.427
G01 F600 X42.537 Y57.271
G01 F600 X42.706 Y57.149
G01 F600 X42.897 Y57.064
G01 F600 X43.101 Y57.020
G01 F600 X43.310 Y57.020
G01 F600 X43.514 Y57.064
G01 F600 X43.705 Y57.149
G01 F600 X43.874 Y57.271
G01 F600 X44.013 Y57.427
G01 F600 X44.118 Y57.607
G01 F600 X44.182 Y57.806
G01 F600 X44.204 Y58.014
G01 F600 X44.182 Y58.221
G01 F600 X44.118 Y58.420
G01 F600 X44.013 Y58.601
G01 F600 X43.874 Y58.756
G01 F600 X43.705 Y58.879
G01 F600 X43.514 Y58.964
G01 F600 X43.310 Y59.007
G01 F600 X43.101 Y59.007
G00 F3000 Z3.000
G00 F3000 X10.081 Y59.007
G00 F1500 Z0
G01 F600 Z-0.200
G01 F600 X9.877 Y58.964
G01 F600 X9.686 Y58.879
G01 F600 X9.517 Y58.756
G01 F600 X9.377 Y58.601
G01 F600 X9.273 Y58.420
G01 F600 X9.209 Y58.221
G01 F600 X9.187 Y58.014
G01 F600 X9.209 Y57.806
G01 F600 X9.273 Y57.607
G01 F600 X9.377 Y57.427
G01 F600 X9.517 Y57.271
G01 F600 X9.686 Y57.149
G01 F600 X9.877 Y57.064
G01 F600 X10.081 Y57.020
G01 F600 X10.290 Y57.020
G01 F600 X10.494 Y57.064
G01 F600 X10.685 Y57.149
G01 F600 X10.854 Y57.271
G01 F600 X10.993 Y57.427
G01 F600 X11.098 Y57.607
G01 F600 X11.162 Y57.806
G01 F600 X11.184 Y58.014
G01 F600 X11.162 Y58.221
G01 F600 X11.098 Y58.420
G01 F600 X10.993 Y58.601
G01 F600 X10.854 Y58.756
G01 F600 X10.685 Y58.879
G01 F600 X10.494 Y58.964
G01 F600 X10.290 Y59.007
G01 F600 X10.081 Y59.007
G00 F3000 Z3.000
G00 F3000 X7.541 Y59.007
G00 F1500 Z0
G01 F600 Z-0.200
G01 F600 X7.337 Y58.964
G01 F600 X7.146 Y58.879
G01 F600 X6.977 Y58.756
G01 F600 X6.837 Y58.601
G01 F600 X6.733 Y58.420
G01 F600 X6.669 Y58.221
G01 F600 X6.647 Y58.014
G01 F600 X6.669 Y57.806
G01 F600 X6.733 Y57.607
G01 F600 X6.837 Y57.427
G01 F600 X6.977 Y57.271
G01 F600 X7.146 Y57.149
G01 F600 X7.337 Y57.064
G01 F600 X7.541 Y57.020
G01 F600 X7.750 Y57.020
G01 F600 X7.954 Y57.064
G01 F600 X8.145 Y57.149
G01 F600 X8.314 Y57.271
G01 F600 X8.453 Y57.427
G01 F600 X8.558 Y57.607
G01 F600 X8.622 Y57.806
G01 F600 X8.644 Y58.014
G01 F600 X8.622 Y58.221
G01 F600 X8.558 Y58.420
G01 F600 X8.453 Y58.601
G01 F600 X8.314 Y58.756
G01 F600 X8.145 Y58.879
G01 F600 X7.954 Y58.964
G01 F600 X7.750 Y59.007
G01 F600 X7.541 Y59.007
G00 F3000 Z3.000
G00 F3000 X12.621 Y59.007
G00 F1500 Z0
G01 F600 Z-0.200
G01 F600 X12.417 Y58.964
G01 F600 X12.226 Y58.879
G01 F600 X12.057 Y58.756
G01 F600 X11.917 Y58.601
G01 F600 X11.813 Y58.420
G01 F600 X11.748 Y58.221
G01 F600 X11.727 Y58.014
G01 F600 X11.748 Y57.806
G01 F600 X11.813 Y57.607
G01 F600 X11.917 Y57.427
G01 F600 X12.057 Y57.271
G01 F600 X12.226 Y57.149
G01 F600 X12.417 Y57.064
G01 F600 X12.621 Y57.020
G01 F600 X12.830 Y57.020
G01 F600 X13.034 Y57.064
G01 F600 X13.225 Y57.149
G01 F600 X13.394 Y57.271
G01 F600 X13.533 Y57.427
G01 F600 X13.638 Y57.607
G01 F600 X13.702 Y57.806
G01 F600 X13.724 Y58.014
G01 F600 X13.702 Y58.221
G01 F600 X13.638 Y58.420
G01 F600 X13.533 Y58.601
G01 F600 X13.394 Y58.756
G01 F600 X13.225 Y58.879
G01 F600 X13.034 Y58.964
G01 F600 X12.830 Y59.007
G01 F600 X12.621 Y59.007
G00 F3000 Z3.000
G00 F3000 X45.641 Y56.467
G00 F1500 Z0
G01 F600 Z-0.200
G01 F600 X45.437 Y56.424
G01 F600 X45.246 Y56.339
G01 F600 X45.077 Y56.216
G01 F600 X44.937 Y56.061
G01 F600 X44.833 Y55.880
G01 F600 X44.768 Y55.681
G01 F600 X44.746 Y55.474
G01 F600 X44.768 Y55.266
G01 F600 X44.833 Y55.067
G01 F600 X44.937 Y54.886
G01 F600 X45.077 Y54.731
G01 F600 X45.246 Y54.608
G01 F600 X45.437 Y54.523
G01 F600 X45.641 Y54.480
G01 F600 X45.850 Y54.480
G01 F600 X46.054 Y54.523
G01 F600 X46.245 Y54.608
G01 F600 X46.414 Y54.731
G01 F600 X46.554 Y54.886
G01 F600 X46.658 Y55.067
G01 F600 X46.723 Y55.266
G01 F600 X46.745 Y55.474
G01 F600 X46.723 Y55.681
G01 F600 X46.658 Y55.880
G01 F600 X46.554 Y56.061
G01 F600 X46.414 Y56.216
G01 F600 X46.245 Y56.339
G01 F600 X46.054 Y56.424
G01 F600 X45.850 Y56.467
G01 F600 X45.641 Y56.467
G00 F3000 Z3.000
G00 F3000 X32.941 Y56.467
G00 F1500 Z0
G01 F600 Z-0.200
G01 F600 X32.737 Y56.424
G01 F600 X32.546 Y56.339
G01 F600 X32.377 Y56.216
G01 F600 X32.237 Y56.061
G01 F600 X32.133 Y55.880
G01 F600 X32.127 Y55.862
G01 F600 X31.424 Y55.862
G01 F600 X31.418 Y55.880
G01 F600 X31.313 Y56.061
G01 F600 X31.174 Y56.216
G01 F600 X31.005 Y56.339
G01 F600 X30.814 Y56.424
G01 F600 X30.610 Y56.467
G01 F600 X30.401 Y56.467
G01 F600 X30.197 Y56.424
G01 F600 X30.006 Y56.339
G01 F600 X29.837 Y56.216
G01 F600 X29.697 Y56.061
G01 F600 X29.593 Y55.880
G01 F600 X29.529 Y55.681
G01 F600 X29.507 Y55.474
G01 F600 X29.529 Y55.266
G01 F600 X29.593 Y55.067
G01 F600 X29.697 Y54.887
G01 F600 X29.837 Y54.731
G01 F600 X30.006 Y54.609
G01 F600 X30.197 Y54.524
G01 F600 X30.401 Y54.480
G01 F600 X30.610 Y54.480
G01 F600 X30.814 Y54.524
G01 F600 X31.005 Y54.609
G01 F600 X31.174 Y54.731
G01 F600 X31.313 Y54.887
G01 F600 X31.418 Y55.067
G01 F600 X31.424 Y55.085
G01 F600 X32.081 Y55.085
G01 F600 X25.134 Y48.139
G01 F600 X25.084 Y48.083
G01 F600 X25.043 Y48.013
G01 F600 X25.018 Y47.935
G01 F600 X25.010 Y47.858
G01 F600 X25.010 Y37.855
G01 F600 X22.620 Y35.464
G01 F600 X22.569 Y35.409
G01 F600 X22.529 Y35.338
G01 F600 X22.503 Y35.260
G01 F600 X22.495 Y35.184
G01 F600 X22.495 Y25.956
G01 F600 X22.364 Y25.898
G01 F600 X22.187 Y25.769
G01 F600 X22.041 Y25.607
G01 F600 X21.932 Y25.418
G01 F600 X21.920 Y25.381
G01 F600 X16.151 Y25.358
G01 F600 X16.151 Y25.854
G01 F600 X14.380 Y25.854
G01 F600 X14.380 Y24.083
G01 F600 X16.151 Y24.083
G01 F600 X16.151 Y24.581
G01 F600 X21.921 Y24.604
G01 F600 X21.932 Y24.569
G01 F600 X22.041 Y24.380
G01 F600 X22.187 Y24.218
G01 F600 X22.364 Y24.090
G01 F600 X22.563 Y24.001
G01 F600 X22.776 Y23.956
G01 F600 X22.995 Y23.956
G01 F600 X23.208 Y24.001
G01 F600 X23.407 Y24.090
G01 F600 X23.584 Y24.218
G01 F600 X23.730 Y24.380
G01 F600 X23.839 Y24.569
G01 F600 X23.906 Y24.777
G01 F600 X23.929 Y24.994
G01 F600 X23.906 Y25.211
G01 F600 X23.839 Y25.418
G01 F600 X23.730 Y25.607
G01 F600 X23.584 Y25.769
G01 F600 X23.407 Y25.898
G01 F600 X23.276 Y25.956
G01 F600 X23.276 Y35.018
G01 F600 X25.666 Y37.408
G01 F600 X25.716 Y37.464
G01 F600 X25.757 Y37.535
G01 F600 X25.782 Y37.612
G01 F600 X25.790 Y37.689
G01 F600 X25.790 Y47.693
G01 F600 X32.657 Y54.559
G01 F600 X32.737 Y54.523
G01 F600 X32.941 Y54.480
G01 F600 X33.150 Y54.480
G01 F600 X33.354 Y54.523
G01 F600 X33.545 Y54.608
G01 F600 X33.714 Y54.731
G01 F600 X33.854 Y54.886
G01 F600 X33.958 Y55.067
G01 F600 X34.023 Y55.266
G01 F600 X34.044 Y55.474
G01 F600 X34.023 Y55.681
G01 F600 X33.958 Y55.880
G01 F600 X33.854 Y56.061
G01 F600 X33.714 Y56.216
G01 F600 X33.545 Y56.339
G01 F600 X33.354 Y56.424
G01 F600 X33.150 Y56.467
G01 F600 X32.941 Y56.467
G00 F3000 Z3.000
G00 F3000 X27.861 Y56.467
G00 F1500 Z0
G01 F600 Z-0.200
G01 F600 X27.657 Y56.424
G01 F600 X27.466 Y56.339
G01 F600 X27.297 Y56.216
G01 F600 X27.157 Y56.061
G01 F600 X27.053 Y55.880
G01 F600 X26.988 Y55.681
G01 F600 X26.966 Y55.474
G01 F600 X26.988 Y55.266
G01 F600 X27.053 Y55.067
G01 F600 X27.157 Y54.886
G01 F600 X27.297 Y54.731
G01 F600 X27.466 Y54.608
G01 F600 X27.657 Y54.523
G01 F600 X27.861 Y54.480
G01 F600 X28.070 Y54.480
G01 F600 X28.274 Y54.523
G01 F600 X28.465 Y54.608
G01 F600 X28.634 Y54.731
G01 F600 X28.774 Y54.886
G01 F600 X28.878 Y55.067
G01 F600 X28.943 Y55.266
G01 F600 X28.965 Y55.474
G01 F600 X28.943 Y55.681
G01 F600 X28.878 Y55.880
G01 F600 X28.774 Y56.061
G01 F600 X28.634 Y56.216
G01 F600 X28.465 Y56.339
G01 F600 X28.274 Y56.424
G01 F600 X28.070 Y56.467
G01 F600 X27.861 Y56.467
G00 F3000 Z3.000
G00 F3000 X15.161 Y56.467
G00 F1500 Z0
G01 F600 Z-0.200
G01 F600 X14.957 Y56.424
G01 F600 X14.766 Y56.339
G01 F600 X14.597 Y56.216
G01 F600 X14.457 Y56.061
G01 F600 X14.353 Y55.880
G01 F600 X14.288 Y55.681
G01 F600 X14.266 Y55.474
G01 F600 X14.288 Y55.266
G01 F600 X14.353 Y55.067
G01 F600 X14.457 Y54.886
G01 F600 X14.597 Y54.731
G01 F600 X14.766 Y54.608
G01 F600 X14.957 Y54.523
G01 F600 X15.161 Y54.480
G01 F600 X15.370 Y54.480
G01 F600 X15.574 Y54.523
G01 F600 X15.765 Y54.608
G01 F600 X15.934 Y54.731
G01 F600 X16.074 Y54.886
G01 F600 X16.178 Y55.067
G01 F600 X16.243 Y55.266
G01 F600 X16.265 Y55.474
G01 F600 X16.243 Y55.681
G01 F600 X16.178 Y55.880
G01 F600 X16.074 Y56.061
G01 F600 X15.934 Y56.216
G01 F600 X15.765 Y56.339
G01 F600 X15.574 Y56.424
G01 F600 X15.370 Y56.467
G01 F600 X15.161 Y56.467
G00 F3000 Z3.000
G00 F3000 X43.101 Y56.467
G00 F1500 Z0
G01 F600 Z-0.200
G01 F600 X42.897 Y56.424
G01 F600 X42.706 Y56.339
G01 F600 X42.537 Y56.216
G01 F600 X42.397 Y56.061
G01 F600 X42.293 Y55.880
G01 F600 X42.229 Y55.681
G01 F600 X42.207 Y55.474
G01 F600 X42.229 Y55.266
G01 F600 X42.276 Y55.121
G01 F600 X37.937 Y50.782
G01 F600 X35.545 Y50.782
G01 F600 X35.465 Y50.765
G01 F600 X35.390 Y50.732
G01 F600 X35.326 Y50.685
G01 F600 X33.354 Y48.714
G01 F600 X32.160 Y48.714
G01 F600 X32.160 Y48.220
G01 F600 X30.538 Y48.242
G01 F600 X30.465 Y48.242
G01 F600 X30.385 Y48.225
G01 F600 X30.310 Y48.192
G01 F600 X30.246 Y48.145
G01 F600 X27.674 Y45.625
G01 F600 X27.624 Y45.569
G01 F600 X27.583 Y45.498
G01 F600 X27.558 Y45.420
G01 F600 X27.550 Y45.343
G01 F600 X27.550 Y37.842
G01 F600 X25.758 Y35.868
G01 F600 X25.742 Y35.875
G01 F600 X25.533 Y35.920
G01 F600 X25.318 Y35.920
G01 F600 X25.109 Y35.875
G01 F600 X24.913 Y35.788
G01 F600 X24.739 Y35.662
G01 F600 X24.596 Y35.502
G01 F600 X24.489 Y35.317
G01 F600 X24.422 Y35.113
G01 F600 X24.400 Y34.900
G01 F600 X24.422 Y34.686
G01 F600 X24.489 Y34.483
G01 F600 X24.596 Y34.297
G01 F600 X24.739 Y34.138
G01 F600 X24.913 Y34.011
G01 F600 X25.109 Y33.924
G01 F600 X25.318 Y33.880
G01 F600 X25.533 Y33.880
G01 F600 X25.742 Y33.924
G01 F600 X25.938 Y34.011
G01 F600 X26.112 Y34.138
G01 F600 X26.255 Y34.297
G01 F600 X26.362 Y34.483
G01 F600 X26.429 Y34.686
G01 F600 X26.451 Y34.900
G01 F600 X26.429 Y35.113
G01 F600 X26.362 Y35.317
G01 F600 X26.341 Y35.354
G01 F600 X28.207 Y37.410
G01 F600 X28.256 Y37.464
G01 F600 X28.297 Y37.535
G01 F600 X28.322 Y37.612
G01 F600 X28.330 Y37.689
G01 F600 X28.330 Y45.175
G01 F600 X30.663 Y47.463
G01 F600 X32.160 Y47.442
G01 F600 X32.160 Y46.943
G01 F600 X33.931 Y46.943
G01 F600 X33.931 Y48.188
G01 F600 X35.748 Y50.005
G01 F600 X38.141 Y50.005
G01 F600 X38.221 Y50.022
G01 F600 X38.295 Y50.055
G01 F600 X38.360 Y50.102
G01 F600 X42.817 Y54.559
G01 F600 X42.897 Y54.524
G01 F600 X43.101 Y54.480
G01 F600 X43.310 Y54.480
G01 F600 X43.514 Y54.524
G01 F600 X43.705 Y54.609
G01 F600 X43.874 Y54.731
G01 F600 X44.013 Y54.887
G01 F600 X44.118 Y55.067
G01 F600 X44.182 Y55.266
G01 F600 X44.204 Y55.474
G01 F600 X44.182 Y55.681
G01 F600 X44.118 Y55.880
G01 F600 X44.013 Y56.061
G01 F600 X43.874 Y56.216
G01 F600 X43.705 Y56.339
G01 F600 X43.514 Y56.424
G01 F600 X43.310 Y56.467
G01 F600 X43.101 Y56.467
G00 F3000 Z3.000
G00 F3000 X38.021 Y56.467
G00 F1500 Z0
G01 F600 Z-0.200
G01 F600 X37.817 Y56.424
G01 F600 X37.626 Y56.339
G01 F600 X37.457 Y56.216
G01 F600 X37.317 Y56.061
G01 F600 X37.213 Y55.880
G01 F600 X37.148 Y55.681
G01 F600 X37.127 Y55.474
G01 F600 X37.148 Y55.266
G01 F600 X37.196 Y55.121
G01 F600 X33.448 Y51.351
G01 F600 X33.368 Y51.386
G01 F600 X33.154 Y51.432
G01 F600 X32.936 Y51.432
G01 F600 X32.723 Y51.386
G01 F600 X32.523 Y51.297
G01 F600 X32.347 Y51.169
G01 F600 X32.201 Y51.007
G01 F600 X32.092 Y50.818
G01 F600 X32.024 Y50.611
G01 F600 X32.002 Y50.394
G01 F600 X32.024 Y50.177
G01 F600 X32.092 Y49.969
G01 F600 X32.201 Y49.780
G01 F600 X32.347 Y49.618
G01 F600 X32.523 Y49.490
G01 F600 X32.723 Y49.401
G01 F600 X32.936 Y49.355
G01 F600 X33.154 Y49.355
G01 F600 X33.368 Y49.401
G01 F600 X33.566 Y49.489
G01 F600 X33.696 Y49.579
G01 F600 X33.750 Y49.590
G01 F600 X33.825 Y49.624
G01 F600 X33.891 Y49.672
G01 F600 X33.946 Y49.732
G01 F600 X33.986 Y49.803
G01 F600 X34.012 Y49.881
G01 F600 X34.020 Y49.962
G01 F600 X34.014 Y50.017
G01 F600 X34.066 Y50.177
G01 F600 X34.089 Y50.394
G01 F600 X34.066 Y50.611
G01 F600 X34.003 Y50.804
G01 F600 X37.737 Y54.559
G01 F600 X37.817 Y54.524
G01 F600 X38.021 Y54.480
G01 F600 X38.230 Y54.480
G01 F600 X38.434 Y54.524
G01 F600 X38.625 Y54.609
G01 F600 X38.794 Y54.731
G01 F600 X38.933 Y54.887
G01 F600 X39.038 Y55.067
G01 F600 X39.102 Y55.266
G01 F600 X39.124 Y55.474
G01 F600 X39.102 Y55.681
G01 F600 X39.038 Y55.880
G01 F600 X38.933 Y56.061
G01 F600 X38.794 Y56.216
G01 F600 X38.625 Y56.339
G01 F600 X38.434 Y56.424
G01 F600 X38.230 Y56.467
G01 F600 X38.021 Y56.467
G00 F3000 Z3.000
G00 F3000 X40.561 Y56.467
G00 F1500 Z0
G01 F600 Z-0.200
G01 F600 X40.357 Y56.424
G01 F600 X40.166 Y56.339
G01 F600 X39.997 Y56.216
G01 F600 X39.857 Y56.061
G01 F600 X39.753 Y55.880
G01 F600 X39.689 Y55.681
G01 F600 X39.667 Y55.474
G01 F600 X39.689 Y55.266
G01 F600 X39.753 Y55.067
G01 F600 X39.857 Y54.887
G01 F600 X39.997 Y54.731
G01 F600 X40.166 Y54.609
G01 F600 X40.357 Y54.524
G01 F600 X40.561 Y54.480
G01 F600 X40.770 Y54.480
G01 F600 X40.974 Y54.524
G01 F600 X41.165 Y54.609
G01 F600 X41.334 Y54.731
G01 F600 X41.473 Y54.887
G01 F600 X41.578 Y55.067
G01 F600 X41.642 Y55.266
G01 F600 X41.664 Y55.474
G01 F600 X41.642 Y55.681
G01 F600 X41.578 Y55.880
G01 F600 X41.473 Y56.061
G01 F600 X41.334 Y56.216
G01 F600 X41.165 Y56.339
G01 F600 X40.974 Y56.424
G01 F600 X40.770 Y56.467
G01 F600 X40.561 Y56.467
G00 F3000 Z3.000
G00 F3000 X53.261 Y56.467
G00 F1500 Z0
G01 F600 Z-0.200
G01 F600 X53.057 Y56.424
G01 F600 X52.866 Y56.339
G01 F600 X52.697 Y56.216
G01 F600 X52.557 Y56.061
G01 F600 X52.453 Y55.880
G01 F600 X52.389 Y55.681
G01 F600 X52.367 Y55.474
G01 F600 X52.389 Y55.266
G01 F600 X52.436 Y55.121
G01 F600 X50.637 Y53.322
G01 F600 X43.165 Y53.322
G01 F600 X43.085 Y53.305
G01 F600 X43.010 Y53.272
G01 F600 X42.946 Y53.225
G01 F600 X38.513 Y48.817
G01 F600 X38.448 Y48.846
G01 F600 X38.235 Y48.892
G01 F600 X38.016 Y48.892
G01 F600 X37.803 Y48.846
G01 F600 X37.604 Y48.758
G01 F600 X37.427 Y48.629
G01 F600 X37.281 Y48.467
G01 F600 X37.172 Y48.278
G01 F600 X37.104 Y48.071
G01 F600 X37.082 Y47.854
G01 F600 X37.104 Y47.637
G01 F600 X37.172 Y47.429
G01 F600 X37.281 Y47.240
G01 F600 X37.427 Y47.078
G01 F600 X37.604 Y46.950
G01 F600 X37.803 Y46.861
G01 F600 X38.016 Y46.816
G01 F600 X38.235 Y46.816
G01 F600 X38.448 Y46.861
G01 F600 X38.647 Y46.950
G01 F600 X38.824 Y47.078
G01 F600 X38.970 Y47.240
G01 F600 X39.079 Y47.429
G01 F600 X39.146 Y47.637
G01 F600 X39.169 Y47.854
G01 F600 X39.146 Y48.071
G01 F600 X39.079 Y48.278
G01 F600 X39.078 Y48.280
G01 F600 X43.368 Y52.545
G01 F600 X50.841 Y52.545
G01 F600 X50.921 Y52.562
G01 F600 X50.995 Y52.595
G01 F600 X51.059 Y52.642
G01 F600 X52.977 Y54.559
G01 F600 X53.057 Y54.524
G01 F600 X53.261 Y54.480
G01 F600 X53.470 Y54.480
G01 F600 X53.674 Y54.524
G01 F600 X53.738 Y54.552
G01 F600 X55.672 Y52.692
G01 F600 X55.736 Y52.646
G01 F600 X55.810 Y52.613
G01 F600 X55.890 Y52.596
G01 F600 X58.279 Y52.596
G01 F600 X60.595 Y50.187
G01 F600 X60.595 Y37.856
G01 F600 X58.282 Y35.566
G01 F600 X56.851 Y35.545
G01 F600 X56.842 Y35.571
G01 F600 X56.735 Y35.756
G01 F600 X56.592 Y35.916
G01 F600 X56.418 Y36.042
G01 F600 X56.222 Y36.129
G01 F600 X56.013 Y36.174
G01 F600 X55.798 Y36.174
G01 F600 X55.589 Y36.129
G01 F600 X55.393 Y36.042
G01 F600 X55.219 Y35.916
G01 F600 X55.076 Y35.756
G01 F600 X54.969 Y35.571
G01 F600 X54.902 Y35.367
G01 F600 X54.880 Y35.154
G01 F600 X54.902 Y34.940
G01 F600 X54.969 Y34.736
G01 F600 X55.076 Y34.551
G01 F600 X55.219 Y34.392
G01 F600 X55.393 Y34.265
G01 F600 X55.589 Y34.178
G01 F600 X55.798 Y34.134
G01 F600 X56.013 Y34.134
G01 F600 X56.222 Y34.178
G01 F600 X56.418 Y34.265
G01 F600 X56.592 Y34.392
G01 F600 X56.735 Y34.551
G01 F600 X56.842 Y34.736
G01 F600 X56.852 Y34.767
G01 F600 X58.285 Y34.788
G01 F600 X60.570 Y32.479
G01 F600 X60.570 Y12.705
G01 F600 X56.851 Y12.683
G01 F600 X56.842 Y12.711
G01 F600 X56.735 Y12.896
G01 F600 X56.592 Y13.056
G01 F600 X56.418 Y13.182
G01 F600 X56.222 Y13.269
G01 F600 X56.013 Y13.314
G01 F600 X55.798 Y13.314
G01 F600 X55.589 Y13.269
G01 F600 X55.393 Y13.182
G01 F600 X55.219 Y13.056
G01 F600 X55.076 Y12.896
G01 F600 X54.969 Y12.711
G01 F600 X54.902 Y12.507
G01 F600 X54.880 Y12.294
G01 F600 X54.902 Y12.080
G01 F600 X54.969 Y11.877
G01 F600 X55.076 Y11.691
G01 F600 X55.219 Y11.532
G01 F600 X55.393 Y11.405
G01 F600 X55.518 Y11.350
G01 F600 X55.538 Y9.938
G01 F600 X53.228 Y7.627
G01 F600 X40.828 Y7.602
G01 F600 X38.490 Y9.940
G01 F600 X38.501 Y11.344
G01 F600 X38.638 Y11.405
G01 F600 X38.812 Y11.532
G01 F600 X38.955 Y11.691
G01 F600 X39.062 Y11.877
G01 F600 X39.129 Y12.080
G01 F600 X39.151 Y12.294
G01 F600 X39.129 Y12.507
G01 F600 X39.062 Y12.711
G01 F600 X38.955 Y12.896
G01 F600 X38.812 Y13.056
G01 F600 X38.638 Y13.182
G01 F600 X38.442 Y13.269
G01 F600 X38.233 Y13.314
G01 F600 X38.018 Y13.314
G01 F600 X37.809 Y13.269
G01 F600 X37.613 Y13.182
G01 F600 X37.439 Y13.056
G01 F600 X37.296 Y12.896
G01 F600 X37.189 Y12.711
G01 F600 X37.122 Y12.507
G01 F600 X37.100 Y12.294
G01 F600 X37.122 Y12.080
G01 F600 X37.189 Y11.877
G01 F600 X37.296 Y11.691
G01 F600 X37.439 Y11.532
G01 F600 X37.613 Y11.405
G01 F600 X37.710 Y11.362
G01 F600 X37.710 Y9.774
G01 F600 X37.718 Y9.698
G01 F600 X37.743 Y9.620
G01 F600 X37.784 Y9.549
G01 F600 X37.834 Y9.494
G01 F600 X40.406 Y6.922
G01 F600 X40.470 Y6.875
G01 F600 X40.545 Y6.842
G01 F600 X40.625 Y6.825
G01 F600 X40.697 Y6.825
G01 F600 X53.432 Y6.851
G01 F600 X53.512 Y6.868
G01 F600 X53.586 Y6.901
G01 F600 X53.650 Y6.947
G01 F600 X56.197 Y9.494
G01 F600 X56.247 Y9.549
G01 F600 X56.288 Y9.620
G01 F600 X56.313 Y9.698
G01 F600 X56.321 Y9.775
G01 F600 X56.298 Y11.352
G01 F600 X56.418 Y11.405
G01 F600 X56.592 Y11.532
G01 F600 X56.735 Y11.691
G01 F600 X56.841 Y11.874
G01 F600 X56.853 Y11.906
G01 F600 X60.570 Y11.928
G01 F600 X60.570 Y9.939
G01 F600 X55.742 Y5.062
G01 F600 X25.610 Y5.062
G01 F600 X21.190 Y11.716
G01 F600 X21.282 Y11.877
G01 F600 X21.349 Y12.080
G01 F600 X21.371 Y12.294
G01 F600 X21.349 Y12.507
G01 F600 X21.282 Y12.711
G01 F600 X21.175 Y12.896
G01 F600 X21.032 Y13.056
G01 F600 X20.858 Y13.182
G01 F600 X20.662 Y13.269
G01 F600 X20.453 Y13.314
G01 F600 X20.238 Y13.314
G01 F600 X20.029 Y13.269
G01 F600 X19.833 Y13.182
G01 F600 X19.659 Y13.056
G01 F600 X19.516 Y12.896
G01 F600 X19.409 Y12.711
G01 F600 X19.342 Y12.507
G01 F600 X19.320 Y12.294
G01 F600 X19.342 Y12.080
G01 F600 X19.409 Y11.877
G01 F600 X19.516 Y11.691
G01 F600 X19.659 Y11.532
G01 F600 X19.833 Y11.405
G01 F600 X20.029 Y11.318
G01 F600 X20.238 Y11.274
G01 F600 X20.453 Y11.274
G01 F600 X20.536 Y11.291
G01 F600 X25.086 Y4.442
G01 F600 X25.139 Y4.383
G01 F600 X25.205 Y4.335
G01 F600 X25.279 Y4.302
G01 F600 X25.359 Y4.285
G01 F600 X55.946 Y4.285
G01 F600 X56.026 Y4.302
G01 F600 X56.101 Y4.335
G01 F600 X56.165 Y4.382
G01 F600 X61.226 Y9.494
G01 F600 X61.276 Y9.549
G01 F600 X61.317 Y9.620
G01 F600 X61.342 Y9.698
G01 F600 X61.350 Y9.774
G01 F600 X61.350 Y32.644
G01 F600 X61.342 Y32.720
G01 F600 X61.317 Y32.798
G01 F600 X61.276 Y32.869
G01 F600 X61.226 Y32.924
G01 F600 X58.997 Y35.176
G01 F600 X61.251 Y37.408
G01 F600 X61.301 Y37.464
G01 F600 X61.342 Y37.535
G01 F600 X61.367 Y37.612
G01 F600 X61.376 Y37.689
G01 F600 X61.376 Y50.347
G01 F600 X61.367 Y50.424
G01 F600 X61.342 Y50.502
G01 F600 X61.301 Y50.572
G01 F600 X61.252 Y50.627
G01 F600 X58.706 Y53.276
G01 F600 X58.641 Y53.323
G01 F600 X58.566 Y53.356
G01 F600 X58.486 Y53.373
G01 F600 X56.090 Y53.373
G01 F600 X54.297 Y55.126
G01 F600 X54.342 Y55.266
G01 F600 X54.364 Y55.474
G01 F600 X54.342 Y55.681
G01 F600 X54.278 Y55.880
G01 F600 X54.173 Y56.061
G01 F600 X54.034 Y56.216
G01 F600 X53.865 Y56.339
G01 F600 X53.674 Y56.424
G01 F600 X53.470 Y56.467
G01 F600 X53.261 Y56.467
G00 F3000 Z3.000
G00 F3000 X55.801 Y56.467
G00 F1500 Z0
G01 F600 Z-0.200
G01 F600 X55.597 Y56.424
G01 F600 X55.406 Y56.339
G01 F600 X55.237 Y56.216
G01 F600 X55.097 Y56.061
G01 F600 X54.993 Y55.880
G01 F600 X54.928 Y55.681
G01 F600 X54.907 Y55.474
G01 F600 X54.928 Y55.266
G01 F600 X54.993 Y55.067
G01 F600 X55.097 Y54.887
G01 F600 X55.237 Y54.731
G01 F600 X55.406 Y54.609
G01 F600 X55.597 Y54.524
G01 F600 X55.801 Y54.480
G01 F600 X56.010 Y54.480
G01 F600 X56.214 Y54.524
G01 F600 X56.405 Y54.609
G01 F600 X56.574 Y54.731
G01 F600 X56.713 Y54.887
G01 F600 X56.818 Y55.067
G01 F600 X56.882 Y55.266
G01 F600 X56.904 Y55.474
G01 F600 X56.882 Y55.681
G01 F600 X56.818 Y55.880
G01 F600 X56.713 Y56.061
G01 F600 X56.574 Y56.216
G01 F600 X56.405 Y56.339
G01 F600 X56.214 Y56.424
G01 F600 X56.010 Y56.467
G01 F600 X55.801 Y56.467
G00 F3000 Z3.000
G00 F3000 X48.181 Y56.467
G00 F1500 Z0
G01 F600 Z-0.200
G01 F600 X47.977 Y56.424
G01 F600 X47.786 Y56.339
G01 F600 X47.617 Y56.216
G01 F600 X47.477 Y56.061
G01 F600 X47.373 Y55.880
G01 F600 X47.309 Y55.681
G01 F600 X47.287 Y55.474
G01 F600 X47.309 Y55.266
G01 F600 X47.373 Y55.067
G01 F600 X47.477 Y54.887
G01 F600 X47.617 Y54.731
G01 F600 X47.786 Y54.609
G01 F600 X47.977 Y54.524
G01 F600 X48.181 Y54.480
G01 F600 X48.390 Y54.480
G01 F600 X48.594 Y54.524
G01 F600 X48.785 Y54.609
G01 F600 X48.954 Y54.731
G01 F600 X49.093 Y54.887
G01 F600 X49.198 Y55.067
G01 F600 X49.262 Y55.266
G01 F600 X49.284 Y55.474
G01 F600 X49.262 Y55.681
G01 F600 X49.198 Y55.880
G01 F600 X49.093 Y56.061
G01 F600 X48.954 Y56.216
G01 F600 X48.785 Y56.339
G01 F600 X48.594 Y56.424
G01 F600 X48.390 Y56.467
G01 F600 X48.181 Y56.467
G00 F3000 Z3.000
G00 F3000 X50.721 Y56.467
G00 F1500 Z0
G01 F600 Z-0.200
G01 F600 X50.517 Y56.424
G01 F600 X50.326 Y56.339
G01 F600 X50.157 Y56.216
G01 F600 X50.017 Y56.061
G01 F600 X49.913 Y55.880
G01 F600 X49.849 Y55.681
G01 F600 X49.827 Y55.474
G01 F600 X49.849 Y55.266
G01 F600 X49.913 Y55.067
G01 F600 X50.017 Y54.887
G01 F600 X50.157 Y54.731
G01 F600 X50.326 Y54.609
G01 F600 X50.517 Y54.524
G01 F600 X50.721 Y54.480
G01 F600 X50.930 Y54.480
G01 F600 X51.134 Y54.524
G01 F600 X51.325 Y54.609
G01 F600 X51.494 Y54.731
G01 F600 X51.633 Y54.887
G01 F600 X51.738 Y55.067
G01 F600 X51.802 Y55.266
G01 F600 X51.824 Y55.474
G01 F600 X51.802 Y55.681
G01 F600 X51.738 Y55.880
G01 F600 X51.633 Y56.061
G01 F600 X51.494 Y56.216
G01 F600 X51.325 Y56.339
G01 F600 X51.134 Y56.424
G01 F600 X50.930 Y56.467
G01 F600 X50.721 Y56.467
G00 F3000 Z3.000
G00 F3000 X22.781 Y56.467
G00 F1500 Z0
G01 F600 Z-0.200
G01 F600 X22.577 Y56.424
G01 F600 X22.386 Y56.339
G01 F600 X22.217 Y56.216
G01 F600 X22.077 Y56.061
G01 F600 X21.973 Y55.880
G01 F600 X21.909 Y55.681
G01 F600 X21.887 Y55.474
G01 F600 X21.909 Y55.266
G01 F600 X21.973 Y55.067
G01 F600 X22.077 Y54.887
G01 F600 X22.217 Y54.731
G01 F600 X22.386 Y54.609
G01 F600 X22.577 Y54.524
G01 F600 X22.781 Y54.480
G01 F600 X22.990 Y54.480
G01 F600 X23.194 Y54.524
G01 F600 X23.385 Y54.609
G01 F600 X23.554 Y54.731
G01 F600 X23.693 Y54.887
G01 F600 X23.798 Y55.067
G01 F600 X23.862 Y55.266
G01 F600 X23.884 Y55.474
G01 F600 X23.862 Y55.681
G01 F600 X23.798 Y55.880
G01 F600 X23.693 Y56.061
G01 F600 X23.554 Y56.216
G01 F600 X23.385 Y56.339
G01 F600 X23.194 Y56.424
G01 F600 X22.990 Y56.467
G01 F600 X22.781 Y56.467
G00 F3000 Z3.000
G00 F3000 X25.321 Y56.467
G00 F1500 Z0
G01 F600 Z-0.200
G01 F600 X25.117 Y56.424
G01 F600 X24.926 Y56.339
G01 F600 X24.757 Y56.216
G01 F600 X24.617 Y56.061
G01 F600 X24.513 Y55.880
G01 F600 X24.449 Y55.681
G01 F600 X24.427 Y55.474
G01 F600 X24.449 Y55.266
G01 F600 X24.513 Y55.067
G01 F600 X24.617 Y54.887
G01 F600 X24.757 Y54.731
G01 F600 X24.926 Y54.609
G01 F600 X25.117 Y54.524
G01 F600 X25.321 Y54.480
G01 F600 X25.530 Y54.480
G01 F600 X25.734 Y54.524
G01 F600 X25.925 Y54.609
G01 F600 X26.094 Y54.731
G01 F600 X26.233 Y54.887
G01 F600 X26.338 Y55.067
G01 F600 X26.402 Y55.266
G01 F600 X26.424 Y55.474
G01 F600 X26.402 Y55.681
G01 F600 X26.338 Y55.880
G01 F600 X26.233 Y56.061
G01 F600 X26.094 Y56.216
G01 F600 X25.925 Y56.339
G01 F600 X25.734 Y56.424
G01 F600 X25.530 Y56.467
G01 F600 X25.321 Y56.467
G00 F3000 Z3.000
G00 F3000 X17.701 Y56.467
G00 F1500 Z0
G01 F600 Z-0.200
G01 F600 X17.497 Y56.424
G01 F600 X17.306 Y56.339
G01 F600 X17.137 Y56.216
G01 F600 X16.997 Y56.061
G01 F600 X16.893 Y55.880
G01 F600 X16.829 Y55.681
G01 F600 X16.807 Y55.474
G01 F600 X16.829 Y55.266
G01 F600 X16.893 Y55.067
G01 F600 X16.997 Y54.887
G01 F600 X17.137 Y54.731
G01 F600 X17.306 Y54.609
G01 F600 X17.497 Y54.524
G01 F600 X17.701 Y54.480
G01 F600 X17.910 Y54.480
G01 F600 X18.114 Y54.524
G01 F600 X18.305 Y54.609
G01 F600 X18.474 Y54.731
G01 F600 X18.613 Y54.887
G01 F600 X18.718 Y55.067
G01 F600 X18.782 Y55.266
G01 F600 X18.804 Y55.474
G01 F600 X18.782 Y55.681
G01 F600 X18.718 Y55.880
G01 F600 X18.613 Y56.061
G01 F600 X18.474 Y56.216
G01 F600 X18.305 Y56.339
G01 F600 X18.114 Y56.424
G01 F600 X17.910 Y56.467
G01 F600 X17.701 Y56.467
G00 F3000 Z3.000
G00 F3000 X20.241 Y56.467
G00 F1500 Z0
G01 F600 Z-0.200
G01 F600 X20.037 Y56.424
G01 F600 X19.846 Y56.339
G01 F600 X19.677 Y56.216
G01 F600 X19.537 Y56.061
G01 F600 X19.433 Y55.880
G01 F600 X19.369 Y55.681
G01 F600 X19.347 Y55.474
G01 F600 X19.369 Y55.266
G01 F600 X19.433 Y55.067
G01 F600 X19.537 Y54.887
G01 F600 X19.677 Y54.731
G01 F600 X19.846 Y54.609
G01 F600 X20.037 Y54.524
G01 F600 X20.241 Y54.480
G01 F600 X20.450 Y54.480
G01 F600 X20.654 Y54.524
G01 F600 X20.845 Y54.609
G01 F600 X21.014 Y54.731
G01 F600 X21.153 Y54.887
G01 F600 X21.258 Y55.067
G01 F600 X21.322 Y55.266
G01 F600 X21.344 Y55.474
G01 F600 X21.322 Y55.681
G01 F600 X21.258 Y55.880
G01 F600 X21.153 Y56.061
G01 F600 X21.014 Y56.216
G01 F600 X20.845 Y56.339
G01 F600 X20.654 Y56.424
G01 F600 X20.450 Y56.467
G01 F600 X20.241 Y56.467
G00 F3000 Z3.000
G00 F3000 X35.481 Y56.467
G00 F1500 Z0
G01 F600 Z-0.200
G01 F600 X35.277 Y56.424
G01 F600 X35.086 Y56.339
G01 F600 X34.917 Y56.216
G01 F600 X34.777 Y56.061
G01 F600 X34.673 Y55.880
G01 F600 X34.608 Y55.681
G01 F600 X34.587 Y55.474
G01 F600 X34.608 Y55.266
G01 F600 X34.673 Y55.067
G01 F600 X34.777 Y54.887
G01 F600 X34.917 Y54.731
G01 F600 X35.086 Y54.609
G01 F600 X35.277 Y54.524
G01 F600 X35.481 Y54.480
G01 F600 X35.690 Y54.480
G01 F600 X35.894 Y54.524
G01 F600 X36.085 Y54.609
G01 F600 X36.254 Y54.731
G01 F600 X36.393 Y54.887
G01 F600 X36.498 Y55.067
G01 F600 X36.562 Y55.266
G01 F600 X36.584 Y55.474
G01 F600 X36.562 Y55.681
G01 F600 X36.498 Y55.880
G01 F600 X36.393 Y56.061
G01 F600 X36.254 Y56.216
G01 F600 X36.085 Y56.339
G01 F600 X35.894 Y56.424
G01 F600 X35.690 Y56.467
G01 F600 X35.481 Y56.467
G00 F3000 Z3.000
G00 F3000 X12.621 Y56.467
G00 F1500 Z0
G01 F600 Z-0.200
G01 F600 X12.417 Y56.424
G01 F600 X12.226 Y56.339
G01 F600 X12.057 Y56.216
G01 F600 X11.917 Y56.061
G01 F600 X11.813 Y55.880
G01 F600 X11.748 Y55.681
G01 F600 X11.727 Y55.474
G01 F600 X11.748 Y55.266
G01 F600 X11.813 Y55.067
G01 F600 X11.917 Y54.887
G01 F600 X12.057 Y54.731
G01 F600 X12.226 Y54.609
G01 F600 X12.417 Y54.524
G01 F600 X12.621 Y54.480
G01 F600 X12.830 Y54.480
G01 F600 X13.034 Y54.524
G01 F600 X13.225 Y54.609
G01 F600 X13.394 Y54.731
G01 F600 X13.533 Y54.887
G01 F600 X13.638 Y55.067
G01 F600 X13.702 Y55.266
G01 F600 X13.724 Y55.474
G01 F600 X13.702 Y55.681
G01 F600 X13.638 Y55.880
G01 F600 X13.533 Y56.061
G01 F600 X13.394 Y56.216
G01 F600 X13.225 Y56.339
G01 F600 X13.034 Y56.424
G01 F600 X12.830 Y56.467
G01 F600 X12.621 Y56.467
G00 F3000 Z3.000
G00 F3000 X7.541 Y56.467
G00 F1500 Z0
G01 F600 Z-0.200
G01 F600 X7.337 Y56.424
G01 F600 X7.146 Y56.339
G01 F600 X6.977 Y56.216
G01 F600 X6.837 Y56.061
G01 F600 X6.733 Y55.880
G01 F600 X6.669 Y55.681
G01 F600 X6.647 Y55.474
G01 F600 X6.669 Y55.266
G01 F600 X6.716 Y55.121
G01 F600 X4.865 Y53.270
G01 F600 X4.815 Y53.214
G01 F600 X4.774 Y53.143
G01 F600 X4.749 Y53.066
G01 F600 X4.741 Y52.989
G01 F600 X4.741 Y30.120
G01 F600 X4.749 Y30.043
G01 F600 X4.774 Y29.966
G01 F600 X4.815 Y29.895
G01 F600 X4.865 Y29.839
G01 F600 X7.386 Y27.293
G01 F600 X7.450 Y27.246
G01 F600 X7.525 Y27.213
G01 F600 X7.605 Y27.196
G01 F600 X12.335 Y27.196
G01 F600 X12.335 Y18.330
G01 F600 X12.206 Y18.273
G01 F600 X12.031 Y18.145
G01 F600 X11.885 Y17.984
G01 F600 X11.777 Y17.796
G01 F600 X11.710 Y17.590
G01 F600 X11.687 Y17.374
G01 F600 X11.710 Y17.158
G01 F600 X11.777 Y16.951
G01 F600 X11.885 Y16.763
G01 F600 X12.031 Y16.602
G01 F600 X12.205 Y16.479
G01 F600 X12.232 Y16.433
G01 F600 X12.287 Y16.372
G01 F600 X12.315 Y16.352
G01 F600 X12.334 Y12.982
G01 F600 X12.213 Y12.928
G01 F600 X12.039 Y12.802
G01 F600 X11.896 Y12.642
G01 F600 X11.789 Y12.457
G01 F600 X11.722 Y12.253
G01 F600 X11.700 Y12.040
G01 F600 X11.722 Y11.826
G01 F600 X11.789 Y11.623
G01 F600 X11.896 Y11.437
G01 F600 X12.039 Y11.277
G01 F600 X12.213 Y11.151
G01 F600 X12.409 Y11.064
G01 F600 X12.618 Y11.020
G01 F600 X12.833 Y11.020
G01 F600 X13.042 Y11.064
G01 F600 X13.238 Y11.151
G01 F600 X13.412 Y11.277
G01 F600 X13.555 Y11.437
G01 F600 X13.662 Y11.623
G01 F600 X13.729 Y11.826
G01 F600 X13.751 Y12.040
G01 F600 X13.729 Y12.253
G01 F600 X13.662 Y12.457
G01 F600 X13.555 Y12.642
G01 F600 X13.412 Y12.802
G01 F600 X13.238 Y12.928
G01 F600 X13.115 Y12.983
G01 F600 X13.105 Y16.412
G01 F600 X13.245 Y16.474
G01 F600 X13.420 Y16.602
G01 F600 X13.565 Y16.763
G01 F600 X13.674 Y16.951
G01 F600 X13.741 Y17.158
G01 F600 X13.764 Y17.374
G01 F600 X13.741 Y17.590
G01 F600 X13.674 Y17.796
G01 F600 X13.565 Y17.984
G01 F600 X13.420 Y18.145
G01 F600 X13.245 Y18.273
G01 F600 X13.116 Y18.330
G01 F600 X13.116 Y33.957
G01 F600 X13.238 Y34.011
G01 F600 X13.412 Y34.138
G01 F600 X13.555 Y34.297
G01 F600 X13.662 Y34.483
G01 F600 X13.729 Y34.686
G01 F600 X13.751 Y34.900
G01 F600 X13.729 Y35.113
G01 F600 X13.662 Y35.317
G01 F600 X13.555 Y35.502
G01 F600 X13.412 Y35.662
G01 F600 X13.238 Y35.788
G01 F600 X13.108 Y35.846
G01 F600 X13.115 Y39.277
G01 F600 X13.245 Y39.334
G01 F600 X13.420 Y39.462
G01 F600 X13.565 Y39.623
G01 F600 X13.674 Y39.811
G01 F600 X13.741 Y40.018
G01 F600 X13.764 Y40.234
G01 F600 X13.741 Y40.450
G01 F600 X13.674 Y40.656
G01 F600 X13.565 Y40.844
G01 F600 X13.420 Y41.005
G01 F600 X13.245 Y41.133
G01 F600 X13.046 Y41.221
G01 F600 X12.834 Y41.266
G01 F600 X12.617 Y41.266
G01 F600 X12.405 Y41.221
G01 F600 X12.206 Y41.133
G01 F600 X12.031 Y41.005
G01 F600 X11.885 Y40.844
G01 F600 X11.777 Y40.656
G01 F600 X11.710 Y40.450
G01 F600 X11.687 Y40.234
G01 F600 X11.710 Y40.018
G01 F600 X11.777 Y39.811
G01 F600 X11.885 Y39.623
G01 F600 X12.031 Y39.462
G01 F600 X12.206 Y39.334
G01 F600 X12.335 Y39.277
G01 F600 X12.327 Y35.839
G01 F600 X12.213 Y35.788
G01 F600 X12.039 Y35.662
G01 F600 X11.896 Y35.502
G01 F600 X11.789 Y35.317
G01 F600 X11.722 Y35.113
G01 F600 X11.700 Y34.900
G01 F600 X11.722 Y34.686
G01 F600 X11.789 Y34.483
G01 F600 X11.896 Y34.297
G01 F600 X12.039 Y34.138
G01 F600 X12.213 Y34.011
G01 F600 X12.324 Y33.962
G01 F600 X12.311 Y27.973
G01 F600 X7.809 Y27.973
G01 F600 X5.521 Y30.284
G01 F600 X5.521 Y52.823
G01 F600 X7.257 Y54.559
G01 F600 X7.337 Y54.524
G01 F600 X7.541 Y54.480
G01 F600 X7.750 Y54.480
G01 F600 X7.954 Y54.524
G01 F600 X8.145 Y54.609
G01 F600 X8.314 Y54.731
G01 F600 X8.453 Y54.887
G01 F600 X8.558 Y55.067
G01 F600 X8.622 Y55.266
G01 F600 X8.644 Y55.474
G01 F600 X8.622 Y55.681
G01 F600 X8.558 Y55.880
G01 F600 X8.453 Y56.061
G01 F600 X8.314 Y56.216
G01 F600 X8.145 Y56.339
G01 F600 X7.954 Y56.424
G01 F600 X7.750 Y56.467
G01 F600 X7.541 Y56.467
G00 F3000 Z3.000
G00 F3000 X10.081 Y56.467
G00 F1500 Z0
G01 F600 Z-0.200
G01 F600 X9.877 Y56.424
G01 F600 X9.686 Y56.339
G01 F600 X9.517 Y56.216
G01 F600 X9.377 Y56.061
G01 F600 X9.273 Y55.880
G01 F600 X9.209 Y55.681
G01 F600 X9.187 Y55.474
G01 F600 X9.209 Y55.266
G01 F600 X9.273 Y55.067
G01 F600 X9.377 Y54.887
G01 F600 X9.517 Y54.731
G01 F600 X9.686 Y54.609
G01 F600 X9.877 Y54.524
G01 F600 X10.081 Y54.480
G01 F600 X10.290 Y54.480
G01 F600 X10.494 Y54.524
G01 F600 X10.685 Y54.609
G01 F600 X10.854 Y54.731
G01 F600 X10.993 Y54.887
G01 F600 X11.098 Y55.067
G01 F600 X11.162 Y55.266
G01 F600 X11.184 Y55.474
G01 F600 X11.162 Y55.681
G01 F600 X11.098 Y55.880
G01 F600 X10.993 Y56.061
G01 F600 X10.854 Y56.216
G01 F600 X10.685 Y56.339
G01 F600 X10.494 Y56.424
G01 F600 X10.290 Y56.467
G01 F600 X10.081 Y56.467
G00 F3000 Z3.000
G00 F3000 X49.940 Y48.714
G00 F1500 Z0
G01 F600 Z-0.200
G01 F600 X49.940 Y48.217
G01 F600 X45.654 Y48.217
G01 F600 X45.574 Y48.200
G01 F600 X45.499 Y48.166
G01 F600 X45.435 Y48.120
G01 F600 X42.914 Y45.573
G01 F600 X42.864 Y45.518
G01 F600 X42.823 Y45.447
G01 F600 X42.798 Y45.369
G01 F600 X42.790 Y45.293
G01 F600 X42.815 Y35.842
G01 F600 X42.693 Y35.788
G01 F600 X42.519 Y35.662
G01 F600 X42.376 Y35.502
G01 F600 X42.269 Y35.317
G01 F600 X42.202 Y35.113
G01 F600 X42.180 Y34.900
G01 F600 X42.202 Y34.686
G01 F600 X42.269 Y34.483
G01 F600 X42.376 Y34.297
G01 F600 X42.519 Y34.138
G01 F600 X42.693 Y34.011
G01 F600 X42.889 Y33.924
G01 F600 X43.098 Y33.880
G01 F600 X43.313 Y33.880
G01 F600 X43.522 Y33.924
G01 F600 X43.718 Y34.011
G01 F600 X43.892 Y34.138
G01 F600 X44.035 Y34.297
G01 F600 X44.142 Y34.483
G01 F600 X44.209 Y34.686
G01 F600 X44.231 Y34.900
G01 F600 X44.209 Y35.113
G01 F600 X44.142 Y35.317
G01 F600 X44.035 Y35.502
G01 F600 X43.892 Y35.662
G01 F600 X43.718 Y35.788
G01 F600 X43.595 Y35.843
G01 F600 X43.571 Y45.129
G01 F600 X45.858 Y47.440
G01 F600 X49.940 Y47.440
G01 F600 X49.940 Y46.943
G01 F600 X51.711 Y46.943
G01 F600 X51.711 Y48.714
G01 F600 X49.940 Y48.714
G00 F3000 Z3.000
G00 F3000 X14.380 Y48.714
G00 F1500 Z0
G01 F600 Z-0.200
G01 F600 X14.380 Y46.943
G01 F600 X16.151 Y46.943
G01 F600 X16.151 Y48.714
G01 F600 X14.380 Y48.714
G00 F3000 Z3.000
G00 F3000 X32.953 Y46.195
G00 F1500 Z0
G01 F600 Z-0.200
G01 F600 X32.772 Y46.156
G01 F600 X32.602 Y46.081
G01 F600 X32.453 Y45.972
G01 F600 X32.329 Y45.834
G01 F600 X32.236 Y45.674
G01 F600 X32.179 Y45.498
G01 F600 X32.160 Y45.314
G01 F600 X32.179 Y45.129
G01 F600 X32.236 Y44.953
G01 F600 X32.329 Y44.793
G01 F600 X32.453 Y44.655
G01 F600 X32.602 Y44.547
G01 F600 X32.772 Y44.471
G01 F600 X32.953 Y44.433
G01 F600 X33.138 Y44.433
G01 F600 X33.319 Y44.471
G01 F600 X33.488 Y44.547
G01 F600 X33.638 Y44.655
G01 F600 X33.763 Y44.794
G01 F600 X33.834 Y44.924
G01 F600 X37.937 Y44.901
G01 F600 X40.250 Y42.587
G01 F600 X40.250 Y41.179
G01 F600 X40.146 Y41.133
G01 F600 X39.971 Y41.005
G01 F600 X39.825 Y40.844
G01 F600 X39.717 Y40.656
G01 F600 X39.650 Y40.450
G01 F600 X39.627 Y40.234
G01 F600 X39.650 Y40.018
G01 F600 X39.684 Y39.913
G01 F600 X39.674 Y39.883
G01 F600 X39.665 Y39.802
G01 F600 X39.674 Y39.721
G01 F600 X39.699 Y39.643
G01 F600 X39.740 Y39.572
G01 F600 X39.794 Y39.512
G01 F600 X39.861 Y39.464
G01 F600 X39.935 Y39.430
G01 F600 X40.015 Y39.413
G01 F600 X40.038 Y39.413
G01 F600 X40.146 Y39.334
G01 F600 X40.345 Y39.246
G01 F600 X40.557 Y39.201
G01 F600 X40.774 Y39.201
G01 F600 X40.986 Y39.246
G01 F600 X41.184 Y39.334
G01 F600 X41.360 Y39.462
G01 F600 X41.505 Y39.623
G01 F600 X41.614 Y39.811
G01 F600 X41.681 Y40.018
G01 F600 X41.704 Y40.234
G01 F600 X41.681 Y40.450
G01 F600 X41.614 Y40.656
G01 F600 X41.505 Y40.844
G01 F600 X41.360 Y41.005
G01 F600 X41.184 Y41.133
G01 F600 X41.030 Y41.199
G01 F600 X41.030 Y42.753
G01 F600 X41.022 Y42.829
G01 F600 X40.997 Y42.907
G01 F600 X40.956 Y42.978
G01 F600 X40.906 Y43.033
G01 F600 X38.360 Y45.580
G01 F600 X38.295 Y45.626
G01 F600 X38.221 Y45.660
G01 F600 X38.141 Y45.677
G01 F600 X33.826 Y45.724
G01 F600 X33.762 Y45.834
G01 F600 X33.638 Y45.972
G01 F600 X33.488 Y46.081
G01 F600 X33.319 Y46.156
G01 F600 X33.138 Y46.195
G01 F600 X32.953 Y46.195
G00 F3000 Z3.000
G00 F3000 X50.733 Y46.195
G00 F1500 Z0
G01 F600 Z-0.200
G01 F600 X50.552 Y46.156
G01 F600 X50.383 Y46.081
G01 F600 X50.233 Y45.972
G01 F600 X50.109 Y45.834
G01 F600 X50.016 Y45.674
G01 F600 X49.959 Y45.498
G01 F600 X49.940 Y45.314
G01 F600 X49.959 Y45.129
G01 F600 X50.016 Y44.953
G01 F600 X50.109 Y44.793
G01 F600 X50.233 Y44.655
G01 F600 X50.383 Y44.547
G01 F600 X50.552 Y44.471
G01 F600 X50.733 Y44.433
G01 F600 X50.918 Y44.433
G01 F600 X51.099 Y44.471
G01 F600 X51.268 Y44.547
G01 F600 X51.310 Y44.577
G01 F600 X51.343 Y44.570
G01 F600 X51.425 Y44.570
G01 F600 X51.505 Y44.587
G01 F600 X51.580 Y44.620
G01 F600 X51.646 Y44.668
G01 F600 X51.700 Y44.728
G01 F600 X51.741 Y44.799
G01 F600 X51.766 Y44.877
G01 F600 X51.769 Y44.900
G01 F600 X55.767 Y44.900
G01 F600 X58.055 Y42.589
G01 F600 X58.055 Y41.190
G01 F600 X57.926 Y41.133
G01 F600 X57.751 Y41.005
G01 F600 X57.605 Y40.844
G01 F600 X57.497 Y40.656
G01 F600 X57.430 Y40.450
G01 F600 X57.407 Y40.234
G01 F600 X57.430 Y40.018
G01 F600 X57.497 Y39.811
G01 F600 X57.605 Y39.623
G01 F600 X57.751 Y39.462
G01 F600 X57.926 Y39.334
G01 F600 X58.125 Y39.246
G01 F600 X58.337 Y39.201
G01 F600 X58.554 Y39.201
G01 F600 X58.766 Y39.246
G01 F600 X58.965 Y39.334
G01 F600 X59.140 Y39.462
G01 F600 X59.285 Y39.623
G01 F600 X59.394 Y39.811
G01 F600 X59.461 Y40.018
G01 F600 X59.484 Y40.234
G01 F600 X59.461 Y40.450
G01 F600 X59.394 Y40.656
G01 F600 X59.285 Y40.844
G01 F600 X59.140 Y41.005
G01 F600 X58.965 Y41.133
G01 F600 X58.836 Y41.190
G01 F600 X58.836 Y42.753
G01 F600 X58.827 Y42.829
G01 F600 X58.802 Y42.907
G01 F600 X58.761 Y42.978
G01 F600 X58.711 Y43.033
G01 F600 X56.191 Y45.580
G01 F600 X56.126 Y45.626
G01 F600 X56.052 Y45.660
G01 F600 X55.972 Y45.677
G01 F600 X51.633 Y45.677
G01 F600 X51.542 Y45.834
G01 F600 X51.418 Y45.972
G01 F600 X51.268 Y46.081
G01 F600 X51.099 Y46.156
G01 F600 X50.918 Y46.195
G01 F600 X50.733 Y46.195
G00 F3000 Z3.000
G00 F3000 X15.173 Y46.195
G00 F1500 Z0
G01 F600 Z-0.200
G01 F600 X14.992 Y46.156
G01 F600 X14.823 Y46.081
G01 F600 X14.673 Y45.972
G01 F600 X14.549 Y45.834
G01 F600 X14.456 Y45.674
G01 F600 X14.399 Y45.498
G01 F600 X14.380 Y45.314
G01 F600 X14.399 Y45.129
G01 F600 X14.456 Y44.953
G01 F600 X14.549 Y44.793
G01 F600 X14.673 Y44.655
G01 F600 X14.823 Y44.547
G01 F600 X14.992 Y44.471
G01 F600 X15.173 Y44.433
G01 F600 X15.358 Y44.433
G01 F600 X15.539 Y44.471
G01 F600 X15.708 Y44.547
G01 F600 X15.858 Y44.655
G01 F600 X15.983 Y44.794
G01 F600 X16.054 Y44.924
G01 F600 X20.131 Y44.901
G01 F600 X22.445 Y42.587
G01 F600 X22.445 Y41.168
G01 F600 X22.366 Y41.133
G01 F600 X22.191 Y41.005
G01 F600 X22.045 Y40.844
G01 F600 X21.937 Y40.656
G01 F600 X21.870 Y40.451
G01 F600 X21.846 Y40.289
G01 F600 X21.817 Y40.240
G01 F600 X21.792 Y40.162
G01 F600 X21.784 Y40.081
G01 F600 X21.792 Y40.000
G01 F600 X21.817 Y39.922
G01 F600 X21.858 Y39.852
G01 F600 X21.914 Y39.790
G01 F600 X21.972 Y39.751
G01 F600 X22.045 Y39.623
G01 F600 X22.191 Y39.462
G01 F600 X22.366 Y39.334
G01 F600 X22.565 Y39.246
G01 F600 X22.777 Y39.201
G01 F600 X22.994 Y39.201
G01 F600 X23.206 Y39.246
G01 F600 X23.405 Y39.334
G01 F600 X23.580 Y39.462
G01 F600 X23.725 Y39.623
G01 F600 X23.834 Y39.811
G01 F600 X23.901 Y40.018
G01 F600 X23.924 Y40.234
G01 F600 X23.901 Y40.450
G01 F600 X23.834 Y40.656
G01 F600 X23.725 Y40.844
G01 F600 X23.580 Y41.005
G01 F600 X23.405 Y41.133
G01 F600 X23.225 Y41.213
G01 F600 X23.225 Y42.753
G01 F600 X23.217 Y42.829
G01 F600 X23.191 Y42.907
G01 F600 X23.151 Y42.978
G01 F600 X23.100 Y43.033
G01 F600 X20.554 Y45.580
G01 F600 X20.490 Y45.626
G01 F600 X20.415 Y45.660
G01 F600 X20.336 Y45.677
G01 F600 X16.046 Y45.724
G01 F600 X15.982 Y45.834
G01 F600 X15.858 Y45.972
G01 F600 X15.708 Y46.081
G01 F600 X15.539 Y46.156
G01 F600 X15.358 Y46.195
G01 F600 X15.173 Y46.195
G00 F3000 Z3.000
G00 F3000 X30.397 Y41.266
G00 F1500 Z0
G01 F600 Z-0.200
G01 F600 X30.185 Y41.221
G01 F600 X29.986 Y41.133
G01 F600 X29.811 Y41.005
G01 F600 X29.665 Y40.844
G01 F600 X29.557 Y40.656
G01 F600 X29.490 Y40.450
G01 F600 X29.467 Y40.234
G01 F600 X29.490 Y40.018
G01 F600 X29.557 Y39.811
G01 F600 X29.665 Y39.623
G01 F600 X29.811 Y39.462
G01 F600 X29.986 Y39.334
G01 F600 X30.119 Y39.276
G01 F600 X30.141 Y37.695
G01 F600 X30.117 Y35.843
G01 F600 X29.993 Y35.788
G01 F600 X29.819 Y35.662
G01 F600 X29.676 Y35.502
G01 F600 X29.569 Y35.317
G01 F600 X29.502 Y35.113
G01 F600 X29.480 Y34.900
G01 F600 X29.502 Y34.686
G01 F600 X29.569 Y34.483
G01 F600 X29.676 Y34.297
G01 F600 X29.819 Y34.138
G01 F600 X29.993 Y34.011
G01 F600 X30.115 Y33.957
G01 F600 X30.115 Y18.330
G01 F600 X29.986 Y18.273
G01 F600 X29.811 Y18.145
G01 F600 X29.665 Y17.984
G01 F600 X29.557 Y17.796
G01 F600 X29.490 Y17.590
G01 F600 X29.467 Y17.374
G01 F600 X29.490 Y17.158
G01 F600 X29.557 Y16.951
G01 F600 X29.665 Y16.763
G01 F600 X29.811 Y16.602
G01 F600 X29.986 Y16.474
G01 F600 X30.116 Y16.416
G01 F600 X30.130 Y12.989
G01 F600 X29.993 Y12.928
G01 F600 X29.819 Y12.802
G01 F600 X29.676 Y12.642
G01 F600 X29.569 Y12.457
G01 F600 X29.502 Y12.253
G01 F600 X29.480 Y12.040
G01 F600 X29.502 Y11.826
G01 F600 X29.569 Y11.623
G01 F600 X29.676 Y11.437
G01 F600 X29.819 Y11.277
G01 F600 X29.993 Y11.151
G01 F600 X30.189 Y11.064
G01 F600 X30.398 Y11.020
G01 F600 X30.613 Y11.020
G01 F600 X30.822 Y11.064
G01 F600 X31.018 Y11.151
G01 F600 X31.192 Y11.277
G01 F600 X31.335 Y11.437
G01 F600 X31.442 Y11.623
G01 F600 X31.509 Y11.826
G01 F600 X31.531 Y12.040
G01 F600 X31.509 Y12.253
G01 F600 X31.442 Y12.457
G01 F600 X31.335 Y12.642
G01 F600 X31.192 Y12.802
G01 F600 X31.018 Y12.928
G01 F600 X30.947 Y12.960
G01 F600 X30.938 Y12.986
G01 F600 X30.917 Y13.024
G01 F600 X30.897 Y16.418
G01 F600 X31.024 Y16.474
G01 F600 X31.200 Y16.602
G01 F600 X31.345 Y16.763
G01 F600 X31.454 Y16.951
G01 F600 X31.521 Y17.158
G01 F600 X31.544 Y17.374
G01 F600 X31.521 Y17.590
G01 F600 X31.454 Y17.796
G01 F600 X31.345 Y17.984
G01 F600 X31.200 Y18.145
G01 F600 X31.024 Y18.273
G01 F600 X30.896 Y18.330
G01 F600 X30.896 Y33.957
G01 F600 X31.018 Y34.011
G01 F600 X31.192 Y34.138
G01 F600 X31.335 Y34.297
G01 F600 X31.442 Y34.483
G01 F600 X31.509 Y34.686
G01 F600 X31.531 Y34.900
G01 F600 X31.509 Y35.113
G01 F600 X31.442 Y35.317
G01 F600 X31.335 Y35.502
G01 F600 X31.192 Y35.662
G01 F600 X31.018 Y35.788
G01 F600 X30.898 Y35.842
G01 F600 X30.921 Y37.694
G01 F600 X30.899 Y39.279
G01 F600 X31.024 Y39.334
G01 F600 X31.200 Y39.462
G01 F600 X31.345 Y39.623
G01 F600 X31.454 Y39.811
G01 F600 X31.521 Y40.018
G01 F600 X31.544 Y40.234
G01 F600 X31.521 Y40.450
G01 F600 X31.454 Y40.656
G01 F600 X31.345 Y40.844
G01 F600 X31.200 Y41.005
G01 F600 X31.024 Y41.133
G01 F600 X30.826 Y41.221
G01 F600 X30.614 Y41.266
G01 F600 X30.397 Y41.266
G00 F3000 Z3.000
G00 F3000 X48.177 Y41.266
G00 F1500 Z0
G01 F600 Z-0.200
G01 F600 X47.965 Y41.221
G01 F600 X47.766 Y41.133
G01 F600 X47.591 Y41.005
G01 F600 X47.445 Y40.844
G01 F600 X47.337 Y40.656
G01 F600 X47.270 Y40.451
G01 F600 X47.246 Y40.289
G01 F600 X47.217 Y40.240
G01 F600 X47.192 Y40.162
G01 F600 X47.184 Y40.081
G01 F600 X47.192 Y40.000
G01 F600 X47.217 Y39.922
G01 F600 X47.258 Y39.852
G01 F600 X47.314 Y39.790
G01 F600 X47.372 Y39.751
G01 F600 X47.445 Y39.623
G01 F600 X47.591 Y39.462
G01 F600 X47.766 Y39.334
G01 F600 X47.850 Y39.297
G01 F600 X47.869 Y35.831
G01 F600 X47.773 Y35.788
G01 F600 X47.599 Y35.662
G01 F600 X47.456 Y35.502
G01 F600 X47.349 Y35.317
G01 F600 X47.282 Y35.113
G01 F600 X47.260 Y34.900
G01 F600 X47.282 Y34.686
G01 F600 X47.349 Y34.483
G01 F600 X47.456 Y34.297
G01 F600 X47.599 Y34.138
G01 F600 X47.773 Y34.011
G01 F600 X47.895 Y33.957
G01 F600 X47.895 Y18.330
G01 F600 X47.766 Y18.273
G01 F600 X47.591 Y18.145
G01 F600 X47.445 Y17.984
G01 F600 X47.337 Y17.796
G01 F600 X47.270 Y17.590
G01 F600 X47.247 Y17.374
G01 F600 X47.270 Y17.158
G01 F600 X47.337 Y16.951
G01 F600 X47.445 Y16.763
G01 F600 X47.591 Y16.602
G01 F600 X47.766 Y16.474
G01 F600 X47.868 Y16.429
G01 F600 X47.844 Y13.087
G01 F600 X47.817 Y13.057
G01 F600 X47.776 Y12.986
G01 F600 X47.756 Y12.924
G01 F600 X47.749 Y12.911
G01 F600 X47.599 Y12.802
G01 F600 X47.456 Y12.642
G01 F600 X47.349 Y12.457
G01 F600 X47.282 Y12.253
G01 F600 X47.260 Y12.040
G01 F600 X47.282 Y11.826
G01 F600 X47.349 Y11.623
G01 F600 X47.456 Y11.437
G01 F600 X47.599 Y11.277
G01 F600 X47.773 Y11.151
G01 F600 X47.968 Y11.064
G01 F600 X48.178 Y11.020
G01 F600 X48.393 Y11.020
G01 F600 X48.602 Y11.064
G01 F600 X48.798 Y11.151
G01 F600 X48.972 Y11.277
G01 F600 X49.115 Y11.437
G01 F600 X49.222 Y11.623
G01 F600 X49.289 Y11.826
G01 F600 X49.311 Y12.040
G01 F600 X49.289 Y12.253
G01 F600 X49.222 Y12.457
G01 F600 X49.115 Y12.642
G01 F600 X48.972 Y12.802
G01 F600 X48.798 Y12.928
G01 F600 X48.629 Y13.003
G01 F600 X48.664 Y16.412
G01 F600 X48.805 Y16.474
G01 F600 X48.980 Y16.602
G01 F600 X49.125 Y16.763
G01 F600 X49.234 Y16.951
G01 F600 X49.301 Y17.158
G01 F600 X49.324 Y17.374
G01 F600 X49.301 Y17.590
G01 F600 X49.234 Y17.796
G01 F600 X49.125 Y17.984
G01 F600 X48.980 Y18.145
G01 F600 X48.805 Y18.273
G01 F600 X48.675 Y18.330
G01 F600 X48.675 Y33.957
G01 F600 X48.798 Y34.011
G01 F600 X48.972 Y34.138
G01 F600 X49.115 Y34.297
G01 F600 X49.222 Y34.483
G01 F600 X49.289 Y34.686
G01 F600 X49.311 Y34.900
G01 F600 X49.289 Y35.113
G01 F600 X49.222 Y35.317
G01 F600 X49.115 Y35.502
G01 F600 X48.972 Y35.662
G01 F600 X48.798 Y35.788
G01 F600 X48.649 Y35.852
G01 F600 X48.630 Y39.257
G01 F600 X48.805 Y39.334
G01 F600 X48.980 Y39.462
G01 F600 X49.125 Y39.623
G01 F600 X49.234 Y39.811
G01 F600 X49.301 Y40.018
G01 F600 X49.324 Y40.234
G01 F600 X49.301 Y40.450
G01 F600 X49.234 Y40.656
G01 F600 X49.125 Y40.844
G01 F600 X48.980 Y41.005
G01 F600 X48.805 Y41.133
G01 F600 X48.606 Y41.221
G01 F600 X48.394 Y41.266
G01 F600 X48.177 Y41.266
G00 F3000 Z3.000
G00 F3000 X20.238 Y36.174
G00 F1500 Z0
G01 F600 Z-0.200
G01 F600 X20.029 Y36.129
G01 F600 X19.833 Y36.042
G01 F600 X19.659 Y35.916
G01 F600 X19.516 Y35.756
G01 F600 X19.409 Y35.571
G01 F600 X19.342 Y35.367
G01 F600 X19.320 Y35.154
G01 F600 X19.342 Y34.940
G01 F600 X19.409 Y34.736
G01 F600 X19.516 Y34.551
G01 F600 X19.659 Y34.392
G01 F600 X19.833 Y34.265
G01 F600 X20.029 Y34.178
G01 F600 X20.238 Y34.134
G01 F600 X20.453 Y34.134
G01 F600 X20.662 Y34.178
G01 F600 X20.858 Y34.265
G01 F600 X21.032 Y34.392
G01 F600 X21.175 Y34.551
G01 F600 X21.282 Y34.736
G01 F600 X21.349 Y34.940
G01 F600 X21.371 Y35.154
G01 F600 X21.349 Y35.367
G01 F600 X21.282 Y35.571
G01 F600 X21.175 Y35.756
G01 F600 X21.032 Y35.916
G01 F600 X20.858 Y36.042
G01 F600 X20.662 Y36.129
G01 F600 X20.453 Y36.174
G01 F600 X20.238 Y36.174
G00 F3000 Z3.000
G00 F3000 X27.858 Y36.174
G00 F1500 Z0
G01 F600 Z-0.200
G01 F600 X27.649 Y36.129
G01 F600 X27.453 Y36.042
G01 F600 X27.279 Y35.916
G01 F600 X27.136 Y35.756
G01 F600 X27.029 Y35.571
G01 F600 X26.962 Y35.367
G01 F600 X26.940 Y35.154
G01 F600 X26.962 Y34.940
G01 F600 X27.029 Y34.736
G01 F600 X27.136 Y34.551
G01 F600 X27.279 Y34.392
G01 F600 X27.453 Y34.265
G01 F600 X27.649 Y34.178
G01 F600 X27.858 Y34.134
G01 F600 X28.073 Y34.134
G01 F600 X28.282 Y34.178
G01 F600 X28.478 Y34.265
G01 F600 X28.652 Y34.392
G01 F600 X28.795 Y34.551
G01 F600 X28.902 Y34.736
G01 F600 X28.969 Y34.940
G01 F600 X28.991 Y35.154
G01 F600 X28.969 Y35.367
G01 F600 X28.902 Y35.571
G01 F600 X28.795 Y35.756
G01 F600 X28.652 Y35.916
G01 F600 X28.478 Y36.042
G01 F600 X28.282 Y36.129
G01 F600 X28.073 Y36.174
G01 F600 X27.858 Y36.174
G00 F3000 Z3.000
G00 F3000 X45.638 Y36.174
G00 F1500 Z0
G01 F600 Z-0.200
G01 F600 X45.428 Y36.129
G01 F600 X45.233 Y36.042
G01 F600 X45.059 Y35.916
G01 F600 X44.916 Y35.756
G01 F600 X44.809 Y35.571
G01 F600 X44.742 Y35.367
G01 F600 X44.720 Y35.154
G01 F600 X44.742 Y34.940
G01 F600 X44.809 Y34.736
G01 F600 X44.916 Y34.551
G01 F600 X45.059 Y34.392
G01 F600 X45.233 Y34.265
G01 F600 X45.428 Y34.178
G01 F600 X45.638 Y34.134
G01 F600 X45.853 Y34.134
G01 F600 X46.062 Y34.178
G01 F600 X46.258 Y34.265
G01 F600 X46.432 Y34.392
G01 F600 X46.575 Y34.551
G01 F600 X46.682 Y34.736
G01 F600 X46.749 Y34.940
G01 F600 X46.771 Y35.154
G01 F600 X46.749 Y35.367
G01 F600 X46.682 Y35.571
G01 F600 X46.575 Y35.756
G01 F600 X46.432 Y35.916
G01 F600 X46.258 Y36.042
G01 F600 X46.062 Y36.129
G01 F600 X45.853 Y36.174
G01 F600 X45.638 Y36.174
G00 F3000 Z3.000
G00 F3000 X50.718 Y36.174
G00 F1500 Z0
G01 F600 Z-0.200
G01 F600 X50.509 Y36.129
G01 F600 X50.313 Y36.042
G01 F600 X50.139 Y35.916
G01 F600 X49.996 Y35.756
G01 F600 X49.889 Y35.571
G01 F600 X49.822 Y35.367
G01 F600 X49.800 Y35.154
G01 F600 X49.822 Y34.940
G01 F600 X49.889 Y34.736
G01 F600 X49.996 Y34.551
G01 F600 X49.998 Y34.548
G01 F600 X49.032 Y32.938
G01 F600 X48.995 Y32.874
G01 F600 X48.970 Y32.796
G01 F600 X48.962 Y32.720
G01 F600 X48.962 Y20.519
G01 F600 X48.970 Y20.442
G01 F600 X48.994 Y20.367
G01 F600 X50.435 Y17.287
G01 F600 X50.435 Y13.236
G01 F600 X50.313 Y13.182
G01 F600 X50.139 Y13.056
G01 F600 X49.996 Y12.896
G01 F600 X49.889 Y12.711
G01 F600 X49.822 Y12.507
G01 F600 X49.800 Y12.294
G01 F600 X49.822 Y12.080
G01 F600 X49.889 Y11.877
G01 F600 X49.996 Y11.691
G01 F600 X50.139 Y11.532
G01 F600 X50.313 Y11.405
G01 F600 X50.509 Y11.318
G01 F600 X50.718 Y11.274
G01 F600 X50.933 Y11.274
G01 F600 X51.142 Y11.318
G01 F600 X51.338 Y11.405
G01 F600 X51.512 Y11.532
G01 F600 X51.655 Y11.691
G01 F600 X51.762 Y11.877
G01 F600 X51.829 Y12.080
G01 F600 X51.851 Y12.294
G01 F600 X51.829 Y12.507
G01 F600 X51.762 Y12.711
G01 F600 X51.655 Y12.896
G01 F600 X51.512 Y13.056
G01 F600 X51.338 Y13.182
G01 F600 X51.216 Y13.236
G01 F600 X51.216 Y17.378
G01 F600 X51.207 Y17.455
G01 F600 X51.183 Y17.529
G01 F600 X49.742 Y20.610
G01 F600 X49.742 Y32.610
G01 F600 X50.664 Y34.145
G01 F600 X50.718 Y34.134
G01 F600 X50.933 Y34.134
G01 F600 X51.142 Y34.178
G01 F600 X51.338 Y34.265
G01 F600 X51.512 Y34.392
G01 F600 X51.655 Y34.551
G01 F600 X51.762 Y34.736
G01 F600 X51.829 Y34.940
G01 F600 X51.851 Y35.154
G01 F600 X51.829 Y35.367
G01 F600 X51.762 Y35.571
G01 F600 X51.655 Y35.756
G01 F600 X51.512 Y35.916
G01 F600 X51.338 Y36.042
G01 F600 X51.142 Y36.129
G01 F600 X50.933 Y36.174
G01 F600 X50.718 Y36.174
G00 F3000 Z3.000
G00 F3000 X10.078 Y36.174
G00 F1500 Z0
G01 F600 Z-0.200
G01 F600 X9.869 Y36.129
G01 F600 X9.673 Y36.042
G01 F600 X9.499 Y35.916
G01 F600 X9.356 Y35.756
G01 F600 X9.248 Y35.571
G01 F600 X9.182 Y35.367
G01 F600 X9.160 Y35.154
G01 F600 X9.182 Y34.940
G01 F600 X9.248 Y34.736
G01 F600 X9.356 Y34.551
G01 F600 X9.499 Y34.392
G01 F600 X9.673 Y34.265
G01 F600 X9.869 Y34.178
G01 F600 X10.078 Y34.134
G01 F600 X10.293 Y34.134
G01 F600 X10.502 Y34.178
G01 F600 X10.698 Y34.265
G01 F600 X10.872 Y34.392
G01 F600 X11.015 Y34.551
G01 F600 X11.122 Y34.736
G01 F600 X11.189 Y34.940
G01 F600 X11.211 Y35.154
G01 F600 X11.189 Y35.367
G01 F600 X11.122 Y35.571
G01 F600 X11.015 Y35.756
G01 F600 X10.872 Y35.916
G01 F600 X10.698 Y36.042
G01 F600 X10.502 Y36.129
G01 F600 X10.293 Y36.174
G01 F600 X10.078 Y36.174
G00 F3000 Z3.000
G00 F3000 X15.158 Y36.174
G00 F1500 Z0
G01 F600 Z-0.200
G01 F600 X14.949 Y36.129
G01 F600 X14.753 Y36.042
G01 F600 X14.579 Y35.916
G01 F600 X14.436 Y35.756
G01 F600 X14.329 Y35.571
G01 F600 X14.262 Y35.367
G01 F600 X14.240 Y35.154
G01 F600 X14.262 Y34.940
G01 F600 X14.329 Y34.736
G01 F600 X14.436 Y34.551
G01 F600 X14.579 Y34.392
G01 F600 X14.753 Y34.265
G01 F600 X14.949 Y34.178
G01 F600 X15.158 Y34.134
G01 F600 X15.373 Y34.134
G01 F600 X15.582 Y34.178
G01 F600 X15.778 Y34.265
G01 F600 X15.952 Y34.392
G01 F600 X16.095 Y34.551
G01 F600 X16.202 Y34.736
G01 F600 X16.269 Y34.940
G01 F600 X16.291 Y35.154
G01 F600 X16.269 Y35.367
G01 F600 X16.202 Y35.571
G01 F600 X16.095 Y35.756
G01 F600 X15.952 Y35.916
G01 F600 X15.778 Y36.042
G01 F600 X15.582 Y36.129
G01 F600 X15.373 Y36.174
G01 F600 X15.158 Y36.174
G00 F3000 Z3.000
G00 F3000 X32.938 Y36.174
G00 F1500 Z0
G01 F600 Z-0.200
G01 F600 X32.729 Y36.129
G01 F600 X32.533 Y36.042
G01 F600 X32.359 Y35.916
G01 F600 X32.216 Y35.756
G01 F600 X32.108 Y35.571
G01 F600 X32.042 Y35.367
G01 F600 X32.020 Y35.154
G01 F600 X32.042 Y34.940
G01 F600 X32.108 Y34.736
G01 F600 X32.216 Y34.551
G01 F600 X32.359 Y34.392
G01 F600 X32.533 Y34.265
G01 F600 X32.729 Y34.178
G01 F600 X32.938 Y34.134
G01 F600 X33.153 Y34.134
G01 F600 X33.362 Y34.178
G01 F600 X33.558 Y34.265
G01 F600 X33.732 Y34.392
G01 F600 X33.875 Y34.551
G01 F600 X33.982 Y34.736
G01 F600 X34.049 Y34.940
G01 F600 X34.071 Y35.154
G01 F600 X34.049 Y35.367
G01 F600 X33.982 Y35.571
G01 F600 X33.875 Y35.756
G01 F600 X33.732 Y35.916
G01 F600 X33.558 Y36.042
G01 F600 X33.362 Y36.129
G01 F600 X33.153 Y36.174
G01 F600 X32.938 Y36.174
G00 F3000 Z3.000
G00 F3000 X38.018 Y36.174
G00 F1500 Z0
G01 F600 Z-0.200
G01 F600 X37.809 Y36.129
G01 F600 X37.613 Y36.042
G01 F600 X37.439 Y35.916
G01 F600 X37.296 Y35.756
G01 F600 X37.189 Y35.571
G01 F600 X37.122 Y35.367
G01 F600 X37.100 Y35.154
G01 F600 X37.122 Y34.940
G01 F600 X37.189 Y34.736
G01 F600 X37.296 Y34.551
G01 F600 X37.439 Y34.392
G01 F600 X37.613 Y34.265
G01 F600 X37.809 Y34.178
G01 F600 X38.018 Y34.134
G01 F600 X38.233 Y34.134
G01 F600 X38.442 Y34.178
G01 F600 X38.638 Y34.265
G01 F600 X38.812 Y34.392
G01 F600 X38.955 Y34.551
G01 F600 X39.062 Y34.736
G01 F600 X39.129 Y34.940
G01 F600 X39.151 Y35.154
G01 F600 X39.129 Y35.367
G01 F600 X39.062 Y35.571
G01 F600 X38.955 Y35.756
G01 F600 X38.812 Y35.916
G01 F600 X38.638 Y36.042
G01 F600 X38.442 Y36.129
G01 F600 X38.233 Y36.174
G01 F600 X38.018 Y36.174
G00 F3000 Z3.000
G00 F3000 X17.698 Y35.920
G00 F1500 Z0
G01 F600 Z-0.200
G01 F600 X17.489 Y35.875
G01 F600 X17.293 Y35.788
G01 F600 X17.119 Y35.662
G01 F600 X16.976 Y35.502
G01 F600 X16.869 Y35.317
G01 F600 X16.802 Y35.113
G01 F600 X16.780 Y34.900
G01 F600 X16.802 Y34.686
G01 F600 X16.869 Y34.483
G01 F600 X16.976 Y34.297
G01 F600 X17.119 Y34.138
G01 F600 X17.293 Y34.011
G01 F600 X17.489 Y33.924
G01 F600 X17.698 Y33.880
G01 F600 X17.913 Y33.880
G01 F600 X18.122 Y33.924
G01 F600 X18.318 Y34.011
G01 F600 X18.492 Y34.138
G01 F600 X18.635 Y34.297
G01 F600 X18.742 Y34.483
G01 F600 X18.809 Y34.686
G01 F600 X18.831 Y34.900
G01 F600 X18.809 Y35.113
G01 F600 X18.742 Y35.317
G01 F600 X18.635 Y35.502
G01 F600 X18.492 Y35.662
G01 F600 X18.318 Y35.788
G01 F600 X18.122 Y35.875
G01 F600 X17.913 Y35.920
G01 F600 X17.698 Y35.920
G00 F3000 Z3.000
G00 F3000 X53.258 Y35.920
G00 F1500 Z0
G01 F600 Z-0.200
G01 F600 X53.049 Y35.875
G01 F600 X52.853 Y35.788
G01 F600 X52.679 Y35.662
G01 F600 X52.536 Y35.502
G01 F600 X52.428 Y35.317
G01 F600 X52.362 Y35.113
G01 F600 X52.340 Y34.900
G01 F600 X52.362 Y34.686
G01 F600 X52.428 Y34.483
G01 F600 X52.536 Y34.297
G01 F600 X52.679 Y34.138
G01 F600 X52.853 Y34.011
G01 F600 X53.049 Y33.924
G01 F600 X53.258 Y33.880
G01 F600 X53.473 Y33.880
G01 F600 X53.682 Y33.924
G01 F600 X53.878 Y34.011
G01 F600 X54.052 Y34.138
G01 F600 X54.195 Y34.297
G01 F600 X54.302 Y34.483
G01 F600 X54.369 Y34.686
G01 F600 X54.391 Y34.900
G01 F600 X54.369 Y35.113
G01 F600 X54.302 Y35.317
G01 F600 X54.195 Y35.502
G01 F600 X54.052 Y35.662
G01 F600 X53.878 Y35.788
G01 F600 X53.682 Y35.875
G01 F600 X53.473 Y35.920
G01 F600 X53.258 Y35.920
G00 F3000 Z3.000
G00 F3000 X7.538 Y35.920
G00 F1500 Z0
G01 F600 Z-0.200
G01 F600 X7.329 Y35.875
G01 F600 X7.133 Y35.788
G01 F600 X6.959 Y35.662
G01 F600 X6.816 Y35.502
G01 F600 X6.708 Y35.317
G01 F600 X6.642 Y35.113
G01 F600 X6.620 Y34.900
G01 F600 X6.642 Y34.686
G01 F600 X6.708 Y34.483
G01 F600 X6.816 Y34.297
G01 F600 X6.959 Y34.138
G01 F600 X7.133 Y34.011
G01 F600 X7.329 Y33.924
G01 F600 X7.538 Y33.880
G01 F600 X7.753 Y33.880
G01 F600 X7.962 Y33.924
G01 F600 X8.158 Y34.011
G01 F600 X8.332 Y34.138
G01 F600 X8.475 Y34.297
G01 F600 X8.582 Y34.483
G01 F600 X8.649 Y34.686
G01 F600 X8.671 Y34.900
G01 F600 X8.649 Y35.113
G01 F600 X8.582 Y35.317
G01 F600 X8.475 Y35.502
G01 F600 X8.332 Y35.662
G01 F600 X8.158 Y35.788
G01 F600 X7.962 Y35.875
G01 F600 X7.753 Y35.920
G01 F600 X7.538 Y35.920
G00 F3000 Z3.000
G00 F3000 X35.478 Y35.920
G00 F1500 Z0
G01 F600 Z-0.200
G01 F600 X35.269 Y35.875
G01 F600 X35.073 Y35.788
G01 F600 X34.899 Y35.662
G01 F600 X34.756 Y35.502
G01 F600 X34.648 Y35.317
G01 F600 X34.582 Y35.113
G01 F600 X34.560 Y34.900
G01 F600 X34.582 Y34.686
G01 F600 X34.648 Y34.483
G01 F600 X34.756 Y34.297
G01 F600 X34.899 Y34.138
G01 F600 X35.073 Y34.011
G01 F600 X35.269 Y33.924
G01 F600 X35.478 Y33.880
G01 F600 X35.693 Y33.880
G01 F600 X35.902 Y33.924
G01 F600 X36.098 Y34.011
G01 F600 X36.272 Y34.138
G01 F600 X36.415 Y34.297
G01 F600 X36.522 Y34.483
G01 F600 X36.589 Y34.686
G01 F600 X36.611 Y34.900
G01 F600 X36.589 Y35.113
G01 F600 X36.522 Y35.317
G01 F600 X36.415 Y35.502
G01 F600 X36.272 Y35.662
G01 F600 X36.098 Y35.788
G01 F600 X35.902 Y35.875
G01 F600 X35.693 Y35.920
G01 F600 X35.478 Y35.920
G00 F3000 Z3.000
G00 F3000 X32.160 Y25.854
G00 F1500 Z0
G01 F600 Z-0.200
G01 F600 X32.160 Y24.083
G01 F600 X33.931 Y24.083
G01 F600 X33.931 Y25.854
G01 F600 X32.160 Y25.854
G00 F3000 Z3.000
G00 F3000 X49.940 Y25.854
G00 F1500 Z0
G01 F600 Z-0.200
G01 F600 X49.940 Y24.083
G01 F600 X51.711 Y24.083
G01 F600 X51.711 Y25.854
G01 F600 X49.940 Y25.854
G00 F3000 Z3.000
G00 F3000 X50.733 Y23.335
G00 F1500 Z0
G01 F600 Z-0.200
G01 F600 X50.552 Y23.296
G01 F600 X50.383 Y23.221
G01 F600 X50.233 Y23.112
G01 F600 X50.109 Y22.974
G01 F600 X50.016 Y22.814
G01 F600 X49.959 Y22.638
G01 F600 X49.940 Y22.454
G01 F600 X49.959 Y22.269
G01 F600 X50.016 Y22.093
G01 F600 X50.109 Y21.933
G01 F600 X50.233 Y21.795
G01 F600 X50.383 Y21.687
G01 F600 X50.552 Y21.611
G01 F600 X50.733 Y21.573
G01 F600 X50.918 Y21.573
G01 F600 X51.099 Y21.611
G01 F600 X51.268 Y21.687
G01 F600 X51.418 Y21.795
G01 F600 X51.543 Y21.934
G01 F600 X51.613 Y22.063
G01 F600 X55.767 Y22.016
G01 F600 X58.055 Y19.727
G01 F600 X58.055 Y18.330
G01 F600 X57.926 Y18.273
G01 F600 X57.751 Y18.145
G01 F600 X57.605 Y17.984
G01 F600 X57.497 Y17.796
G01 F600 X57.430 Y17.590
G01 F600 X57.407 Y17.374
G01 F600 X57.430 Y17.158
G01 F600 X57.497 Y16.951
G01 F600 X57.605 Y16.763
G01 F600 X57.751 Y16.602
G01 F600 X57.926 Y16.474
G01 F600 X58.125 Y16.386
G01 F600 X58.337 Y16.341
G01 F600 X58.554 Y16.341
G01 F600 X58.762 Y16.385
G01 F600 X58.885 Y16.426
G01 F600 X58.943 Y16.426
G01 F600 X59.023 Y16.443
G01 F600 X59.098 Y16.477
G01 F600 X59.164 Y16.525
G01 F600 X59.219 Y16.585
G01 F600 X59.259 Y16.656
G01 F600 X59.283 Y16.728
G01 F600 X59.296 Y16.781
G01 F600 X59.394 Y16.951
G01 F600 X59.461 Y17.158
G01 F600 X59.484 Y17.374
G01 F600 X59.461 Y17.590
G01 F600 X59.394 Y17.796
G01 F600 X59.285 Y17.984
G01 F600 X59.140 Y18.145
G01 F600 X58.965 Y18.273
G01 F600 X58.836 Y18.330
G01 F600 X58.836 Y19.893
G01 F600 X58.827 Y19.969
G01 F600 X58.802 Y20.047
G01 F600 X58.761 Y20.118
G01 F600 X58.711 Y20.173
G01 F600 X56.190 Y22.694
G01 F600 X56.126 Y22.741
G01 F600 X56.052 Y22.774
G01 F600 X55.972 Y22.791
G01 F600 X51.606 Y22.864
G01 F600 X51.542 Y22.974
G01 F600 X51.418 Y23.112
G01 F600 X51.268 Y23.221
G01 F600 X51.099 Y23.296
G01 F600 X50.918 Y23.335
G01 F600 X50.733 Y23.335
G00 F3000 Z3.000
G00 F3000 X32.953 Y23.335
G00 F1500 Z0
G01 F600 Z-0.200
G01 F600 X32.772 Y23.296
G01 F600 X32.602 Y23.221
G01 F600 X32.453 Y23.112
G01 F600 X32.329 Y22.974
G01 F600 X32.236 Y22.814
G01 F600 X32.179 Y22.638
G01 F600 X32.160 Y22.454
G01 F600 X32.179 Y22.269
G01 F600 X32.236 Y22.093
G01 F600 X32.329 Y21.933
G01 F600 X32.453 Y21.795
G01 F600 X32.602 Y21.687
G01 F600 X32.772 Y21.611
G01 F600 X32.953 Y21.573
G01 F600 X33.138 Y21.573
G01 F600 X33.319 Y21.611
G01 F600 X33.488 Y21.687
G01 F600 X33.638 Y21.795
G01 F600 X33.763 Y21.934
G01 F600 X33.833 Y22.063
G01 F600 X37.937 Y22.016
G01 F600 X40.250 Y19.726
G01 F600 X40.250 Y18.319
G01 F600 X40.146 Y18.273
G01 F600 X39.971 Y18.145
G01 F600 X39.825 Y17.984
G01 F600 X39.717 Y17.796
G01 F600 X39.650 Y17.590
G01 F600 X39.627 Y17.374
G01 F600 X39.650 Y17.158
G01 F600 X39.717 Y16.951
G01 F600 X39.825 Y16.763
G01 F600 X39.874 Y16.709
G01 F600 X39.877 Y16.683
G01 F600 X39.902 Y16.605
G01 F600 X39.943 Y16.534
G01 F600 X39.998 Y16.474
G01 F600 X40.064 Y16.426
G01 F600 X40.138 Y16.393
G01 F600 X40.218 Y16.376
G01 F600 X40.294 Y16.376
G01 F600 X40.366 Y16.382
G01 F600 X40.557 Y16.341
G01 F600 X40.774 Y16.341
G01 F600 X40.986 Y16.386
G01 F600 X41.184 Y16.474
G01 F600 X41.360 Y16.602
G01 F600 X41.505 Y16.763
G01 F600 X41.614 Y16.951
G01 F600 X41.681 Y17.158
G01 F600 X41.704 Y17.374
G01 F600 X41.681 Y17.590
G01 F600 X41.614 Y17.796
G01 F600 X41.505 Y17.984
G01 F600 X41.360 Y18.145
G01 F600 X41.184 Y18.273
G01 F600 X41.030 Y18.339
G01 F600 X41.030 Y19.893
G01 F600 X41.022 Y19.969
G01 F600 X40.997 Y20.047
G01 F600 X40.956 Y20.118
G01 F600 X40.906 Y20.174
G01 F600 X38.359 Y22.695
G01 F600 X38.295 Y22.741
G01 F600 X38.221 Y22.774
G01 F600 X38.142 Y22.791
G01 F600 X33.826 Y22.864
G01 F600 X33.762 Y22.974
G01 F600 X33.638 Y23.112
G01 F600 X33.488 Y23.221
G01 F600 X33.319 Y23.296
G01 F600 X33.138 Y23.335
G01 F600 X32.953 Y23.335
G00 F3000 Z3.000
G00 F3000 X15.173 Y23.335
G00 F1500 Z0
G01 F600 Z-0.200
G01 F600 X14.992 Y23.296
G01 F600 X14.823 Y23.221
G01 F600 X14.673 Y23.112
G01 F600 X14.549 Y22.974
G01 F600 X14.456 Y22.814
G01 F600 X14.399 Y22.638
G01 F600 X14.380 Y22.454
G01 F600 X14.399 Y22.269
G01 F600 X14.456 Y22.093
G01 F600 X14.549 Y21.933
G01 F600 X14.673 Y21.795
G01 F600 X14.823 Y21.687
G01 F600 X14.992 Y21.611
G01 F600 X15.173 Y21.573
G01 F600 X15.358 Y21.573
G01 F600 X15.539 Y21.611
G01 F600 X15.708 Y21.687
G01 F600 X15.858 Y21.795
G01 F600 X15.983 Y21.934
G01 F600 X16.053 Y22.063
G01 F600 X20.131 Y22.016
G01 F600 X22.445 Y19.726
G01 F600 X22.445 Y18.308
G01 F600 X22.366 Y18.273
G01 F600 X22.191 Y18.145
G01 F600 X22.045 Y17.984
G01 F600 X21.937 Y17.796
G01 F600 X21.870 Y17.590
G01 F600 X21.847 Y17.375
G01 F600 X21.860 Y17.203
G01 F600 X21.843 Y17.150
G01 F600 X21.834 Y17.069
G01 F600 X21.843 Y16.988
G01 F600 X21.868 Y16.910
G01 F600 X21.909 Y16.839
G01 F600 X21.964 Y16.779
G01 F600 X22.031 Y16.729
G01 F600 X22.100 Y16.703
G01 F600 X22.191 Y16.602
G01 F600 X22.366 Y16.474
G01 F600 X22.565 Y16.386
G01 F600 X22.777 Y16.341
G01 F600 X22.994 Y16.341
G01 F600 X23.206 Y16.386
G01 F600 X23.405 Y16.474
G01 F600 X23.580 Y16.602
G01 F600 X23.725 Y16.763
G01 F600 X23.834 Y16.951
G01 F600 X23.901 Y17.158
G01 F600 X23.924 Y17.374
G01 F600 X23.901 Y17.590
G01 F600 X23.834 Y17.796
G01 F600 X23.725 Y17.984
G01 F600 X23.580 Y18.145
G01 F600 X23.405 Y18.273
G01 F600 X23.225 Y18.353
G01 F600 X23.225 Y19.893
G01 F600 X23.217 Y19.969
G01 F600 X23.191 Y20.047
G01 F600 X23.151 Y20.118
G01 F600 X23.100 Y20.174
G01 F600 X20.554 Y22.695
G01 F600 X20.490 Y22.741
G01 F600 X20.415 Y22.774
G01 F600 X20.336 Y22.791
G01 F600 X16.046 Y22.864
G01 F600 X15.982 Y22.974
G01 F600 X15.858 Y23.112
G01 F600 X15.708 Y23.221
G01 F600 X15.539 Y23.296
G01 F600 X15.358 Y23.335
G01 F600 X15.173 Y23.335
G00 F3000 Z3.000
G00 F3000 X45.638 Y13.314
G00 F1500 Z0
G01 F600 Z-0.200
G01 F600 X45.428 Y13.269
G01 F600 X45.233 Y13.182
G01 F600 X45.059 Y13.056
G01 F600 X44.916 Y12.896
G01 F600 X44.809 Y12.711
G01 F600 X44.742 Y12.507
G01 F600 X44.720 Y12.294
G01 F600 X44.742 Y12.080
G01 F600 X44.809 Y11.877
G01 F600 X44.916 Y11.691
G01 F600 X45.059 Y11.532
G01 F600 X45.233 Y11.405
G01 F600 X45.428 Y11.318
G01 F600 X45.638 Y11.274
G01 F600 X45.853 Y11.274
G01 F600 X46.062 Y11.318
G01 F600 X46.258 Y11.405
G01 F600 X46.432 Y11.532
G01 F600 X46.575 Y11.691
G01 F600 X46.682 Y11.877
G01 F600 X46.749 Y12.080
G01 F600 X46.771 Y12.294
G01 F600 X46.749 Y12.507
G01 F600 X46.682 Y12.711
G01 F600 X46.575 Y12.896
G01 F600 X46.432 Y13.056
G01 F600 X46.258 Y13.182
G01 F600 X46.062 Y13.269
G01 F600 X45.853 Y13.314
G01 F600 X45.638 Y13.314
G00 F3000 Z3.000
G00 F3000 X10.078 Y13.314
G00 F1500 Z0
G01 F600 Z-0.200
G01 F600 X9.869 Y13.269
G01 F600 X9.673 Y13.182
G01 F600 X9.499 Y13.056
G01 F600 X9.356 Y12.896
G01 F600 X9.248 Y12.711
G01 F600 X9.182 Y12.507
G01 F600 X9.160 Y12.294
G01 F600 X9.182 Y12.080
G01 F600 X9.248 Y11.877
G01 F600 X9.356 Y11.691
G01 F600 X9.499 Y11.532
G01 F600 X9.673 Y11.405
G01 F600 X9.869 Y11.318
G01 F600 X10.078 Y11.274
G01 F600 X10.293 Y11.274
G01 F600 X10.502 Y11.318
G01 F600 X10.698 Y11.405
G01 F600 X10.872 Y11.532
G01 F600 X11.015 Y11.691
G01 F600 X11.122 Y11.877
G01 F600 X11.189 Y12.080
G01 F600 X11.211 Y12.294
G01 F600 X11.189 Y12.507
G01 F600 X11.122 Y12.711
G01 F600 X11.015 Y12.896
G01 F600 X10.872 Y13.056
G01 F600 X10.698 Y13.182
G01 F600 X10.502 Y13.269
G01 F600 X10.293 Y13.314
G01 F600 X10.078 Y13.314
G00 F3000 Z3.000
G00 F3000 X27.858 Y13.314
G00 F1500 Z0
G01 F600 Z-0.200
G01 F600 X27.649 Y13.269
G01 F600 X27.453 Y13.182
G01 F600 X27.279 Y13.056
G01 F600 X27.136 Y12.896
G01 F600 X27.029 Y12.711
G01 F600 X26.962 Y12.507
G01 F600 X26.940 Y12.294
G01 F600 X26.962 Y12.080
G01 F600 X27.029 Y11.877
G01 F600 X27.136 Y11.691
G01 F600 X27.279 Y11.532
G01 F600 X27.453 Y11.405
G01 F600 X27.649 Y11.318
G01 F600 X27.858 Y11.274
G01 F600 X28.073 Y11.274
G01 F600 X28.282 Y11.318
G01 F600 X28.478 Y11.405
G01 F600 X28.652 Y11.532
G01 F600 X28.795 Y11.691
G01 F600 X28.902 Y11.877
G01 F600 X28.969 Y12.080
G01 F600 X28.991 Y12.294
G01 F600 X28.969 Y12.507
G01 F600 X28.902 Y12.711
G01 F600 X28.795 Y12.896
G01 F600 X28.652 Y13.056
G01 F600 X28.478 Y13.182
G01 F600 X28.282 Y13.269
G01 F600 X28.073 Y13.314
G01 F600 X27.858 Y13.314
G00 F3000 Z3.000
G00 F3000 X32.938 Y13.314
G00 F1500 Z0
G01 F600 Z-0.200
G01 F600 X32.729 Y13.269
G01 F600 X32.533 Y13.182
G01 F600 X32.359 Y13.056
G01 F600 X32.216 Y12.896
G01 F600 X32.108 Y12.711
G01 F600 X32.042 Y12.507
G01 F600 X32.020 Y12.294
G01 F600 X32.042 Y12.080
G01 F600 X32.108 Y11.877
G01 F600 X32.216 Y11.691
G01 F600 X32.359 Y11.532
G01 F600 X32.533 Y11.405
G01 F600 X32.729 Y11.318
G01 F600 X32.938 Y11.274
G01 F600 X33.153 Y11.274
G01 F600 X33.362 Y11.318
G01 F600 X33.558 Y11.405
G01 F600 X33.732 Y11.532
G01 F600 X33.875 Y11.691
G01 F600 X33.946 Y11.813
G01 F600 X34.609 Y11.744
G01 F600 X34.648 Y11.623
G01 F600 X34.756 Y11.437
G01 F600 X34.899 Y11.277
G01 F600 X35.073 Y11.151
G01 F600 X35.269 Y11.064
G01 F600 X35.478 Y11.020
G01 F600 X35.693 Y11.020
G01 F600 X35.902 Y11.064
G01 F600 X36.098 Y11.151
G01 F600 X36.272 Y11.277
G01 F600 X36.415 Y11.437
G01 F600 X36.522 Y11.623
G01 F600 X36.589 Y11.826
G01 F600 X36.611 Y12.040
G01 F600 X36.589 Y12.253
G01 F600 X36.522 Y12.457
G01 F600 X36.415 Y12.642
G01 F600 X36.272 Y12.802
G01 F600 X36.098 Y12.928
G01 F600 X35.902 Y13.015
G01 F600 X35.693 Y13.060
G01 F600 X35.478 Y13.060
G01 F600 X35.269 Y13.015
G01 F600 X35.073 Y12.928
G01 F600 X34.899 Y12.802
G01 F600 X34.756 Y12.642
G01 F600 X34.685 Y12.520
G01 F600 X34.022 Y12.590
G01 F600 X33.982 Y12.711
G01 F600 X33.875 Y12.896
G01 F600 X33.732 Y13.056
G01 F600 X33.558 Y13.182
G01 F600 X33.362 Y13.269
G01 F600 X33.153 Y13.314
G01 F600 X32.938 Y13.314
G00 F3000 Z3.000
G00 F3000 X15.158 Y13.314
G00 F1500 Z0
G01 F600 Z-0.200
G01 F600 X14.949 Y13.269
G01 F600 X14.753 Y13.182
G01 F600 X14.579 Y13.056
G01 F600 X14.436 Y12.896
G01 F600 X14.329 Y12.711
G01 F600 X14.262 Y12.507
G01 F600 X14.240 Y12.294
G01 F600 X14.262 Y12.080
G01 F600 X14.329 Y11.877
G01 F600 X14.436 Y11.691
G01 F600 X14.579 Y11.532
G01 F600 X14.753 Y11.405
G01 F600 X14.949 Y11.318
G01 F600 X15.158 Y11.274
G01 F600 X15.373 Y11.274
G01 F600 X15.582 Y11.318
G01 F600 X15.778 Y11.405
G01 F600 X15.952 Y11.532
G01 F600 X16.095 Y11.691
G01 F600 X16.202 Y11.877
G01 F600 X16.269 Y12.080
G01 F600 X16.291 Y12.294
G01 F600 X16.269 Y12.507
G01 F600 X16.202 Y12.711
G01 F600 X16.095 Y12.896
G01 F600 X15.952 Y13.056
G01 F600 X15.778 Y13.182
G01 F600 X15.582 Y13.269
G01 F600 X15.373 Y13.314
G01 F600 X15.158 Y13.314
G00 F3000 Z3.000
G00 F3000 X53.258 Y13.060
G00 F1500 Z0
G01 F600 Z-0.200
G01 F600 X53.049 Y13.015
G01 F600 X52.853 Y12.928
G01 F600 X52.679 Y12.802
G01 F600 X52.536 Y12.642
G01 F600 X52.428 Y12.457
G01 F600 X52.362 Y12.253
G01 F600 X52.340 Y12.040
G01 F600 X52.362 Y11.826
G01 F600 X52.428 Y11.623
G01 F600 X52.536 Y11.437
G01 F600 X52.679 Y11.277
G01 F600 X52.853 Y11.151
G01 F600 X53.049 Y11.064
G01 F600 X53.258 Y11.020
G01 F600 X53.473 Y11.020
G01 F600 X53.682 Y11.064
G01 F600 X53.878 Y11.151
G01 F600 X54.052 Y11.277
G01 F600 X54.195 Y11.437
G01 F600 X54.302 Y11.623
G01 F600 X54.369 Y11.826
G01 F600 X54.391 Y12.040
G01 F600 X54.369 Y12.253
G01 F600 X54.302 Y12.457
G01 F600 X54.195 Y12.642
G01 F600 X54.052 Y12.802
G01 F600 X53.878 Y12.928
G01 F600 X53.682 Y13.015
G01 F600 X53.473 Y13.060
G01 F600 X53.258 Y13.060
G00 F3000 Z3.000
G00 F3000 X43.098 Y13.060
G00 F1500 Z0
G01 F600 Z-0.200
G01 F600 X42.889 Y13.015
G01 F600 X42.693 Y12.928
G01 F600 X42.519 Y12.802
G01 F600 X42.376 Y12.642
G01 F600 X42.269 Y12.457
G01 F600 X42.202 Y12.253
G01 F600 X42.180 Y12.040
G01 F600 X42.202 Y11.826
G01 F600 X42.269 Y11.623
G01 F600 X42.376 Y11.437
G01 F600 X42.519 Y11.277
G01 F600 X42.693 Y11.151
G01 F600 X42.889 Y11.064
G01 F600 X43.098 Y11.020
G01 F600 X43.313 Y11.020
G01 F600 X43.522 Y11.064
G01 F600 X43.718 Y11.151
G01 F600 X43.892 Y11.277
G01 F600 X44.035 Y11.437
G01 F600 X44.142 Y11.623
G01 F600 X44.209 Y11.826
G01 F600 X44.231 Y12.040
G01 F600 X44.209 Y12.253
G01 F600 X44.142 Y12.457
G01 F600 X44.035 Y12.642
G01 F600 X43.892 Y12.802
G01 F600 X43.718 Y12.928
G01 F600 X43.522 Y13.015
G01 F600 X43.313 Y13.060
G01 F600 X43.098 Y13.060
G00 F3000 Z3.000
G00 F3000 X7.538 Y13.060
G00 F1500 Z0
G01 F600 Z-0.200
G01 F600 X7.329 Y13.015
G01 F600 X7.133 Y12.928
G01 F600 X6.959 Y12.802
G01 F600 X6.816 Y12.642
G01 F600 X6.708 Y12.457
G01 F600 X6.642 Y12.253
G01 F600 X6.620 Y12.040
G01 F600 X6.642 Y11.826
G01 F600 X6.708 Y11.623
G01 F600 X6.816 Y11.437
G01 F600 X6.959 Y11.277
G01 F600 X7.133 Y11.151
G01 F600 X7.329 Y11.064
G01 F600 X7.538 Y11.020
G01 F600 X7.753 Y11.020
G01 F600 X7.962 Y11.064
G01 F600 X8.158 Y11.151
G01 F600 X8.332 Y11.277
G01 F600 X8.475 Y11.437
G01 F600 X8.582 Y11.623
G01 F600 X8.649 Y11.826
G01 F600 X8.671 Y12.040
G01 F600 X8.649 Y12.253
G01 F600 X8.582 Y12.457
G01 F600 X8.475 Y12.642
G01 F600 X8.332 Y12.802
G01 F600 X8.158 Y12.928
G01 F600 X7.962 Y13.015
G01 F600 X7.753 Y13.060
G01 F600 X7.538 Y13.060
G00 F3000 Z3.000
G00 F3000 X25.318 Y13.060
G00 F1500 Z0
G01 F600 Z-0.200
G01 F600 X25.109 Y13.015
G01 F600 X24.913 Y12.928
G01 F600 X24.739 Y12.802
G01 F600 X24.596 Y12.642
G01 F600 X24.489 Y12.457
G01 F600 X24.422 Y12.253
G01 F600 X24.400 Y12.040
G01 F600 X24.422 Y11.826
G01 F600 X24.489 Y11.623
G01 F600 X24.596 Y11.437
G01 F600 X24.739 Y11.277
G01 F600 X24.913 Y11.151
G01 F600 X25.109 Y11.064
G01 F600 X25.318 Y11.020
G01 F600 X25.533 Y11.020
G01 F600 X25.742 Y11.064
G01 F600 X25.938 Y11.151
G01 F600 X26.112 Y11.277
G01 F600 X26.255 Y11.437
G01 F600 X26.362 Y11.623
G01 F600 X26.429 Y11.826
G01 F600 X26.451 Y12.040
G01 F600 X26.429 Y12.253
G01 F600 X26.362 Y12.457
G01 F600 X26.255 Y12.642
G01 F600 X26.112 Y12.802
G01 F600 X25.938 Y12.928
G01 F600 X25.742 Y13.015
G01 F600 X25.533 Y13.060
G01 F600 X25.318 Y13.060
G00 F3000 Z3.000
G00 F3000 X17.698 Y13.060
G00 F1500 Z0
G01 F600 Z-0.200
G01 F600 X17.489 Y13.015
G01 F600 X17.293 Y12.928
G01 F600 X17.119 Y12.802
G01 F600 X16.976 Y12.642
G01 F600 X16.869 Y12.457
G01 F600 X16.802 Y12.253
G01 F600 X16.780 Y12.040
G01 F600 X16.802 Y11.826
G01 F600 X16.869 Y11.623
G01 F600 X16.976 Y11.437
G01 F600 X17.119 Y11.277
G01 F600 X17.293 Y11.151
G01 F600 X17.489 Y11.064
G01 F600 X17.698 Y11.020
G01 F600 X17.913 Y11.020
G01 F600 X18.122 Y11.064
G01 F600 X18.318 Y11.151
G01 F600 X18.492 Y11.277
G01 F600 X18.635 Y11.437
G01 F600 X18.742 Y11.623
G01 F600 X18.809 Y11.826
G01 F600 X18.831 Y12.040
G01 F600 X18.809 Y12.253
G01 F600 X18.742 Y12.457
G01 F600 X18.635 Y12.642
G01 F600 X18.492 Y12.802
G01 F600 X18.318 Y12.928
G01 F600 X18.122 Y13.015
G01 F600 X17.913 Y13.060
G01 F600 X17.698 Y13.060
G00 F3000 Z3.000
G00 F3000 X15.151 Y59.107
G00 F1500 Z0
G01 F600 Z-0.200
G01 F600 X14.926 Y59.059
G01 F600 X14.716 Y58.966
G01 F600 X14.530 Y58.831
G01 F600 X14.376 Y58.660
G01 F600 X14.261 Y58.461
G01 F600 X14.190 Y58.242
G01 F600 X14.166 Y58.014
G01 F600 X14.190 Y57.785
G01 F600 X14.261 Y57.566
G01 F600 X14.376 Y57.367
G01 F600 X14.530 Y57.196
G01 F600 X14.716 Y57.061
G01 F600 X14.926 Y56.968
G01 F600 X15.151 Y56.920
G01 F600 X15.380 Y56.920
G01 F600 X15.605 Y56.968
G01 F600 X15.815 Y57.061
G01 F600 X16.001 Y57.196
G01 F600 X16.155 Y57.367
G01 F600 X16.270 Y57.566
G01 F600 X16.341 Y57.785
G01 F600 X16.365 Y58.014
G01 F600 X16.341 Y58.242
G01 F600 X16.270 Y58.461
G01 F600 X16.155 Y58.660
G01 F600 X16.001 Y58.831
G01 F600 X15.815 Y58.966
G01 F600 X15.605 Y59.059
G01 F600 X15.380 Y59.107
G01 F600 X15.151 Y59.107
G00 F3000 Z3.000
G00 F3000 X45.631 Y59.107
G00 F1500 Z0
G01 F600 Z-0.200
G01 F600 X45.406 Y59.059
G01 F600 X45.196 Y58.966
G01 F600 X45.010 Y58.831
G01 F600 X44.856 Y58.660
G01 F600 X44.741 Y58.461
G01 F600 X44.670 Y58.242
G01 F600 X44.646 Y58.014
G01 F600 X44.670 Y57.785
G01 F600 X44.741 Y57.566
G01 F600 X44.856 Y57.367
G01 F600 X45.010 Y57.196
G01 F600 X45.196 Y57.061
G01 F600 X45.406 Y56.968
G01 F600 X45.631 Y56.920
G01 F600 X45.860 Y56.920
G01 F600 X46.085 Y56.968
G01 F600 X46.295 Y57.061
G01 F600 X46.481 Y57.196
G01 F600 X46.635 Y57.367
G01 F600 X46.750 Y57.566
G01 F600 X46.821 Y57.785
G01 F600 X46.845 Y58.014
G01 F600 X46.821 Y58.242
G01 F600 X46.750 Y58.461
G01 F600 X46.635 Y58.660
G01 F600 X46.481 Y58.831
G01 F600 X46.295 Y58.966
G01 F600 X46.085 Y59.059
G01 F600 X45.860 Y59.107
G01 F600 X45.631 Y59.107
G00 F3000 Z3.000
G00 F3000 X32.931 Y59.107
G00 F1500 Z0
G01 F600 Z-0.200
G01 F600 X32.706 Y59.059
G01 F600 X32.495 Y58.966
G01 F600 X32.310 Y58.831
G01 F600 X32.156 Y58.660
G01 F600 X32.041 Y58.461
G01 F600 X31.970 Y58.242
G01 F600 X31.946 Y58.014
G01 F600 X31.970 Y57.785
G01 F600 X32.041 Y57.566
G01 F600 X32.156 Y57.367
G01 F600 X32.310 Y57.196
G01 F600 X32.495 Y57.061
G01 F600 X32.706 Y56.968
G01 F600 X32.931 Y56.920
G01 F600 X33.160 Y56.920
G01 F600 X33.385 Y56.968
G01 F600 X33.595 Y57.061
G01 F600 X33.781 Y57.196
G01 F600 X33.935 Y57.367
G01 F600 X34.050 Y57.566
G01 F600 X34.121 Y57.785
G01 F600 X34.145 Y58.014
G01 F600 X34.121 Y58.242
G01 F600 X34.050 Y58.461
G01 F600 X33.935 Y58.660
G01 F600 X33.781 Y58.831
G01 F600 X33.595 Y58.966
G01 F600 X33.385 Y59.059
G01 F600 X33.160 Y59.107
G01 F600 X32.931 Y59.107
G00 F3000 Z3.000
G00 F3000 X27.851 Y59.107
G00 F1500 Z0
G01 F600 Z-0.200
G01 F600 X27.626 Y59.059
G01 F600 X27.416 Y58.966
G01 F600 X27.230 Y58.831
G01 F600 X27.076 Y58.660
G01 F600 X26.961 Y58.461
G01 F600 X26.890 Y58.242
G01 F600 X26.866 Y58.014
G01 F600 X26.890 Y57.785
G01 F600 X26.961 Y57.566
G01 F600 X27.076 Y57.367
G01 F600 X27.230 Y57.196
G01 F600 X27.416 Y57.061
G01 F600 X27.626 Y56.968
G01 F600 X27.851 Y56.920
G01 F600 X28.080 Y56.920
G01 F600 X28.305 Y56.968
G01 F600 X28.515 Y57.061
G01 F600 X28.701 Y57.196
G01 F600 X28.855 Y57.367
G01 F600 X28.970 Y57.566
G01 F600 X29.041 Y57.785
G01 F600 X29.065 Y58.014
G01 F600 X29.041 Y58.242
G01 F600 X28.970 Y58.461
G01 F600 X28.855 Y58.660
G01 F600 X28.701 Y58.831
G01 F600 X28.515 Y58.966
G01 F600 X28.305 Y59.059
G01 F600 X28.080 Y59.107
G01 F600 X27.851 Y59.107
G00 F3000 Z3.000
G00 F3000 X12.611 Y59.107
G00 F1500 Z0
G01 F600 Z-0.200
G01 F600 X12.386 Y59.059
G01 F600 X12.176 Y58.966
G01 F600 X11.990 Y58.831
G01 F600 X11.836 Y58.660
G01 F600 X11.721 Y58.461
G01 F600 X11.650 Y58.242
G01 F600 X11.626 Y58.014
G01 F600 X11.650 Y57.785
G01 F600 X11.721 Y57.567
G01 F600 X11.836 Y57.367
G01 F600 X11.990 Y57.197
G01 F600 X12.176 Y57.062
G01 F600 X12.386 Y56.968
G01 F600 X12.611 Y56.920
G01 F600 X12.840 Y56.920
G01 F600 X13.065 Y56.968
G01 F600 X13.275 Y57.062
G01 F600 X13.461 Y57.197
G01 F600 X13.615 Y57.367
G01 F600 X13.730 Y57.567
G01 F600 X13.801 Y57.785
G01 F600 X13.825 Y58.014
G01 F600 X13.801 Y58.242
G01 F600 X13.730 Y58.461
G01 F600 X13.615 Y58.660
G01 F600 X13.461 Y58.831
G01 F600 X13.275 Y58.966
G01 F600 X13.065 Y59.059
G01 F600 X12.840 Y59.107
G01 F600 X12.611 Y59.107
G00 F3000 Z3.000
G00 F3000 X7.530 Y59.107
G00 F1500 Z0
G01 F600 Z-0.200
G01 F600 X7.306 Y59.059
G01 F600 X7.096 Y58.966
G01 F600 X6.910 Y58.831
G01 F600 X6.756 Y58.660
G01 F600 X6.641 Y58.461
G01 F600 X6.570 Y58.242
G01 F600 X6.546 Y58.014
G01 F600 X6.570 Y57.785
G01 F600 X6.641 Y57.567
G01 F600 X6.756 Y57.367
G01 F600 X6.910 Y57.197
G01 F600 X7.096 Y57.062
G01 F600 X7.306 Y56.968
G01 F600 X7.530 Y56.920
G01 F600 X7.760 Y56.920
G01 F600 X7.985 Y56.968
G01 F600 X8.195 Y57.062
G01 F600 X8.381 Y57.197
G01 F600 X8.535 Y57.367
G01 F600 X8.650 Y57.567
G01 F600 X8.721 Y57.785
G01 F600 X8.745 Y58.014
G01 F600 X8.721 Y58.242
G01 F600 X8.650 Y58.461
G01 F600 X8.535 Y58.660
G01 F600 X8.381 Y58.831
G01 F600 X8.195 Y58.966
G01 F600 X7.985 Y59.059
G01 F600 X7.760 Y59.107
G01 F600 X7.530 Y59.107
G00 F3000 Z3.000
G00 F3000 X10.071 Y59.107
G00 F1500 Z0
G01 F600 Z-0.200
G01 F600 X9.846 Y59.059
G01 F600 X9.636 Y58.966
G01 F600 X9.450 Y58.831
G01 F600 X9.296 Y58.660
G01 F600 X9.181 Y58.461
G01 F600 X9.110 Y58.242
G01 F600 X9.086 Y58.014
G01 F600 X9.110 Y57.785
G01 F600 X9.181 Y57.567
G01 F600 X9.296 Y57.367
G01 F600 X9.450 Y57.197
G01 F600 X9.636 Y57.062
G01 F600 X9.846 Y56.968
G01 F600 X10.071 Y56.920
G01 F600 X10.300 Y56.920
G01 F600 X10.525 Y56.968
G01 F600 X10.735 Y57.062
G01 F600 X10.921 Y57.197
G01 F600 X11.075 Y57.367
G01 F600 X11.190 Y57.567
G01 F600 X11.261 Y57.785
G01 F600 X11.285 Y58.014
G01 F600 X11.261 Y58.242
G01 F600 X11.190 Y58.461
G01 F600 X11.075 Y58.660
G01 F600 X10.921 Y58.831
G01 F600 X10.735 Y58.966
G01 F600 X10.525 Y59.059
G01 F600 X10.300 Y59.107
G01 F600 X10.071 Y59.107
G00 F3000 Z3.000
G00 F3000 X43.090 Y59.107
G00 F1500 Z0
G01 F600 Z-0.200
G01 F600 X42.866 Y59.059
G01 F600 X42.656 Y58.966
G01 F600 X42.470 Y58.831
G01 F600 X42.316 Y58.660
G01 F600 X42.201 Y58.461
G01 F600 X42.130 Y58.242
G01 F600 X42.106 Y58.014
G01 F600 X42.130 Y57.785
G01 F600 X42.201 Y57.567
G01 F600 X42.316 Y57.367
G01 F600 X42.470 Y57.197
G01 F600 X42.656 Y57.062
G01 F600 X42.866 Y56.968
G01 F600 X43.090 Y56.920
G01 F600 X43.320 Y56.920
G01 F600 X43.545 Y56.968
G01 F600 X43.755 Y57.062
G01 F600 X43.941 Y57.197
G01 F600 X44.095 Y57.367
G01 F600 X44.210 Y57.567
G01 F600 X44.281 Y57.785
G01 F600 X44.305 Y58.014
G01 F600 X44.281 Y58.242
G01 F600 X44.210 Y58.461
G01 F600 X44.095 Y58.660
G01 F600 X43.941 Y58.831
G01 F600 X43.755 Y58.966
G01 F600 X43.545 Y59.059
G01 F600 X43.320 Y59.107
G01 F600 X43.090 Y59.107
G00 F3000 Z3.000
G00 F3000 X38.011 Y59.107
G00 F1500 Z0
G01 F600 Z-0.200
G01 F600 X37.786 Y59.059
G01 F600 X37.576 Y58.966
G01 F600 X37.390 Y58.831
G01 F600 X37.236 Y58.660
G01 F600 X37.121 Y58.461
G01 F600 X37.050 Y58.242
G01 F600 X37.026 Y58.014
G01 F600 X37.050 Y57.785
G01 F600 X37.121 Y57.567
G01 F600 X37.236 Y57.367
G01 F600 X37.390 Y57.197
G01 F600 X37.576 Y57.062
G01 F600 X37.786 Y56.968
G01 F600 X38.011 Y56.920
G01 F600 X38.240 Y56.920
G01 F600 X38.465 Y56.968
G01 F600 X38.675 Y57.062
G01 F600 X38.861 Y57.197
G01 F600 X39.015 Y57.367
G01 F600 X39.130 Y57.567
G01 F600 X39.201 Y57.785
G01 F600 X39.225 Y58.014
G01 F600 X39.201 Y58.242
G01 F600 X39.130 Y58.461
G01 F600 X39.015 Y58.660
G01 F600 X38.861 Y58.831
G01 F600 X38.675 Y58.966
G01 F600 X38.465 Y59.059
G01 F600 X38.240 Y59.107
G01 F600 X38.011 Y59.107
G00 F3000 Z3.000
G00 F3000 X40.550 Y59.107
G00 F1500 Z0
G01 F600 Z-0.200
G01 F600 X40.326 Y59.059
G01 F600 X40.116 Y58.966
G01 F600 X39.930 Y58.831
G01 F600 X39.776 Y58.660
G01 F600 X39.661 Y58.461
G01 F600 X39.590 Y58.242
G01 F600 X39.566 Y58.014
G01 F600 X39.590 Y57.785
G01 F600 X39.661 Y57.567
G01 F600 X39.776 Y57.367
G01 F600 X39.930 Y57.197
G01 F600 X40.116 Y57.062
G01 F600 X40.326 Y56.968
G01 F600 X40.550 Y56.920
G01 F600 X40.780 Y56.920
G01 F600 X41.005 Y56.968
G01 F600 X41.215 Y57.062
G01 F600 X41.401 Y57.197
G01 F600 X41.555 Y57.367
G01 F600 X41.670 Y57.567
G01 F600 X41.741 Y57.785
G01 F600 X41.765 Y58.014
G01 F600 X41.741 Y58.242
G01 F600 X41.670 Y58.461
G01 F600 X41.555 Y58.660
G01 F600 X41.401 Y58.831
G01 F600 X41.215 Y58.966
G01 F600 X41.005 Y59.059
G01 F600 X40.780 Y59.107
G01 F600 X40.550 Y59.107
G00 F3000 Z3.000
G00 F3000 X53.251 Y59.107
G00 F1500 Z0
G01 F600 Z-0.200
G01 F600 X53.026 Y59.059
G01 F600 X52.816 Y58.966
G01 F600 X52.630 Y58.831
G01 F600 X52.476 Y58.660
G01 F600 X52.361 Y58.461
G01 F600 X52.290 Y58.242
G01 F600 X52.266 Y58.014
G01 F600 X52.290 Y57.785
G01 F600 X52.361 Y57.567
G01 F600 X52.476 Y57.367
G01 F600 X52.630 Y57.197
G01 F600 X52.816 Y57.062
G01 F600 X53.026 Y56.968
G01 F600 X53.251 Y56.920
G01 F600 X53.480 Y56.920
G01 F600 X53.705 Y56.968
G01 F600 X53.915 Y57.062
G01 F600 X54.101 Y57.197
G01 F600 X54.255 Y57.367
G01 F600 X54.370 Y57.567
G01 F600 X54.441 Y57.785
G01 F600 X54.465 Y58.014
G01 F600 X54.441 Y58.242
G01 F600 X54.370 Y58.461
G01 F600 X54.255 Y58.660
G01 F600 X54.101 Y58.831
G01 F600 X53.915 Y58.966
G01 F600 X53.705 Y59.059
G01 F600 X53.480 Y59.107
G01 F600 X53.251 Y59.107
G00 F3000 Z3.000
G00 F3000 X55.791 Y59.107
G00 F1500 Z0
G01 F600 Z-0.200
G01 F600 X55.566 Y59.059
G01 F600 X55.356 Y58.966
G01 F600 X55.170 Y58.831
G01 F600 X55.016 Y58.660
G01 F600 X54.901 Y58.461
G01 F600 X54.830 Y58.242
G01 F600 X54.806 Y58.014
G01 F600 X54.830 Y57.785
G01 F600 X54.901 Y57.567
G01 F600 X55.016 Y57.367
G01 F600 X55.170 Y57.197
G01 F600 X55.356 Y57.062
G01 F600 X55.566 Y56.968
G01 F600 X55.791 Y56.920
G01 F600 X56.020 Y56.920
G01 F600 X56.245 Y56.968
G01 F600 X56.455 Y57.062
G01 F600 X56.641 Y57.197
G01 F600 X56.795 Y57.367
G01 F600 X56.910 Y57.567
G01 F600 X56.981 Y57.785
G01 F600 X57.005 Y58.014
G01 F600 X56.981 Y58.242
G01 F600 X56.910 Y58.461
G01 F600 X56.795 Y58.660
G01 F600 X56.641 Y58.831
G01 F600 X56.455 Y58.966
G01 F600 X56.245 Y59.059
G01 F600 X56.020 Y59.107
G01 F600 X55.791 Y59.107
G00 F3000 Z3.000
G00 F3000 X48.171 Y59.107
G00 F1500 Z0
G01 F600 Z-0.200
G01 F600 X47.946 Y59.059
G01 F600 X47.736 Y58.966
G01 F600 X47.550 Y58.831
G01 F600 X47.396 Y58.660
G01 F600 X47.281 Y58.461
G01 F600 X47.210 Y58.242
G01 F600 X47.186 Y58.014
G01 F600 X47.210 Y57.785
G01 F600 X47.281 Y57.567
G01 F600 X47.396 Y57.367
G01 F600 X47.550 Y57.197
G01 F600 X47.736 Y57.062
G01 F600 X47.946 Y56.968
G01 F600 X48.171 Y56.920
G01 F600 X48.400 Y56.920
G01 F600 X48.625 Y56.968
G01 F600 X48.835 Y57.062
G01 F600 X49.021 Y57.197
G01 F600 X49.175 Y57.367
G01 F600 X49.290 Y57.567
G01 F600 X49.361 Y57.785
G01 F600 X49.385 Y58.014
G01 F600 X49.361 Y58.242
G01 F600 X49.290 Y58.461
G01 F600 X49.175 Y58.660
G01 F600 X49.021 Y58.831
G01 F600 X48.835 Y58.966
G01 F600 X48.625 Y59.059
G01 F600 X48.400 Y59.107
G01 F600 X48.171 Y59.107
G00 F3000 Z3.000
G00 F3000 X50.711 Y59.107
G00 F1500 Z0
G01 F600 Z-0.200
G01 F600 X50.486 Y59.059
G01 F600 X50.276 Y58.966
G01 F600 X50.090 Y58.831
G01 F600 X49.936 Y58.660
G01 F600 X49.821 Y58.461
G01 F600 X49.750 Y58.242
G01 F600 X49.726 Y58.014
G01 F600 X49.750 Y57.785
G01 F600 X49.821 Y57.567
G01 F600 X49.936 Y57.367
G01 F600 X50.090 Y57.197
G01 F600 X50.276 Y57.062
G01 F600 X50.486 Y56.968
G01 F600 X50.711 Y56.920
G01 F600 X50.940 Y56.920
G01 F600 X51.165 Y56.968
G01 F600 X51.375 Y57.062
G01 F600 X51.561 Y57.197
G01 F600 X51.715 Y57.367
G01 F600 X51.830 Y57.567
G01 F600 X51.901 Y57.785
G01 F600 X51.925 Y58.014
G01 F600 X51.901 Y58.242
G01 F600 X51.830 Y58.461
G01 F600 X51.715 Y58.660
G01 F600 X51.561 Y58.831
G01 F600 X51.375 Y58.966
G01 F600 X51.165 Y59.059
G01 F600 X50.940 Y59.107
G01 F600 X50.711 Y59.107
G00 F3000 Z3.000
G00 F3000 X22.771 Y59.107
G00 F1500 Z0
G01 F600 Z-0.200
G01 F600 X22.546 Y59.059
G01 F600 X22.336 Y58.966
G01 F600 X22.150 Y58.831
G01 F600 X21.996 Y58.660
G01 F600 X21.881 Y58.461
G01 F600 X21.810 Y58.242
G01 F600 X21.786 Y58.014
G01 F600 X21.810 Y57.785
G01 F600 X21.881 Y57.567
G01 F600 X21.996 Y57.367
G01 F600 X22.150 Y57.197
G01 F600 X22.336 Y57.062
G01 F600 X22.546 Y56.968
G01 F600 X22.771 Y56.920
G01 F600 X23.000 Y56.920
G01 F600 X23.225 Y56.968
G01 F600 X23.435 Y57.062
G01 F600 X23.621 Y57.197
G01 F600 X23.775 Y57.367
G01 F600 X23.890 Y57.567
G01 F600 X23.961 Y57.785
G01 F600 X23.985 Y58.014
G01 F600 X23.961 Y58.242
G01 F600 X23.890 Y58.461
G01 F600 X23.775 Y58.660
G01 F600 X23.621 Y58.831
G01 F600 X23.435 Y58.966
G01 F600 X23.225 Y59.059
G01 F600 X23.000 Y59.107
G01 F600 X22.771 Y59.107
G00 F3000 Z3.000
G00 F3000 X25.311 Y59.107
G00 F1500 Z0
G01 F600 Z-0.200
G01 F600 X25.086 Y59.059
