( PCB Contour )
( Generated by Rapid-PCB.com )
( Material Size)
( X= 72.290, Y= 100.000, Z= 1.490)
()
G00
G17
G21
G40
G49
G54
G80
G90
G94
G00 F3000 Z3.000
M03 S9000
G00 F3000 X12.972 Y59.740
G00 F1500 Z0
G01 F480 Z-0.200
G01 F480 X12.743 Y59.691
G01 F480 X12.528 Y59.595
G01 F480 X12.338 Y59.457
G01 F480 X12.181 Y59.283
G01 F480 X12.064 Y59.080
G01 F480 X11.991 Y58.857
G01 F480 X11.967 Y58.623
G01 F480 X11.991 Y58.390
G01 F480 X12.064 Y58.167
G01 F480 X12.181 Y57.963
G01 F480 X12.338 Y57.789
G01 F480 X12.528 Y57.651
G01 F480 X12.743 Y57.556
G01 F480 X12.972 Y57.507
G01 F480 X13.207 Y57.507
G01 F480 X13.436 Y57.556
G01 F480 X13.651 Y57.651
G01 F480 X13.841 Y57.789
G01 F480 X13.998 Y57.963
G01 F480 X14.115 Y58.167
G01 F480 X14.188 Y58.390
G01 F480 X14.212 Y58.623
G01 F480 X14.188 Y58.857
G01 F480 X14.115 Y59.080
G01 F480 X13.998 Y59.283
G01 F480 X13.841 Y59.457
G01 F480 X13.651 Y59.595
G01 F480 X13.436 Y59.691
G01 F480 X13.207 Y59.740
G01 F480 X12.972 Y59.740
G00 F3000 Z3.000
G00 F3000 X43.452 Y59.740
G00 F1500 Z0
G01 F480 Z-0.200
G01 F480 X43.223 Y59.691
G01 F480 X43.008 Y59.595
G01 F480 X42.818 Y59.457
G01 F480 X42.661 Y59.283
G01 F480 X42.544 Y59.080
G01 F480 X42.471 Y58.857
G01 F480 X42.447 Y58.623
G01 F480 X42.471 Y58.390
G01 F480 X42.544 Y58.167
G01 F480 X42.661 Y57.963
G01 F480 X42.818 Y57.789
G01 F480 X43.008 Y57.651
G01 F480 X43.223 Y57.556
G01 F480 X43.452 Y57.507
G01 F480 X43.687 Y57.507
G01 F480 X43.916 Y57.556
G01 F480 X44.131 Y57.651
G01 F480 X44.321 Y57.789
G01 F480 X44.478 Y57.963
G01 F480 X44.595 Y58.167
G01 F480 X44.668 Y58.390
G01 F480 X44.692 Y58.623
G01 F480 X44.668 Y58.857
G01 F480 X44.595 Y59.080
G01 F480 X44.478 Y59.283
G01 F480 X44.321 Y59.457
G01 F480 X44.131 Y59.595
G01 F480 X43.916 Y59.691
G01 F480 X43.687 Y59.740
G01 F480 X43.452 Y59.740
G00 F3000 Z3.000
G00 F3000 X25.672 Y59.740
G00 F1500 Z0
G01 F480 Z-0.200
G01 F480 X25.443 Y59.691
G01 F480 X25.228 Y59.595
G01 F480 X25.038 Y59.457
G01 F480 X24.881 Y59.283
G01 F480 X24.764 Y59.080
G01 F480 X24.691 Y58.857
G01 F480 X24.667 Y58.623
G01 F480 X24.691 Y58.390
G01 F480 X24.764 Y58.167
G01 F480 X24.881 Y57.963
G01 F480 X25.038 Y57.789
G01 F480 X25.228 Y57.651
G01 F480 X25.443 Y57.556
G01 F480 X25.672 Y57.507
G01 F480 X25.907 Y57.507
G01 F480 X26.136 Y57.556
G01 F480 X26.351 Y57.651
G01 F480 X26.541 Y57.789
G01 F480 X26.698 Y57.963
G01 F480 X26.815 Y58.167
G01 F480 X26.888 Y58.390
G01 F480 X26.912 Y58.623
G01 F480 X26.888 Y58.857
G01 F480 X26.815 Y59.080
G01 F480 X26.698 Y59.283
G01 F480 X26.541 Y59.457
G01 F480 X26.351 Y59.595
G01 F480 X26.136 Y59.691
G01 F480 X25.907 Y59.740
G01 F480 X25.672 Y59.740
G00 F3000 Z3.000
G00 F3000 X30.752 Y59.740
G00 F1500 Z0
G01 F480 Z-0.200
G01 F480 X30.523 Y59.691
G01 F480 X30.308 Y59.595
G01 F480 X30.118 Y59.457
G01 F480 X29.961 Y59.283
G01 F480 X29.844 Y59.080
G01 F480 X29.771 Y58.857
G01 F480 X29.747 Y58.623
G01 F480 X29.771 Y58.390
G01 F480 X29.844 Y58.167
G01 F480 X29.961 Y57.963
G01 F480 X30.118 Y57.789
G01 F480 X30.308 Y57.651
G01 F480 X30.523 Y57.556
G01 F480 X30.752 Y57.507
G01 F480 X30.987 Y57.507
G01 F480 X31.216 Y57.556
G01 F480 X31.431 Y57.651
G01 F480 X31.621 Y57.789
G01 F480 X31.778 Y57.963
G01 F480 X31.895 Y58.167
G01 F480 X31.968 Y58.390
G01 F480 X31.992 Y58.623
G01 F480 X31.968 Y58.857
G01 F480 X31.895 Y59.080
G01 F480 X31.778 Y59.283
G01 F480 X31.621 Y59.457
G01 F480 X31.431 Y59.595
G01 F480 X31.216 Y59.691
G01 F480 X30.987 Y59.740
G01 F480 X30.752 Y59.740
G00 F3000 Z3.000
G00 F3000 X18.052 Y59.739
G00 F1500 Z0
G01 F480 Z-0.200
G01 F480 X17.823 Y59.691
G01 F480 X17.608 Y59.595
G01 F480 X17.419 Y59.457
G01 F480 X17.262 Y59.283
G01 F480 X17.144 Y59.080
G01 F480 X17.072 Y58.857
G01 F480 X17.047 Y58.623
G01 F480 X17.072 Y58.390
G01 F480 X17.144 Y58.167
G01 F480 X17.262 Y57.964
G01 F480 X17.419 Y57.789
G01 F480 X17.608 Y57.651
G01 F480 X17.823 Y57.556
G01 F480 X18.052 Y57.507
G01 F480 X18.287 Y57.507
G01 F480 X18.516 Y57.556
G01 F480 X18.731 Y57.651
G01 F480 X18.920 Y57.789
G01 F480 X19.077 Y57.964
G01 F480 X19.195 Y58.167
G01 F480 X19.267 Y58.390
G01 F480 X19.292 Y58.623
G01 F480 X19.267 Y58.857
G01 F480 X19.195 Y59.080
G01 F480 X19.077 Y59.283
G01 F480 X18.920 Y59.457
G01 F480 X18.731 Y59.595
G01 F480 X18.516 Y59.691
G01 F480 X18.287 Y59.739
G01 F480 X18.052 Y59.739
G00 F3000 Z3.000
G00 F3000 X15.512 Y59.739
G00 F1500 Z0
G01 F480 Z-0.200
G01 F480 X15.283 Y59.691
G01 F480 X15.068 Y59.595
G01 F480 X14.879 Y59.457
G01 F480 X14.722 Y59.283
G01 F480 X14.604 Y59.080
G01 F480 X14.532 Y58.857
G01 F480 X14.507 Y58.623
G01 F480 X14.532 Y58.390
G01 F480 X14.604 Y58.167
G01 F480 X14.722 Y57.964
G01 F480 X14.879 Y57.789
G01 F480 X15.068 Y57.651
G01 F480 X15.283 Y57.556
G01 F480 X15.512 Y57.507
G01 F480 X15.747 Y57.507
G01 F480 X15.976 Y57.556
G01 F480 X16.191 Y57.651
G01 F480 X16.380 Y57.789
G01 F480 X16.537 Y57.964
G01 F480 X16.655 Y58.167
G01 F480 X16.727 Y58.390
G01 F480 X16.752 Y58.623
G01 F480 X16.727 Y58.857
G01 F480 X16.655 Y59.080
G01 F480 X16.537 Y59.283
G01 F480 X16.380 Y59.457
G01 F480 X16.191 Y59.595
G01 F480 X15.976 Y59.691
G01 F480 X15.747 Y59.739
G01 F480 X15.512 Y59.739
G00 F3000 Z3.000
G00 F3000 X23.132 Y59.739
G00 F1500 Z0
G01 F480 Z-0.200
G01 F480 X22.903 Y59.691
G01 F480 X22.688 Y59.595
G01 F480 X22.499 Y59.457
G01 F480 X22.342 Y59.283
G01 F480 X22.224 Y59.080
G01 F480 X22.152 Y58.857
G01 F480 X22.127 Y58.623
G01 F480 X22.152 Y58.390
G01 F480 X22.224 Y58.167
G01 F480 X22.342 Y57.964
G01 F480 X22.499 Y57.789
G01 F480 X22.688 Y57.651
G01 F480 X22.903 Y57.556
G01 F480 X23.132 Y57.507
G01 F480 X23.367 Y57.507
G01 F480 X23.596 Y57.556
G01 F480 X23.811 Y57.651
G01 F480 X24.000 Y57.789
G01 F480 X24.157 Y57.964
G01 F480 X24.275 Y58.167
G01 F480 X24.347 Y58.390
G01 F480 X24.372 Y58.623
G01 F480 X24.347 Y58.857
G01 F480 X24.275 Y59.080
G01 F480 X24.157 Y59.283
G01 F480 X24.000 Y59.457
G01 F480 X23.811 Y59.595
G01 F480 X23.596 Y59.691
G01 F480 X23.367 Y59.739
G01 F480 X23.132 Y59.739
G00 F3000 Z3.000
G00 F3000 X20.592 Y59.739
G00 F1500 Z0
G01 F480 Z-0.200
G01 F480 X20.363 Y59.691
G01 F480 X20.148 Y59.595
G01 F480 X19.959 Y59.457
G01 F480 X19.802 Y59.283
G01 F480 X19.684 Y59.080
G01 F480 X19.612 Y58.857
G01 F480 X19.587 Y58.623
G01 F480 X19.612 Y58.390
G01 F480 X19.684 Y58.167
G01 F480 X19.802 Y57.964
G01 F480 X19.959 Y57.789
G01 F480 X20.148 Y57.651
G01 F480 X20.363 Y57.556
G01 F480 X20.592 Y57.507
G01 F480 X20.827 Y57.507
G01 F480 X21.056 Y57.556
G01 F480 X21.271 Y57.651
G01 F480 X21.460 Y57.789
G01 F480 X21.617 Y57.964
G01 F480 X21.735 Y58.167
G01 F480 X21.807 Y58.390
G01 F480 X21.832 Y58.623
G01 F480 X21.807 Y58.857
G01 F480 X21.735 Y59.080
G01 F480 X21.617 Y59.283
G01 F480 X21.460 Y59.457
G01 F480 X21.271 Y59.595
G01 F480 X21.056 Y59.691
G01 F480 X20.827 Y59.739
G01 F480 X20.592 Y59.739
G00 F3000 Z3.000
G00 F3000 X7.892 Y59.739
G00 F1500 Z0
G01 F480 Z-0.200
G01 F480 X7.663 Y59.691
G01 F480 X7.448 Y59.595
G01 F480 X7.259 Y59.457
G01 F480 X7.102 Y59.283
G01 F480 X6.984 Y59.080
G01 F480 X6.912 Y58.857
G01 F480 X6.887 Y58.623
G01 F480 X6.912 Y58.390
G01 F480 X6.984 Y58.167
G01 F480 X7.102 Y57.964
G01 F480 X7.259 Y57.789
G01 F480 X7.448 Y57.651
G01 F480 X7.663 Y57.556
G01 F480 X7.892 Y57.507
G01 F480 X8.127 Y57.507
G01 F480 X8.356 Y57.556
G01 F480 X8.571 Y57.651
G01 F480 X8.760 Y57.789
G01 F480 X8.917 Y57.964
G01 F480 X9.035 Y58.167
G01 F480 X9.107 Y58.390
G01 F480 X9.132 Y58.623
G01 F480 X9.107 Y58.857
G01 F480 X9.035 Y59.080
G01 F480 X8.917 Y59.283
G01 F480 X8.760 Y59.457
G01 F480 X8.571 Y59.595
G01 F480 X8.356 Y59.691
G01 F480 X8.127 Y59.739
G01 F480 X7.892 Y59.739
G00 F3000 Z3.000
G00 F3000 X5.352 Y59.739
G00 F1500 Z0
G01 F480 Z-0.200
G01 F480 X5.123 Y59.691
G01 F480 X4.908 Y59.595
G01 F480 X4.719 Y59.457
G01 F480 X4.562 Y59.283
G01 F480 X4.444 Y59.080
G01 F480 X4.372 Y58.857
G01 F480 X4.347 Y58.623
G01 F480 X4.372 Y58.390
G01 F480 X4.444 Y58.167
G01 F480 X4.562 Y57.964
G01 F480 X4.719 Y57.789
G01 F480 X4.908 Y57.651
G01 F480 X5.123 Y57.556
G01 F480 X5.352 Y57.507
G01 F480 X5.587 Y57.507
G01 F480 X5.816 Y57.556
G01 F480 X6.031 Y57.651
G01 F480 X6.220 Y57.789
G01 F480 X6.377 Y57.964
G01 F480 X6.495 Y58.167
G01 F480 X6.567 Y58.390
G01 F480 X6.592 Y58.623
G01 F480 X6.567 Y58.857
G01 F480 X6.495 Y59.080
G01 F480 X6.377 Y59.283
G01 F480 X6.220 Y59.457
G01 F480 X6.031 Y59.595
G01 F480 X5.816 Y59.691
G01 F480 X5.587 Y59.739
G01 F480 X5.352 Y59.739
G00 F3000 Z3.000
G00 F3000 X10.432 Y59.739
G00 F1500 Z0
G01 F480 Z-0.200
G01 F480 X10.203 Y59.691
G01 F480 X9.988 Y59.595
G01 F480 X9.799 Y59.457
G01 F480 X9.642 Y59.283
G01 F480 X9.524 Y59.080
G01 F480 X9.452 Y58.857
G01 F480 X9.427 Y58.623
G01 F480 X9.452 Y58.390
G01 F480 X9.524 Y58.167
G01 F480 X9.642 Y57.964
G01 F480 X9.799 Y57.789
G01 F480 X9.988 Y57.651
G01 F480 X10.203 Y57.556
G01 F480 X10.432 Y57.507
G01 F480 X10.667 Y57.507
G01 F480 X10.896 Y57.556
G01 F480 X11.111 Y57.651
G01 F480 X11.300 Y57.789
G01 F480 X11.457 Y57.964
G01 F480 X11.575 Y58.167
G01 F480 X11.647 Y58.390
G01 F480 X11.672 Y58.623
G01 F480 X11.647 Y58.857
G01 F480 X11.575 Y59.080
G01 F480 X11.457 Y59.283
G01 F480 X11.300 Y59.457
G01 F480 X11.111 Y59.595
G01 F480 X10.896 Y59.691
G01 F480 X10.667 Y59.739
G01 F480 X10.432 Y59.739
G00 F3000 Z3.000
G00 F3000 X38.372 Y59.739
G00 F1500 Z0
G01 F480 Z-0.200
G01 F480 X38.143 Y59.691
G01 F480 X37.928 Y59.595
G01 F480 X37.739 Y59.457
G01 F480 X37.582 Y59.283
G01 F480 X37.464 Y59.080
G01 F480 X37.392 Y58.857
G01 F480 X37.367 Y58.623
G01 F480 X37.392 Y58.390
G01 F480 X37.464 Y58.167
G01 F480 X37.582 Y57.964
G01 F480 X37.739 Y57.789
G01 F480 X37.928 Y57.651
G01 F480 X38.143 Y57.556
G01 F480 X38.372 Y57.507
G01 F480 X38.607 Y57.507
G01 F480 X38.836 Y57.556
G01 F480 X39.051 Y57.651
G01 F480 X39.240 Y57.789
G01 F480 X39.397 Y57.964
G01 F480 X39.515 Y58.167
G01 F480 X39.587 Y58.390
G01 F480 X39.612 Y58.623
G01 F480 X39.587 Y58.857
G01 F480 X39.515 Y59.080
G01 F480 X39.397 Y59.283
G01 F480 X39.240 Y59.457
G01 F480 X39.051 Y59.595
G01 F480 X38.836 Y59.691
G01 F480 X38.607 Y59.739
G01 F480 X38.372 Y59.739
G00 F3000 Z3.000
G00 F3000 X35.832 Y59.739
G00 F1500 Z0
G01 F480 Z-0.200
G01 F480 X35.603 Y59.691
G01 F480 X35.388 Y59.595
G01 F480 X35.199 Y59.457
G01 F480 X35.042 Y59.283
G01 F480 X34.924 Y59.080
G01 F480 X34.852 Y58.857
G01 F480 X34.827 Y58.623
G01 F480 X34.852 Y58.390
G01 F480 X34.924 Y58.167
G01 F480 X35.042 Y57.964
G01 F480 X35.199 Y57.789
G01 F480 X35.388 Y57.651
G01 F480 X35.603 Y57.556
G01 F480 X35.832 Y57.507
G01 F480 X36.067 Y57.507
G01 F480 X36.296 Y57.556
G01 F480 X36.511 Y57.651
G01 F480 X36.700 Y57.789
G01 F480 X36.857 Y57.964
G01 F480 X36.975 Y58.167
G01 F480 X37.047 Y58.390
G01 F480 X37.072 Y58.623
G01 F480 X37.047 Y58.857
G01 F480 X36.975 Y59.080
G01 F480 X36.857 Y59.283
G01 F480 X36.700 Y59.457
G01 F480 X36.511 Y59.595
G01 F480 X36.296 Y59.691
G01 F480 X36.067 Y59.739
G01 F480 X35.832 Y59.739
G00 F3000 Z3.000
G00 F3000 X40.912 Y59.739
G00 F1500 Z0
G01 F480 Z-0.200
G01 F480 X40.683 Y59.691
G01 F480 X40.468 Y59.595
G01 F480 X40.279 Y59.457
G01 F480 X40.122 Y59.283
G01 F480 X40.004 Y59.080
G01 F480 X39.932 Y58.857
G01 F480 X39.907 Y58.623
G01 F480 X39.932 Y58.390
G01 F480 X40.004 Y58.167
G01 F480 X40.122 Y57.964
G01 F480 X40.279 Y57.789
G01 F480 X40.468 Y57.651
G01 F480 X40.683 Y57.556
G01 F480 X40.912 Y57.507
G01 F480 X41.147 Y57.507
G01 F480 X41.376 Y57.556
G01 F480 X41.591 Y57.651
G01 F480 X41.780 Y57.789
G01 F480 X41.937 Y57.964
G01 F480 X42.055 Y58.167
G01 F480 X42.127 Y58.390
G01 F480 X42.152 Y58.623
G01 F480 X42.127 Y58.857
G01 F480 X42.055 Y59.080
G01 F480 X41.937 Y59.283
G01 F480 X41.780 Y59.457
G01 F480 X41.591 Y59.595
G01 F480 X41.376 Y59.691
G01 F480 X41.147 Y59.739
G01 F480 X40.912 Y59.739
G00 F3000 Z3.000
G00 F3000 X28.212 Y59.739
G00 F1500 Z0
G01 F480 Z-0.200
G01 F480 X27.983 Y59.691
G01 F480 X27.768 Y59.595
G01 F480 X27.579 Y59.457
G01 F480 X27.422 Y59.283
G01 F480 X27.304 Y59.080
G01 F480 X27.232 Y58.857
G01 F480 X27.207 Y58.623
G01 F480 X27.232 Y58.390
G01 F480 X27.304 Y58.167
G01 F480 X27.422 Y57.964
G01 F480 X27.579 Y57.789
G01 F480 X27.768 Y57.651
G01 F480 X27.983 Y57.556
G01 F480 X28.212 Y57.507
G01 F480 X28.447 Y57.507
G01 F480 X28.676 Y57.556
G01 F480 X28.891 Y57.651
G01 F480 X29.080 Y57.789
G01 F480 X29.237 Y57.964
G01 F480 X29.355 Y58.167
G01 F480 X29.427 Y58.390
G01 F480 X29.452 Y58.623
G01 F480 X29.427 Y58.857
G01 F480 X29.355 Y59.080
G01 F480 X29.237 Y59.283
G01 F480 X29.080 Y59.457
G01 F480 X28.891 Y59.595
G01 F480 X28.676 Y59.691
G01 F480 X28.447 Y59.739
G01 F480 X28.212 Y59.739
G00 F3000 Z3.000
G00 F3000 X33.292 Y59.739
G00 F1500 Z0
G01 F480 Z-0.200
G01 F480 X33.063 Y59.691
G01 F480 X32.848 Y59.595
G01 F480 X32.659 Y59.457
G01 F480 X32.502 Y59.283
G01 F480 X32.384 Y59.080
G01 F480 X32.312 Y58.857
G01 F480 X32.287 Y58.623
G01 F480 X32.312 Y58.390
G01 F480 X32.384 Y58.167
G01 F480 X32.502 Y57.964
G01 F480 X32.659 Y57.789
G01 F480 X32.848 Y57.651
G01 F480 X33.063 Y57.556
G01 F480 X33.292 Y57.507
G01 F480 X33.527 Y57.507
G01 F480 X33.756 Y57.556
G01 F480 X33.971 Y57.651
G01 F480 X34.160 Y57.789
G01 F480 X34.317 Y57.964
G01 F480 X34.435 Y58.167
G01 F480 X34.507 Y58.390
G01 F480 X34.532 Y58.623
G01 F480 X34.507 Y58.857
G01 F480 X34.435 Y59.080
G01 F480 X34.317 Y59.283
G01 F480 X34.160 Y59.457
G01 F480 X33.971 Y59.595
G01 F480 X33.756 Y59.691
G01 F480 X33.527 Y59.739
G01 F480 X33.292 Y59.739
G00 F3000 Z3.000
G00 F3000 X48.532 Y59.739
G00 F1500 Z0
G01 F480 Z-0.200
G01 F480 X48.303 Y59.691
G01 F480 X48.088 Y59.595
G01 F480 X47.899 Y59.457
G01 F480 X47.742 Y59.283
G01 F480 X47.624 Y59.080
G01 F480 X47.552 Y58.857
G01 F480 X47.527 Y58.623
G01 F480 X47.552 Y58.390
G01 F480 X47.624 Y58.167
G01 F480 X47.742 Y57.964
G01 F480 X47.899 Y57.789
G01 F480 X48.088 Y57.651
G01 F480 X48.303 Y57.556
G01 F480 X48.532 Y57.507
G01 F480 X48.767 Y57.507
G01 F480 X48.996 Y57.556
G01 F480 X49.211 Y57.651
G01 F480 X49.400 Y57.789
G01 F480 X49.557 Y57.964
G01 F480 X49.675 Y58.167
G01 F480 X49.747 Y58.390
G01 F480 X49.772 Y58.623
G01 F480 X49.747 Y58.857
G01 F480 X49.675 Y59.080
G01 F480 X49.557 Y59.283
G01 F480 X49.400 Y59.457
G01 F480 X49.211 Y59.595
G01 F480 X48.996 Y59.691
G01 F480 X48.767 Y59.739
G01 F480 X48.532 Y59.739
G00 F3000 Z3.000
G00 F3000 X45.992 Y59.739
G00 F1500 Z0
G01 F480 Z-0.200
G01 F480 X45.763 Y59.691
G01 F480 X45.548 Y59.595
G01 F480 X45.359 Y59.457
G01 F480 X45.202 Y59.283
G01 F480 X45.084 Y59.080
G01 F480 X45.012 Y58.857
G01 F480 X44.987 Y58.623
G01 F480 X45.012 Y58.390
G01 F480 X45.084 Y58.167
G01 F480 X45.202 Y57.964
G01 F480 X45.359 Y57.789
G01 F480 X45.548 Y57.651
G01 F480 X45.763 Y57.556
G01 F480 X45.992 Y57.507
G01 F480 X46.227 Y57.507
G01 F480 X46.456 Y57.556
G01 F480 X46.671 Y57.651
G01 F480 X46.860 Y57.789
G01 F480 X47.017 Y57.964
G01 F480 X47.135 Y58.167
G01 F480 X47.207 Y58.390
G01 F480 X47.232 Y58.623
G01 F480 X47.207 Y58.857
G01 F480 X47.135 Y59.080
G01 F480 X47.017 Y59.283
G01 F480 X46.860 Y59.457
G01 F480 X46.671 Y59.595
G01 F480 X46.456 Y59.691
G01 F480 X46.227 Y59.739
G01 F480 X45.992 Y59.739
G00 F3000 Z3.000
G00 F3000 X53.612 Y59.739
G00 F1500 Z0
G01 F480 Z-0.200
G01 F480 X53.383 Y59.691
G01 F480 X53.168 Y59.595
G01 F480 X52.979 Y59.457
G01 F480 X52.822 Y59.283
G01 F480 X52.704 Y59.080
G01 F480 X52.632 Y58.857
G01 F480 X52.607 Y58.623
G01 F480 X52.632 Y58.390
G01 F480 X52.704 Y58.167
G01 F480 X52.822 Y57.964
G01 F480 X52.979 Y57.789
G01 F480 X53.168 Y57.651
G01 F480 X53.383 Y57.556
G01 F480 X53.612 Y57.507
G01 F480 X53.847 Y57.507
G01 F480 X54.076 Y57.556
G01 F480 X54.291 Y57.651
G01 F480 X54.480 Y57.789
G01 F480 X54.566 Y57.884
G01 F480 X54.580 Y57.878
G01 F480 X54.740 Y57.844
G01 F480 X55.965 Y57.844
G01 F480 X58.027 Y55.740
G01 F480 X58.027 Y53.861
G01 F480 X55.965 Y51.757
G01 F480 X51.537 Y51.757
G01 F480 X49.411 Y53.841
G01 F480 X49.432 Y55.278
G01 F480 X49.432 Y55.284
G01 F480 X49.557 Y55.424
G01 F480 X49.675 Y55.627
G01 F480 X49.747 Y55.850
G01 F480 X49.772 Y56.083
G01 F480 X49.747 Y56.317
G01 F480 X49.675 Y56.540
G01 F480 X49.557 Y56.743
G01 F480 X49.400 Y56.917
G01 F480 X49.211 Y57.055
G01 F480 X48.996 Y57.151
G01 F480 X48.767 Y57.199
G01 F480 X48.532 Y57.199
G01 F480 X48.303 Y57.151
G01 F480 X48.088 Y57.055
G01 F480 X47.899 Y56.917
G01 F480 X47.742 Y56.743
G01 F480 X47.624 Y56.540
G01 F480 X47.552 Y56.317
G01 F480 X47.527 Y56.083
G01 F480 X47.552 Y55.850
G01 F480 X47.624 Y55.627
G01 F480 X47.742 Y55.424
G01 F480 X47.867 Y55.284
G01 F480 X47.867 Y55.281
G01 F480 X47.841 Y53.510
G01 F480 X47.858 Y53.355
G01 F480 X47.908 Y53.199
G01 F480 X47.990 Y53.057
G01 F480 X48.091 Y52.945
G01 F480 X50.224 Y50.854
G01 F480 X50.431 Y50.652
G01 F480 X50.409 Y46.248
G01 F480 X48.091 Y43.930
G01 F480 X47.990 Y43.818
G01 F480 X47.908 Y43.677
G01 F480 X47.858 Y43.521
G01 F480 X47.841 Y43.367
G01 F480 X47.867 Y36.549
G01 F480 X47.748 Y36.418
G01 F480 X47.632 Y36.216
G01 F480 X47.560 Y35.995
G01 F480 X47.536 Y35.763
G01 F480 X47.560 Y35.532
G01 F480 X47.632 Y35.310
G01 F480 X47.748 Y35.109
G01 F480 X47.904 Y34.936
G01 F480 X48.093 Y34.799
G01 F480 X48.305 Y34.704
G01 F480 X48.533 Y34.656
G01 F480 X48.766 Y34.656
G01 F480 X48.994 Y34.704
G01 F480 X49.206 Y34.799
G01 F480 X49.357 Y34.908
G01 F480 X50.329 Y34.806
G01 F480 X50.332 Y34.806
G01 F480 X50.444 Y34.681
G01 F480 X50.633 Y34.545
G01 F480 X50.845 Y34.450
G01 F480 X51.073 Y34.401
G01 F480 X51.306 Y34.401
G01 F480 X51.534 Y34.450
G01 F480 X51.746 Y34.545
G01 F480 X51.935 Y34.681
G01 F480 X52.091 Y34.855
G01 F480 X52.207 Y35.056
G01 F480 X52.279 Y35.278
G01 F480 X52.303 Y35.509
G01 F480 X52.279 Y35.741
G01 F480 X52.207 Y35.962
G01 F480 X52.091 Y36.164
G01 F480 X51.935 Y36.337
G01 F480 X51.746 Y36.474
G01 F480 X51.534 Y36.568
G01 F480 X51.306 Y36.617
G01 F480 X51.073 Y36.617
G01 F480 X50.845 Y36.568
G01 F480 X50.633 Y36.474
G01 F480 X50.482 Y36.364
G01 F480 X49.510 Y36.466
G01 F480 X49.507 Y36.466
G01 F480 X49.432 Y36.549
G01 F480 X49.408 Y43.036
G01 F480 X51.723 Y45.351
G01 F480 X51.823 Y45.463
G01 F480 X51.905 Y45.605
G01 F480 X51.956 Y45.760
G01 F480 X51.972 Y45.914
G01 F480 X51.994 Y50.199
G01 F480 X56.377 Y50.199
G01 F480 X56.537 Y50.233
G01 F480 X56.687 Y50.299
G01 F480 X56.816 Y50.393
G01 F480 X59.344 Y52.972
G01 F480 X59.443 Y53.083
G01 F480 X59.525 Y53.224
G01 F480 X59.576 Y53.380
G01 F480 X59.592 Y53.534
G01 F480 X59.592 Y56.067
G01 F480 X59.576 Y56.221
G01 F480 X59.525 Y56.377
G01 F480 X59.443 Y56.518
G01 F480 X59.344 Y56.629
G01 F480 X56.816 Y59.208
G01 F480 X56.687 Y59.302
G01 F480 X56.537 Y59.368
G01 F480 X56.377 Y59.403
G01 F480 X54.740 Y59.403
G01 F480 X54.579 Y59.368
G01 F480 X54.566 Y59.362
G01 F480 X54.480 Y59.457
G01 F480 X54.291 Y59.595
G01 F480 X54.076 Y59.691
G01 F480 X53.847 Y59.739
G01 F480 X53.612 Y59.739
G00 F3000 Z3.000
G00 F3000 X51.072 Y59.739
G00 F1500 Z0
G01 F480 Z-0.200
G01 F480 X50.843 Y59.691
G01 F480 X50.628 Y59.595
G01 F480 X50.439 Y59.457
G01 F480 X50.282 Y59.283
G01 F480 X50.164 Y59.080
G01 F480 X50.092 Y58.857
G01 F480 X50.067 Y58.623
G01 F480 X50.092 Y58.390
G01 F480 X50.164 Y58.167
G01 F480 X50.282 Y57.964
G01 F480 X50.439 Y57.789
G01 F480 X50.628 Y57.651
G01 F480 X50.843 Y57.556
G01 F480 X51.072 Y57.507
G01 F480 X51.307 Y57.507
G01 F480 X51.536 Y57.556
G01 F480 X51.751 Y57.651
G01 F480 X51.940 Y57.789
G01 F480 X52.097 Y57.964
G01 F480 X52.215 Y58.167
G01 F480 X52.287 Y58.390
G01 F480 X52.312 Y58.623
G01 F480 X52.287 Y58.857
G01 F480 X52.215 Y59.080
G01 F480 X52.097 Y59.283
G01 F480 X51.940 Y59.457
G01 F480 X51.751 Y59.595
G01 F480 X51.536 Y59.691
G01 F480 X51.307 Y59.739
G01 F480 X51.072 Y59.739
G00 F3000 Z3.000
G00 F3000 X30.752 Y57.200
G00 F1500 Z0
G01 F480 Z-0.200
G01 F480 X30.523 Y57.151
G01 F480 X30.308 Y57.055
G01 F480 X30.118 Y56.917
G01 F480 X29.961 Y56.743
G01 F480 X29.844 Y56.540
G01 F480 X29.771 Y56.317
G01 F480 X29.747 Y56.083
G01 F480 X29.771 Y55.850
G01 F480 X29.844 Y55.627
G01 F480 X29.961 Y55.423
G01 F480 X30.118 Y55.249
G01 F480 X30.308 Y55.111
G01 F480 X30.523 Y55.016
G01 F480 X30.752 Y54.967
G01 F480 X30.987 Y54.967
G01 F480 X31.216 Y55.016
G01 F480 X31.431 Y55.111
G01 F480 X31.621 Y55.249
G01 F480 X31.778 Y55.423
G01 F480 X31.895 Y55.627
G01 F480 X31.968 Y55.850
G01 F480 X31.992 Y56.083
G01 F480 X31.968 Y56.317
G01 F480 X31.895 Y56.540
G01 F480 X31.778 Y56.743
G01 F480 X31.621 Y56.917
G01 F480 X31.431 Y57.055
G01 F480 X31.216 Y57.151
G01 F480 X30.987 Y57.200
G01 F480 X30.752 Y57.200
G00 F3000 Z3.000
G00 F3000 X25.672 Y57.200
G00 F1500 Z0
G01 F480 Z-0.200
G01 F480 X25.443 Y57.151
G01 F480 X25.228 Y57.055
G01 F480 X25.038 Y56.917
G01 F480 X24.881 Y56.743
G01 F480 X24.764 Y56.540
G01 F480 X24.691 Y56.317
G01 F480 X24.667 Y56.083
G01 F480 X24.691 Y55.850
G01 F480 X24.764 Y55.627
G01 F480 X24.881 Y55.423
G01 F480 X25.038 Y55.249
G01 F480 X25.228 Y55.111
G01 F480 X25.443 Y55.016
G01 F480 X25.672 Y54.967
G01 F480 X25.907 Y54.967
G01 F480 X26.136 Y55.016
G01 F480 X26.351 Y55.111
G01 F480 X26.541 Y55.249
G01 F480 X26.698 Y55.423
G01 F480 X26.815 Y55.627
G01 F480 X26.888 Y55.850
G01 F480 X26.912 Y56.083
G01 F480 X26.888 Y56.317
G01 F480 X26.815 Y56.540
G01 F480 X26.698 Y56.743
G01 F480 X26.541 Y56.917
G01 F480 X26.351 Y57.055
G01 F480 X26.136 Y57.151
G01 F480 X25.907 Y57.200
G01 F480 X25.672 Y57.200
G00 F3000 Z3.000
G00 F3000 X43.452 Y57.200
G00 F1500 Z0
G01 F480 Z-0.200
G01 F480 X43.223 Y57.151
G01 F480 X43.008 Y57.055
G01 F480 X42.818 Y56.917
G01 F480 X42.661 Y56.743
G01 F480 X42.544 Y56.540
G01 F480 X42.471 Y56.317
G01 F480 X42.447 Y56.083
G01 F480 X42.471 Y55.850
G01 F480 X42.544 Y55.627
G01 F480 X42.661 Y55.423
G01 F480 X42.787 Y55.283
G01 F480 X42.787 Y55.279
G01 F480 X42.787 Y43.349
G01 F480 X42.803 Y43.195
G01 F480 X42.854 Y43.039
G01 F480 X42.936 Y42.897
G01 F480 X43.036 Y42.785
G01 F480 X44.985 Y40.861
G01 F480 X44.983 Y40.843
G01 F480 X45.008 Y40.609
G01 F480 X45.080 Y40.385
G01 F480 X45.198 Y40.181
G01 F480 X45.356 Y40.006
G01 F480 X45.546 Y39.868
G01 F480 X45.761 Y39.772
G01 F480 X45.992 Y39.723
G01 F480 X46.227 Y39.723
G01 F480 X46.458 Y39.772
G01 F480 X46.673 Y39.868
G01 F480 X46.863 Y40.006
G01 F480 X47.021 Y40.181
G01 F480 X47.139 Y40.385
G01 F480 X47.211 Y40.609
G01 F480 X47.236 Y40.843
G01 F480 X47.211 Y41.077
G01 F480 X47.139 Y41.301
G01 F480 X47.021 Y41.505
G01 F480 X46.863 Y41.680
G01 F480 X46.673 Y41.819
G01 F480 X46.458 Y41.915
G01 F480 X46.233 Y41.962
G01 F480 X46.085 Y41.972
G01 F480 X44.352 Y43.684
G01 F480 X44.352 Y55.279
G01 F480 X44.352 Y55.283
G01 F480 X44.478 Y55.423
G01 F480 X44.595 Y55.627
G01 F480 X44.668 Y55.850
G01 F480 X44.692 Y56.083
G01 F480 X44.668 Y56.317
G01 F480 X44.595 Y56.540
G01 F480 X44.478 Y56.743
G01 F480 X44.321 Y56.917
G01 F480 X44.131 Y57.055
G01 F480 X43.916 Y57.151
G01 F480 X43.687 Y57.200
G01 F480 X43.452 Y57.200
G00 F3000 Z3.000
G00 F3000 X12.972 Y57.200
G00 F1500 Z0
G01 F480 Z-0.200
G01 F480 X12.743 Y57.151
G01 F480 X12.528 Y57.055
G01 F480 X12.338 Y56.917
G01 F480 X12.181 Y56.743
G01 F480 X12.064 Y56.540
G01 F480 X11.991 Y56.317
G01 F480 X11.967 Y56.083
G01 F480 X11.991 Y55.850
G01 F480 X12.064 Y55.627
G01 F480 X12.181 Y55.423
G01 F480 X12.338 Y55.249
G01 F480 X12.528 Y55.111
G01 F480 X12.743 Y55.016
G01 F480 X12.972 Y54.967
G01 F480 X13.207 Y54.967
G01 F480 X13.436 Y55.016
G01 F480 X13.651 Y55.111
G01 F480 X13.841 Y55.249
G01 F480 X13.998 Y55.423
G01 F480 X14.115 Y55.627
G01 F480 X14.188 Y55.850
G01 F480 X14.212 Y56.083
G01 F480 X14.188 Y56.317
G01 F480 X14.115 Y56.540
G01 F480 X13.998 Y56.743
G01 F480 X13.841 Y56.917
G01 F480 X13.651 Y57.055
G01 F480 X13.436 Y57.151
G01 F480 X13.207 Y57.200
G01 F480 X12.972 Y57.200
G00 F3000 Z3.000
G00 F3000 X33.292 Y57.199
G00 F1500 Z0
G01 F480 Z-0.200
G01 F480 X33.063 Y57.151
G01 F480 X32.848 Y57.055
G01 F480 X32.659 Y56.917
G01 F480 X32.502 Y56.743
G01 F480 X32.384 Y56.540
G01 F480 X32.312 Y56.317
G01 F480 X32.287 Y56.083
G01 F480 X32.312 Y55.850
G01 F480 X32.384 Y55.627
G01 F480 X32.502 Y55.424
G01 F480 X32.659 Y55.249
G01 F480 X32.848 Y55.111
G01 F480 X33.063 Y55.016
G01 F480 X33.292 Y54.967
G01 F480 X33.527 Y54.967
G01 F480 X33.756 Y55.016
G01 F480 X33.971 Y55.111
G01 F480 X34.160 Y55.249
G01 F480 X34.317 Y55.424
G01 F480 X34.435 Y55.627
G01 F480 X34.507 Y55.850
G01 F480 X34.532 Y56.083
G01 F480 X34.507 Y56.317
G01 F480 X34.435 Y56.540
G01 F480 X34.317 Y56.743
G01 F480 X34.160 Y56.917
G01 F480 X33.971 Y57.055
G01 F480 X33.756 Y57.151
G01 F480 X33.527 Y57.199
G01 F480 X33.292 Y57.199
G00 F3000 Z3.000
G00 F3000 X28.212 Y57.199
G00 F1500 Z0
G01 F480 Z-0.200
G01 F480 X27.983 Y57.151
G01 F480 X27.768 Y57.055
G01 F480 X27.579 Y56.917
G01 F480 X27.422 Y56.743
G01 F480 X27.304 Y56.540
G01 F480 X27.232 Y56.317
G01 F480 X27.207 Y56.083
G01 F480 X27.232 Y55.850
G01 F480 X27.304 Y55.627
G01 F480 X27.422 Y55.424
G01 F480 X27.579 Y55.249
G01 F480 X27.768 Y55.111
G01 F480 X27.983 Y55.016
G01 F480 X28.212 Y54.967
G01 F480 X28.447 Y54.967
G01 F480 X28.676 Y55.016
G01 F480 X28.891 Y55.111
G01 F480 X29.080 Y55.249
G01 F480 X29.237 Y55.424
G01 F480 X29.355 Y55.627
G01 F480 X29.427 Y55.850
G01 F480 X29.452 Y56.083
G01 F480 X29.427 Y56.317
G01 F480 X29.355 Y56.540
G01 F480 X29.237 Y56.743
G01 F480 X29.080 Y56.917
G01 F480 X28.891 Y57.055
G01 F480 X28.676 Y57.151
G01 F480 X28.447 Y57.199
G01 F480 X28.212 Y57.199
G00 F3000 Z3.000
G00 F3000 X40.912 Y57.199
G00 F1500 Z0
G01 F480 Z-0.200
G01 F480 X40.683 Y57.151
G01 F480 X40.468 Y57.055
G01 F480 X40.279 Y56.917
G01 F480 X40.122 Y56.743
G01 F480 X40.004 Y56.540
G01 F480 X39.932 Y56.317
G01 F480 X39.907 Y56.083
G01 F480 X39.932 Y55.850
G01 F480 X40.004 Y55.627
G01 F480 X40.122 Y55.424
G01 F480 X40.279 Y55.249
G01 F480 X40.468 Y55.111
G01 F480 X40.683 Y55.016
G01 F480 X40.912 Y54.967
G01 F480 X41.147 Y54.967
G01 F480 X41.376 Y55.016
G01 F480 X41.591 Y55.111
G01 F480 X41.780 Y55.249
G01 F480 X41.937 Y55.424
G01 F480 X42.055 Y55.627
G01 F480 X42.127 Y55.850
G01 F480 X42.152 Y56.083
G01 F480 X42.127 Y56.317
G01 F480 X42.055 Y56.540
G01 F480 X41.937 Y56.743
G01 F480 X41.780 Y56.917
G01 F480 X41.591 Y57.055
G01 F480 X41.376 Y57.151
G01 F480 X41.147 Y57.199
G01 F480 X40.912 Y57.199
G00 F3000 Z3.000
G00 F3000 X35.832 Y57.199
G00 F1500 Z0
G01 F480 Z-0.200
G01 F480 X35.603 Y57.151
G01 F480 X35.388 Y57.055
G01 F480 X35.199 Y56.917
G01 F480 X35.042 Y56.743
G01 F480 X34.924 Y56.540
G01 F480 X34.852 Y56.317
G01 F480 X34.827 Y56.083
G01 F480 X34.852 Y55.850
G01 F480 X34.924 Y55.627
G01 F480 X35.042 Y55.424
G01 F480 X35.199 Y55.249
G01 F480 X35.388 Y55.111
G01 F480 X35.603 Y55.016
G01 F480 X35.832 Y54.967
G01 F480 X36.067 Y54.967
G01 F480 X36.296 Y55.016
G01 F480 X36.511 Y55.111
G01 F480 X36.700 Y55.249
G01 F480 X36.857 Y55.424
G01 F480 X36.975 Y55.627
G01 F480 X37.047 Y55.850
G01 F480 X37.072 Y56.083
G01 F480 X37.047 Y56.317
G01 F480 X36.975 Y56.540
G01 F480 X36.857 Y56.743
G01 F480 X36.700 Y56.917
G01 F480 X36.511 Y57.055
G01 F480 X36.296 Y57.151
G01 F480 X36.067 Y57.199
G01 F480 X35.832 Y57.199
G00 F3000 Z3.000
G00 F3000 X38.372 Y57.199
G00 F1500 Z0
G01 F480 Z-0.200
G01 F480 X38.143 Y57.151
G01 F480 X37.928 Y57.055
G01 F480 X37.739 Y56.917
G01 F480 X37.582 Y56.743
G01 F480 X37.464 Y56.540
G01 F480 X37.392 Y56.317
G01 F480 X37.367 Y56.083
G01 F480 X37.392 Y55.850
G01 F480 X37.464 Y55.627
G01 F480 X37.582 Y55.424
G01 F480 X37.739 Y55.249
G01 F480 X37.751 Y55.240
G01 F480 X37.723 Y55.154
G01 F480 X37.707 Y55.000
G01 F480 X37.707 Y54.341
G01 F480 X35.884 Y54.323
G01 F480 X15.548 Y54.323
G01 F480 X15.387 Y54.288
G01 F480 X15.238 Y54.222
G01 F480 X15.109 Y54.128
G01 F480 X12.556 Y51.575
G01 F480 X12.456 Y51.464
G01 F480 X12.374 Y51.322
G01 F480 X12.323 Y51.166
G01 F480 X12.307 Y51.012
G01 F480 X12.307 Y49.385
G01 F480 X12.117 Y49.385
G01 F480 X12.117 Y49.192
G01 F480 X7.928 Y49.192
G01 F480 X7.767 Y49.158
G01 F480 X7.618 Y49.091
G01 F480 X7.489 Y48.997
G01 F480 X4.961 Y46.470
G01 F480 X4.861 Y46.358
G01 F480 X4.779 Y46.217
G01 F480 X4.728 Y46.061
G01 F480 X4.712 Y45.907
G01 F480 X4.687 Y36.295
G01 F480 X4.568 Y36.164
G01 F480 X4.452 Y35.962
G01 F480 X4.380 Y35.741
G01 F480 X4.356 Y35.509
G01 F480 X4.380 Y35.278
G01 F480 X4.452 Y35.056
G01 F480 X4.568 Y34.855
G01 F480 X4.724 Y34.681
G01 F480 X4.913 Y34.545
G01 F480 X5.125 Y34.450
G01 F480 X5.353 Y34.401
G01 F480 X5.586 Y34.401
G01 F480 X5.814 Y34.450
G01 F480 X6.026 Y34.545
G01 F480 X6.215 Y34.681
G01 F480 X6.371 Y34.855
G01 F480 X6.487 Y35.056
G01 F480 X6.559 Y35.278
G01 F480 X6.583 Y35.509
G01 F480 X6.559 Y35.741
G01 F480 X6.487 Y35.962
G01 F480 X6.371 Y36.164
G01 F480 X6.252 Y36.295
G01 F480 X6.277 Y45.574
G01 F480 X8.336 Y47.633
G01 F480 X12.117 Y47.633
G01 F480 X12.117 Y47.439
G01 F480 X14.063 Y47.439
G01 F480 X14.063 Y49.385
G01 F480 X13.872 Y49.385
G01 F480 X13.872 Y50.680
G01 F480 X15.956 Y52.764
G01 F480 X36.014 Y52.764
G01 F480 X38.572 Y52.790
G01 F480 X38.732 Y52.823
G01 F480 X38.881 Y52.890
G01 F480 X39.014 Y52.986
G01 F480 X39.123 Y53.108
G01 F480 X39.205 Y53.250
G01 F480 X39.256 Y53.406
G01 F480 X39.272 Y53.559
G01 F480 X39.272 Y55.000
G01 F480 X39.256 Y55.154
G01 F480 X39.228 Y55.240
G01 F480 X39.240 Y55.249
G01 F480 X39.397 Y55.424
G01 F480 X39.515 Y55.627
G01 F480 X39.587 Y55.850
G01 F480 X39.612 Y56.083
G01 F480 X39.587 Y56.317
G01 F480 X39.515 Y56.540
G01 F480 X39.397 Y56.743
G01 F480 X39.240 Y56.917
G01 F480 X39.051 Y57.055
G01 F480 X38.836 Y57.151
G01 F480 X38.607 Y57.199
G01 F480 X38.372 Y57.199
G00 F3000 Z3.000
G00 F3000 X10.432 Y57.199
G00 F1500 Z0
G01 F480 Z-0.200
G01 F480 X10.203 Y57.151
G01 F480 X9.988 Y57.055
G01 F480 X9.799 Y56.917
G01 F480 X9.642 Y56.743
G01 F480 X9.524 Y56.540
G01 F480 X9.452 Y56.317
G01 F480 X9.427 Y56.083
G01 F480 X9.452 Y55.850
G01 F480 X9.524 Y55.627
G01 F480 X9.642 Y55.424
G01 F480 X9.799 Y55.249
G01 F480 X9.988 Y55.111
G01 F480 X10.203 Y55.016
G01 F480 X10.432 Y54.967
G01 F480 X10.667 Y54.967
G01 F480 X10.896 Y55.016
G01 F480 X11.111 Y55.111
G01 F480 X11.300 Y55.249
G01 F480 X11.457 Y55.424
G01 F480 X11.575 Y55.627
G01 F480 X11.647 Y55.850
G01 F480 X11.672 Y56.083
G01 F480 X11.647 Y56.317
G01 F480 X11.575 Y56.540
G01 F480 X11.457 Y56.743
G01 F480 X11.300 Y56.917
G01 F480 X11.111 Y57.055
G01 F480 X10.896 Y57.151
G01 F480 X10.667 Y57.199
G01 F480 X10.432 Y57.199
G00 F3000 Z3.000
G00 F3000 X5.352 Y57.199
G00 F1500 Z0
G01 F480 Z-0.200
G01 F480 X5.123 Y57.151
G01 F480 X4.908 Y57.055
G01 F480 X4.719 Y56.917
G01 F480 X4.562 Y56.743
G01 F480 X4.444 Y56.540
G01 F480 X4.372 Y56.317
G01 F480 X4.347 Y56.083
G01 F480 X4.372 Y55.850
G01 F480 X4.444 Y55.627
G01 F480 X4.562 Y55.424
G01 F480 X4.719 Y55.249
G01 F480 X4.908 Y55.111
G01 F480 X5.123 Y55.016
G01 F480 X5.352 Y54.967
G01 F480 X5.587 Y54.967
G01 F480 X5.816 Y55.016
G01 F480 X6.031 Y55.111
G01 F480 X6.220 Y55.249
G01 F480 X6.377 Y55.424
G01 F480 X6.495 Y55.627
G01 F480 X6.567 Y55.850
G01 F480 X6.592 Y56.083
G01 F480 X6.567 Y56.317
G01 F480 X6.495 Y56.540
G01 F480 X6.377 Y56.743
G01 F480 X6.220 Y56.917
G01 F480 X6.031 Y57.055
G01 F480 X5.816 Y57.151
G01 F480 X5.587 Y57.199
G01 F480 X5.352 Y57.199
G00 F3000 Z3.000
G00 F3000 X7.892 Y57.199
G00 F1500 Z0
G01 F480 Z-0.200
G01 F480 X7.663 Y57.151
G01 F480 X7.448 Y57.055
G01 F480 X7.259 Y56.917
G01 F480 X7.102 Y56.743
G01 F480 X6.984 Y56.540
G01 F480 X6.912 Y56.317
G01 F480 X6.887 Y56.083
G01 F480 X6.912 Y55.850
G01 F480 X6.984 Y55.627
G01 F480 X7.102 Y55.424
G01 F480 X7.259 Y55.249
G01 F480 X7.448 Y55.111
G01 F480 X7.663 Y55.016
G01 F480 X7.892 Y54.967
G01 F480 X8.127 Y54.967
G01 F480 X8.356 Y55.016
G01 F480 X8.571 Y55.111
G01 F480 X8.760 Y55.249
G01 F480 X8.917 Y55.424
G01 F480 X9.035 Y55.627
G01 F480 X9.107 Y55.850
G01 F480 X9.132 Y56.083
G01 F480 X9.107 Y56.317
G01 F480 X9.035 Y56.540
G01 F480 X8.917 Y56.743
G01 F480 X8.760 Y56.917
G01 F480 X8.571 Y57.055
G01 F480 X8.356 Y57.151
G01 F480 X8.127 Y57.199
G01 F480 X7.892 Y57.199
G00 F3000 Z3.000
G00 F3000 X20.592 Y57.199
G00 F1500 Z0
G01 F480 Z-0.200
G01 F480 X20.363 Y57.151
G01 F480 X20.148 Y57.055
G01 F480 X19.959 Y56.917
G01 F480 X19.802 Y56.743
G01 F480 X19.684 Y56.540
G01 F480 X19.612 Y56.317
G01 F480 X19.587 Y56.083
G01 F480 X19.612 Y55.850
G01 F480 X19.684 Y55.627
G01 F480 X19.802 Y55.424
G01 F480 X19.959 Y55.249
G01 F480 X20.148 Y55.111
G01 F480 X20.363 Y55.016
G01 F480 X20.592 Y54.967
G01 F480 X20.827 Y54.967
G01 F480 X21.056 Y55.016
G01 F480 X21.271 Y55.111
G01 F480 X21.460 Y55.249
G01 F480 X21.617 Y55.424
G01 F480 X21.735 Y55.627
G01 F480 X21.807 Y55.850
G01 F480 X21.832 Y56.083
G01 F480 X21.807 Y56.317
G01 F480 X21.735 Y56.540
G01 F480 X21.617 Y56.743
G01 F480 X21.460 Y56.917
G01 F480 X21.271 Y57.055
G01 F480 X21.056 Y57.151
G01 F480 X20.827 Y57.199
G01 F480 X20.592 Y57.199
G00 F3000 Z3.000
G00 F3000 X23.132 Y57.199
G00 F1500 Z0
G01 F480 Z-0.200
G01 F480 X22.903 Y57.151
G01 F480 X22.688 Y57.055
G01 F480 X22.499 Y56.917
G01 F480 X22.342 Y56.743
G01 F480 X22.224 Y56.540
G01 F480 X22.152 Y56.317
G01 F480 X22.127 Y56.083
G01 F480 X22.152 Y55.850
G01 F480 X22.224 Y55.627
G01 F480 X22.342 Y55.424
G01 F480 X22.499 Y55.249
G01 F480 X22.688 Y55.111
G01 F480 X22.903 Y55.016
G01 F480 X23.132 Y54.967
G01 F480 X23.367 Y54.967
G01 F480 X23.596 Y55.016
G01 F480 X23.811 Y55.111
G01 F480 X24.000 Y55.249
G01 F480 X24.157 Y55.424
G01 F480 X24.275 Y55.627
G01 F480 X24.347 Y55.850
G01 F480 X24.372 Y56.083
G01 F480 X24.347 Y56.317
G01 F480 X24.275 Y56.540
G01 F480 X24.157 Y56.743
G01 F480 X24.000 Y56.917
G01 F480 X23.811 Y57.055
G01 F480 X23.596 Y57.151
G01 F480 X23.367 Y57.199
G01 F480 X23.132 Y57.199
G00 F3000 Z3.000
G00 F3000 X15.512 Y57.199
G00 F1500 Z0
G01 F480 Z-0.200
G01 F480 X15.283 Y57.151
G01 F480 X15.068 Y57.055
G01 F480 X14.879 Y56.917
G01 F480 X14.722 Y56.743
G01 F480 X14.604 Y56.540
G01 F480 X14.532 Y56.317
G01 F480 X14.507 Y56.083
G01 F480 X14.532 Y55.850
G01 F480 X14.604 Y55.627
G01 F480 X14.722 Y55.424
G01 F480 X14.879 Y55.249
G01 F480 X15.068 Y55.111
G01 F480 X15.283 Y55.016
G01 F480 X15.512 Y54.967
G01 F480 X15.747 Y54.967
G01 F480 X15.976 Y55.016
G01 F480 X16.191 Y55.111
G01 F480 X16.380 Y55.249
G01 F480 X16.537 Y55.424
G01 F480 X16.655 Y55.627
G01 F480 X16.727 Y55.850
G01 F480 X16.752 Y56.083
G01 F480 X16.727 Y56.317
G01 F480 X16.655 Y56.540
G01 F480 X16.537 Y56.743
G01 F480 X16.380 Y56.917
G01 F480 X16.191 Y57.055
G01 F480 X15.976 Y57.151
G01 F480 X15.747 Y57.199
G01 F480 X15.512 Y57.199
G00 F3000 Z3.000
G00 F3000 X18.052 Y57.199
G00 F1500 Z0
G01 F480 Z-0.200
G01 F480 X17.823 Y57.151
G01 F480 X17.608 Y57.055
G01 F480 X17.419 Y56.917
G01 F480 X17.262 Y56.743
G01 F480 X17.144 Y56.540
G01 F480 X17.072 Y56.317
G01 F480 X17.047 Y56.083
G01 F480 X17.072 Y55.850
G01 F480 X17.144 Y55.627
G01 F480 X17.262 Y55.424
G01 F480 X17.419 Y55.249
G01 F480 X17.608 Y55.111
G01 F480 X17.823 Y55.016
G01 F480 X18.052 Y54.967
G01 F480 X18.287 Y54.967
G01 F480 X18.516 Y55.016
G01 F480 X18.731 Y55.111
G01 F480 X18.920 Y55.249
G01 F480 X19.077 Y55.424
G01 F480 X19.195 Y55.627
G01 F480 X19.267 Y55.850
G01 F480 X19.292 Y56.083
G01 F480 X19.267 Y56.317
G01 F480 X19.195 Y56.540
G01 F480 X19.077 Y56.743
G01 F480 X18.920 Y56.917
G01 F480 X18.731 Y57.055
G01 F480 X18.516 Y57.151
G01 F480 X18.287 Y57.199
G01 F480 X18.052 Y57.199
G00 F3000 Z3.000
G00 F3000 X51.072 Y57.199
G00 F1500 Z0
G01 F480 Z-0.200
G01 F480 X50.843 Y57.151
G01 F480 X50.628 Y57.055
G01 F480 X50.439 Y56.917
G01 F480 X50.282 Y56.743
G01 F480 X50.164 Y56.540
G01 F480 X50.092 Y56.317
G01 F480 X50.067 Y56.083
G01 F480 X50.092 Y55.850
G01 F480 X50.164 Y55.627
G01 F480 X50.282 Y55.424
G01 F480 X50.439 Y55.249
G01 F480 X50.628 Y55.111
G01 F480 X50.843 Y55.016
G01 F480 X51.072 Y54.967
G01 F480 X51.307 Y54.967
G01 F480 X51.536 Y55.016
G01 F480 X51.751 Y55.111
G01 F480 X51.940 Y55.249
G01 F480 X52.097 Y55.424
G01 F480 X52.215 Y55.627
G01 F480 X52.287 Y55.850
G01 F480 X52.312 Y56.083
G01 F480 X52.287 Y56.317
G01 F480 X52.215 Y56.540
G01 F480 X52.097 Y56.743
G01 F480 X51.940 Y56.917
G01 F480 X51.751 Y57.055
G01 F480 X51.536 Y57.151
G01 F480 X51.307 Y57.199
G01 F480 X51.072 Y57.199
G00 F3000 Z3.000
G00 F3000 X53.612 Y57.199
G00 F1500 Z0
G01 F480 Z-0.200
G01 F480 X53.383 Y57.151
G01 F480 X53.168 Y57.055
G01 F480 X52.979 Y56.917
G01 F480 X52.822 Y56.743
G01 F480 X52.704 Y56.540
G01 F480 X52.632 Y56.317
G01 F480 X52.607 Y56.083
G01 F480 X52.632 Y55.850
G01 F480 X52.704 Y55.627
G01 F480 X52.822 Y55.424
G01 F480 X52.979 Y55.249
G01 F480 X53.168 Y55.111
G01 F480 X53.383 Y55.016
G01 F480 X53.612 Y54.967
G01 F480 X53.847 Y54.967
G01 F480 X54.076 Y55.016
G01 F480 X54.291 Y55.111
G01 F480 X54.480 Y55.249
G01 F480 X54.637 Y55.424
G01 F480 X54.755 Y55.627
G01 F480 X54.827 Y55.850
G01 F480 X54.852 Y56.083
G01 F480 X54.827 Y56.317
G01 F480 X54.755 Y56.540
G01 F480 X54.637 Y56.743
G01 F480 X54.480 Y56.917
G01 F480 X54.291 Y57.055
G01 F480 X54.076 Y57.151
G01 F480 X53.847 Y57.199
G01 F480 X53.612 Y57.199
G00 F3000 Z3.000
G00 F3000 X45.992 Y57.199
G00 F1500 Z0
G01 F480 Z-0.200
G01 F480 X45.763 Y57.151
G01 F480 X45.548 Y57.055
G01 F480 X45.359 Y56.917
G01 F480 X45.202 Y56.743
G01 F480 X45.084 Y56.540
G01 F480 X45.012 Y56.317
G01 F480 X44.987 Y56.083
G01 F480 X45.012 Y55.850
G01 F480 X45.084 Y55.627
G01 F480 X45.202 Y55.424
G01 F480 X45.330 Y55.281
G01 F480 X45.327 Y55.254
G01 F480 X45.327 Y50.994
G01 F480 X45.343 Y50.840
G01 F480 X45.394 Y50.684
G01 F480 X45.476 Y50.543
G01 F480 X45.575 Y50.432
G01 F480 X47.645 Y48.311
G01 F480 X47.677 Y48.288
G01 F480 X47.677 Y47.439
G01 F480 X49.623 Y47.439
G01 F480 X49.623 Y49.385
G01 F480 X48.774 Y49.385
G01 F480 X48.701 Y49.466
G01 F480 X46.892 Y51.320
G01 F480 X46.892 Y55.254
G01 F480 X46.889 Y55.281
G01 F480 X47.017 Y55.424
G01 F480 X47.135 Y55.627
G01 F480 X47.207 Y55.850
G01 F480 X47.232 Y56.083
G01 F480 X47.207 Y56.317
G01 F480 X47.135 Y56.540
G01 F480 X47.017 Y56.743
G01 F480 X46.860 Y56.917
G01 F480 X46.671 Y57.055
G01 F480 X46.456 Y57.151
G01 F480 X46.227 Y57.199
G01 F480 X45.992 Y57.199
G00 F3000 Z3.000
G00 F3000 X28.211 Y52.129
G00 F1500 Z0
G01 F480 Z-0.200
G01 F480 X27.980 Y52.080
G01 F480 X27.764 Y51.983
G01 F480 X27.572 Y51.844
G01 F480 X27.414 Y51.669
G01 F480 X27.295 Y51.464
G01 F480 X27.222 Y51.239
G01 F480 X27.198 Y51.003
G01 F480 X27.222 Y50.768
G01 F480 X27.295 Y50.543
G01 F480 X27.414 Y50.338
G01 F480 X27.572 Y50.162
G01 F480 X27.764 Y50.023
G01 F480 X27.980 Y49.927
G01 F480 X28.211 Y49.877
G01 F480 X28.448 Y49.877
G01 F480 X28.679 Y49.927
G01 F480 X28.895 Y50.023
G01 F480 X29.087 Y50.162
G01 F480 X29.143 Y50.224
G01 F480 X38.187 Y50.224
G01 F480 X40.247 Y48.143
G01 F480 X40.247 Y39.083
G01 F480 X38.433 Y39.083
G01 F480 X38.273 Y39.048
G01 F480 X38.123 Y38.982
G01 F480 X37.991 Y38.886
G01 F480 X37.881 Y38.764
G01 F480 X37.799 Y38.622
G01 F480 X37.748 Y38.466
G01 F480 X37.732 Y38.312
G01 F480 X37.732 Y33.214
G01 F480 X37.748 Y33.060
G01 F480 X37.799 Y32.904
G01 F480 X37.881 Y32.763
G01 F480 X37.981 Y32.651
G01 F480 X40.483 Y30.124
G01 F480 X40.612 Y30.030
G01 F480 X40.762 Y29.963
G01 F480 X40.922 Y29.929
G01 F480 X45.762 Y29.929
G01 F480 X47.888 Y27.845
G01 F480 X47.871 Y26.525
G01 F480 X47.677 Y26.525
G01 F480 X47.677 Y26.360
G01 F480 X46.175 Y26.383
G01 F480 X46.028 Y26.383
G01 F480 X45.867 Y26.348
G01 F480 X45.718 Y26.282
G01 F480 X45.589 Y26.188
G01 F480 X43.036 Y23.635
G01 F480 X42.936 Y23.524
G01 F480 X42.854 Y23.382
G01 F480 X42.803 Y23.226
G01 F480 X42.787 Y23.072
G01 F480 X42.787 Y18.304
G01 F480 X40.496 Y15.990
G01 F480 X40.396 Y15.878
G01 F480 X40.314 Y15.737
G01 F480 X40.263 Y15.581
G01 F480 X40.247 Y15.427
G01 F480 X40.247 Y13.580
G01 F480 X40.260 Y13.450
G01 F480 X40.128 Y13.304
G01 F480 X40.012 Y13.102
G01 F480 X39.940 Y12.881
G01 F480 X39.916 Y12.649
G01 F480 X39.940 Y12.418
G01 F480 X40.012 Y12.196
G01 F480 X40.128 Y11.995
G01 F480 X40.284 Y11.822
G01 F480 X40.473 Y11.685
G01 F480 X40.685 Y11.590
G01 F480 X40.913 Y11.542
G01 F480 X41.146 Y11.542
G01 F480 X41.374 Y11.590
G01 F480 X41.586 Y11.685
G01 F480 X41.775 Y11.822
G01 F480 X41.931 Y11.995
G01 F480 X42.047 Y12.196
G01 F480 X42.119 Y12.418
G01 F480 X42.143 Y12.649
G01 F480 X42.119 Y12.881
G01 F480 X42.047 Y13.102
G01 F480 X41.931 Y13.304
G01 F480 X41.799 Y13.450
G01 F480 X41.812 Y13.580
G01 F480 X41.812 Y15.097
G01 F480 X44.103 Y17.411
G01 F480 X44.203 Y17.523
G01 F480 X44.285 Y17.665
G01 F480 X44.336 Y17.820
G01 F480 X44.352 Y17.974
G01 F480 X44.352 Y22.740
G01 F480 X46.430 Y24.818
G01 F480 X47.677 Y24.800
G01 F480 X47.677 Y24.579
G01 F480 X49.623 Y24.579
G01 F480 X49.623 Y26.525
G01 F480 X49.436 Y26.525
G01 F480 X49.458 Y28.177
G01 F480 X49.441 Y28.332
G01 F480 X49.391 Y28.487
G01 F480 X49.309 Y28.629
G01 F480 X49.208 Y28.741
G01 F480 X46.604 Y31.294
G01 F480 X46.476 Y31.387
G01 F480 X46.326 Y31.454
G01 F480 X46.166 Y31.488
G01 F480 X41.332 Y31.488
G01 F480 X39.297 Y33.544
G01 F480 X39.297 Y37.524
G01 F480 X41.111 Y37.524
G01 F480 X41.272 Y37.558
G01 F480 X41.421 Y37.625
G01 F480 X41.554 Y37.721
G01 F480 X41.663 Y37.843
G01 F480 X41.745 Y37.985
G01 F480 X41.796 Y38.140
G01 F480 X41.812 Y38.294
G01 F480 X41.812 Y48.472
G01 F480 X41.796 Y48.626
G01 F480 X41.745 Y48.782
G01 F480 X41.663 Y48.924
G01 F480 X41.563 Y49.035
G01 F480 X39.036 Y51.588
G01 F480 X38.907 Y51.682
G01 F480 X38.757 Y51.748
G01 F480 X38.597 Y51.783
G01 F480 X29.143 Y51.783
G01 F480 X29.087 Y51.844
G01 F480 X28.895 Y51.983
G01 F480 X28.679 Y52.080
G01 F480 X28.448 Y52.129
G01 F480 X28.211 Y52.129
G00 F3000 Z3.000
G00 F3000 X35.831 Y49.589
G00 F1500 Z0
G01 F480 Z-0.200
G01 F480 X35.600 Y49.540
G01 F480 X35.384 Y49.444
G01 F480 X35.192 Y49.304
G01 F480 X35.034 Y49.129
G01 F480 X34.915 Y48.924
G01 F480 X34.842 Y48.699
G01 F480 X34.818 Y48.463
G01 F480 X34.842 Y48.228
G01 F480 X34.915 Y48.003
G01 F480 X35.034 Y47.798
G01 F480 X35.167 Y47.650
G01 F480 X35.167 Y37.651
G01 F480 X33.930 Y38.888
G01 F480 X33.801 Y38.982
G01 F480 X33.652 Y39.048
G01 F480 X33.491 Y39.083
G01 F480 X20.628 Y39.083
G01 F480 X20.467 Y39.048
G01 F480 X20.318 Y38.982
G01 F480 X20.189 Y38.888
G01 F480 X18.195 Y36.894
G01 F480 X18.174 Y36.871
G01 F480 X18.053 Y36.871
G01 F480 X17.825 Y36.822
G01 F480 X17.613 Y36.728
G01 F480 X17.424 Y36.591
G01 F480 X17.268 Y36.418
G01 F480 X17.152 Y36.216
G01 F480 X17.080 Y35.995
G01 F480 X17.056 Y35.763
G01 F480 X17.080 Y35.532
G01 F480 X17.152 Y35.310
G01 F480 X17.268 Y35.109
G01 F480 X17.424 Y34.936
G01 F480 X17.613 Y34.799
G01 F480 X17.825 Y34.704
G01 F480 X18.053 Y34.656
G01 F480 X18.286 Y34.656
G01 F480 X18.514 Y34.704
G01 F480 X18.726 Y34.799
G01 F480 X18.915 Y34.936
G01 F480 X19.071 Y35.109
G01 F480 X19.187 Y35.310
G01 F480 X19.259 Y35.532
G01 F480 X19.283 Y35.763
G01 F480 X19.282 Y35.771
G01 F480 X21.036 Y37.524
G01 F480 X33.081 Y37.524
G01 F480 X34.567 Y36.026
G01 F480 X34.599 Y35.927
G01 F480 X34.681 Y35.785
G01 F480 X34.789 Y35.665
G01 F480 X34.851 Y35.618
G01 F480 X34.860 Y35.532
G01 F480 X34.932 Y35.310
G01 F480 X35.048 Y35.109
G01 F480 X35.204 Y34.936
G01 F480 X35.393 Y34.799
G01 F480 X35.605 Y34.704
G01 F480 X35.833 Y34.656
G01 F480 X36.066 Y34.656
G01 F480 X36.294 Y34.704
G01 F480 X36.506 Y34.799
G01 F480 X36.695 Y34.936
G01 F480 X36.851 Y35.109
G01 F480 X36.967 Y35.310
G01 F480 X37.039 Y35.532
G01 F480 X37.063 Y35.763
G01 F480 X37.039 Y35.995
G01 F480 X36.967 Y36.216
G01 F480 X36.851 Y36.418
G01 F480 X36.732 Y36.549
G01 F480 X36.732 Y47.650
G01 F480 X36.865 Y47.798
G01 F480 X36.984 Y48.003
G01 F480 X37.057 Y48.228
G01 F480 X37.081 Y48.463
G01 F480 X37.057 Y48.699
G01 F480 X36.984 Y48.924
G01 F480 X36.865 Y49.129
G01 F480 X36.707 Y49.304
G01 F480 X36.515 Y49.444
G01 F480 X36.299 Y49.540
G01 F480 X36.068 Y49.589
G01 F480 X35.831 Y49.589
G00 F3000 Z3.000
G00 F3000 X29.897 Y49.385
G00 F1500 Z0
G01 F480 Z-0.200
G01 F480 X29.897 Y47.439
G01 F480 X31.843 Y47.439
G01 F480 X31.843 Y49.385
G01 F480 X29.897 Y49.385
G00 F3000 Z3.000
G00 F3000 X30.768 Y46.892
G00 F1500 Z0
G01 F480 Z-0.200
G01 F480 X30.569 Y46.849
G01 F480 X30.383 Y46.767
G01 F480 X30.218 Y46.647
G01 F480 X30.082 Y46.496
G01 F480 X29.980 Y46.319
G01 F480 X29.917 Y46.126
G01 F480 X29.896 Y45.923
G01 F480 X29.917 Y45.721
G01 F480 X29.980 Y45.527
G01 F480 X30.082 Y45.351
G01 F480 X30.218 Y45.199
G01 F480 X30.383 Y45.080
G01 F480 X30.569 Y44.997
G01 F480 X30.768 Y44.955
G01 F480 X30.971 Y44.955
G01 F480 X31.170 Y44.997
G01 F480 X31.356 Y45.080
G01 F480 X31.521 Y45.199
G01 F480 X31.657 Y45.351
G01 F480 X31.759 Y45.527
G01 F480 X31.822 Y45.721
G01 F480 X31.843 Y45.923
G01 F480 X31.822 Y46.126
G01 F480 X31.759 Y46.319
G01 F480 X31.657 Y46.496
G01 F480 X31.521 Y46.647
G01 F480 X31.356 Y46.767
G01 F480 X31.170 Y46.849
G01 F480 X30.971 Y46.892
G01 F480 X30.768 Y46.892
G00 F3000 Z3.000
G00 F3000 X48.548 Y46.892
G00 F1500 Z0
G01 F480 Z-0.200
G01 F480 X48.349 Y46.849
G01 F480 X48.163 Y46.767
G01 F480 X47.998 Y46.647
G01 F480 X47.861 Y46.496
G01 F480 X47.760 Y46.319
G01 F480 X47.697 Y46.126
G01 F480 X47.675 Y45.923
G01 F480 X47.697 Y45.721
G01 F480 X47.760 Y45.527
G01 F480 X47.861 Y45.351
G01 F480 X47.998 Y45.199
G01 F480 X48.163 Y45.080
G01 F480 X48.349 Y44.997
G01 F480 X48.548 Y44.955
G01 F480 X48.751 Y44.955
G01 F480 X48.950 Y44.997
G01 F480 X49.136 Y45.080
G01 F480 X49.301 Y45.199
G01 F480 X49.437 Y45.351
G01 F480 X49.539 Y45.527
G01 F480 X49.602 Y45.721
G01 F480 X49.623 Y45.923
G01 F480 X49.602 Y46.126
G01 F480 X49.539 Y46.319
G01 F480 X49.437 Y46.496
G01 F480 X49.301 Y46.647
G01 F480 X49.136 Y46.767
G01 F480 X48.950 Y46.849
G01 F480 X48.751 Y46.892
G01 F480 X48.548 Y46.892
G00 F3000 Z3.000
G00 F3000 X12.988 Y46.892
G00 F1500 Z0
G01 F480 Z-0.200
G01 F480 X12.789 Y46.849
G01 F480 X12.603 Y46.767
G01 F480 X12.438 Y46.647
G01 F480 X12.302 Y46.496
G01 F480 X12.200 Y46.319
G01 F480 X12.137 Y46.126
G01 F480 X12.116 Y45.923
G01 F480 X12.137 Y45.721
G01 F480 X12.200 Y45.527
G01 F480 X12.302 Y45.351
G01 F480 X12.438 Y45.199
G01 F480 X12.603 Y45.080
G01 F480 X12.789 Y44.997
G01 F480 X12.988 Y44.955
G01 F480 X13.191 Y44.955
G01 F480 X13.390 Y44.997
G01 F480 X13.576 Y45.080
G01 F480 X13.741 Y45.199
G01 F480 X13.877 Y45.351
G01 F480 X13.979 Y45.527
G01 F480 X14.042 Y45.721
G01 F480 X14.063 Y45.923
G01 F480 X14.042 Y46.126
G01 F480 X13.979 Y46.319
G01 F480 X13.877 Y46.496
G01 F480 X13.741 Y46.647
G01 F480 X13.576 Y46.767
G01 F480 X13.390 Y46.849
G01 F480 X13.191 Y46.892
G01 F480 X12.988 Y46.892
G00 F3000 Z3.000
G00 F3000 X13.008 Y44.137
G00 F1500 Z0
G01 F480 Z-0.200
G01 F480 X12.847 Y44.103
G01 F480 X12.698 Y44.036
G01 F480 X12.569 Y43.943
G01 F480 X10.566 Y41.964
G01 F480 X10.432 Y41.964
G01 F480 X10.201 Y41.915
G01 F480 X9.986 Y41.819
G01 F480 X9.796 Y41.680
G01 F480 X9.638 Y41.505
G01 F480 X9.520 Y41.301
G01 F480 X9.448 Y41.077
G01 F480 X9.423 Y40.843
G01 F480 X9.448 Y40.609
G01 F480 X9.520 Y40.385
G01 F480 X9.638 Y40.181
G01 F480 X9.767 Y40.038
G01 F480 X9.767 Y36.296
G01 F480 X9.648 Y36.164
G01 F480 X9.532 Y35.962
G01 F480 X9.460 Y35.741
G01 F480 X9.436 Y35.509
G01 F480 X9.460 Y35.278
G01 F480 X9.532 Y35.056
G01 F480 X9.648 Y34.855
G01 F480 X9.804 Y34.681
G01 F480 X9.993 Y34.545
G01 F480 X10.205 Y34.450
G01 F480 X10.433 Y34.401
G01 F480 X10.666 Y34.401
G01 F480 X10.894 Y34.450
G01 F480 X11.106 Y34.545
G01 F480 X11.295 Y34.681
G01 F480 X11.450 Y34.855
G01 F480 X11.567 Y35.056
G01 F480 X11.639 Y35.278
G01 F480 X11.663 Y35.509
G01 F480 X11.639 Y35.741
G01 F480 X11.567 Y35.962
G01 F480 X11.450 Y36.164
G01 F480 X11.332 Y36.295
G01 F480 X11.331 Y40.037
G01 F480 X11.461 Y40.181
G01 F480 X11.579 Y40.385
G01 F480 X11.651 Y40.609
G01 F480 X11.676 Y40.843
G01 F480 X11.674 Y40.861
G01 F480 X13.413 Y42.579
G01 F480 X25.443 Y42.579
G01 F480 X27.205 Y40.860
G01 F480 X27.203 Y40.843
G01 F480 X27.228 Y40.609
G01 F480 X27.300 Y40.385
G01 F480 X27.418 Y40.181
G01 F480 X27.576 Y40.006
G01 F480 X27.766 Y39.868
G01 F480 X27.981 Y39.772
G01 F480 X28.212 Y39.723
G01 F480 X28.447 Y39.723
G01 F480 X28.678 Y39.772
G01 F480 X28.893 Y39.868
G01 F480 X29.083 Y40.006
G01 F480 X29.241 Y40.181
G01 F480 X29.359 Y40.385
G01 F480 X29.431 Y40.609
G01 F480 X29.456 Y40.843
G01 F480 X29.431 Y41.077
G01 F480 X29.359 Y41.301
G01 F480 X29.241 Y41.505
G01 F480 X29.083 Y41.680
G01 F480 X28.893 Y41.819
G01 F480 X28.678 Y41.915
G01 F480 X28.453 Y41.962
G01 F480 X28.305 Y41.972
G01 F480 X26.284 Y43.943
G01 F480 X26.156 Y44.036
G01 F480 X26.006 Y44.103
G01 F480 X25.846 Y44.137
G01 F480 X13.008 Y44.137
G00 F3000 Z3.000
G00 F3000 X38.372 Y41.964
G00 F1500 Z0
G01 F480 Z-0.200
G01 F480 X38.141 Y41.915
G01 F480 X37.926 Y41.819
G01 F480 X37.736 Y41.680
G01 F480 X37.578 Y41.505
G01 F480 X37.460 Y41.301
G01 F480 X37.388 Y41.077
G01 F480 X37.363 Y40.843
G01 F480 X37.388 Y40.609
G01 F480 X37.460 Y40.385
G01 F480 X37.578 Y40.181
G01 F480 X37.736 Y40.006
G01 F480 X37.926 Y39.868
G01 F480 X38.141 Y39.772
G01 F480 X38.372 Y39.723
G01 F480 X38.607 Y39.723
G01 F480 X38.838 Y39.772
G01 F480 X39.053 Y39.868
G01 F480 X39.243 Y40.006
G01 F480 X39.401 Y40.181
G01 F480 X39.519 Y40.385
G01 F480 X39.591 Y40.609
G01 F480 X39.616 Y40.843
G01 F480 X39.591 Y41.077
G01 F480 X39.519 Y41.301
G01 F480 X39.401 Y41.505
G01 F480 X39.243 Y41.680
G01 F480 X39.053 Y41.819
G01 F480 X38.838 Y41.915
G01 F480 X38.607 Y41.964
G01 F480 X38.372 Y41.964
G00 F3000 Z3.000
G00 F3000 X56.152 Y41.964
G00 F1500 Z0
G01 F480 Z-0.200
G01 F480 X55.921 Y41.915
G01 F480 X55.706 Y41.819
G01 F480 X55.516 Y41.680
G01 F480 X55.358 Y41.505
G01 F480 X55.240 Y41.301
G01 F480 X55.168 Y41.077
G01 F480 X55.143 Y40.843
G01 F480 X55.168 Y40.609
G01 F480 X55.240 Y40.385
G01 F480 X55.358 Y40.181
G01 F480 X55.516 Y40.006
G01 F480 X55.706 Y39.868
G01 F480 X55.921 Y39.772
G01 F480 X56.152 Y39.723
G01 F480 X56.387 Y39.723
G01 F480 X56.618 Y39.772
G01 F480 X56.833 Y39.868
G01 F480 X57.023 Y40.006
G01 F480 X57.181 Y40.181
G01 F480 X57.299 Y40.385
G01 F480 X57.371 Y40.609
G01 F480 X57.396 Y40.843
G01 F480 X57.371 Y41.077
G01 F480 X57.299 Y41.301
G01 F480 X57.181 Y41.505
G01 F480 X57.023 Y41.680
G01 F480 X56.833 Y41.819
G01 F480 X56.618 Y41.915
G01 F480 X56.387 Y41.964
G01 F480 X56.152 Y41.964
G00 F3000 Z3.000
G00 F3000 X20.592 Y41.964
G00 F1500 Z0
G01 F480 Z-0.200
G01 F480 X20.361 Y41.915
G01 F480 X20.146 Y41.819
G01 F480 X19.956 Y41.680
G01 F480 X19.798 Y41.505
G01 F480 X19.680 Y41.301
G01 F480 X19.608 Y41.077
G01 F480 X19.583 Y40.843
G01 F480 X19.608 Y40.609
G01 F480 X19.680 Y40.385
G01 F480 X19.798 Y40.181
G01 F480 X19.956 Y40.006
G01 F480 X20.146 Y39.868
G01 F480 X20.361 Y39.772
G01 F480 X20.592 Y39.723
G01 F480 X20.827 Y39.723
G01 F480 X21.058 Y39.772
G01 F480 X21.273 Y39.868
G01 F480 X21.463 Y40.006
G01 F480 X21.621 Y40.181
G01 F480 X21.739 Y40.385
G01 F480 X21.811 Y40.609
G01 F480 X21.836 Y40.843
G01 F480 X21.811 Y41.077
G01 F480 X21.739 Y41.301
G01 F480 X21.621 Y41.505
G01 F480 X21.463 Y41.680
G01 F480 X21.273 Y41.819
G01 F480 X21.058 Y41.915
G01 F480 X20.827 Y41.964
G01 F480 X20.592 Y41.964
G00 F3000 Z3.000
G00 F3000 X53.613 Y36.871
G00 F1500 Z0
G01 F480 Z-0.200
G01 F480 X53.385 Y36.822
G01 F480 X53.173 Y36.728
G01 F480 X52.984 Y36.591
G01 F480 X52.828 Y36.418
G01 F480 X52.712 Y36.216
G01 F480 X52.640 Y35.995
G01 F480 X52.616 Y35.763
G01 F480 X52.640 Y35.532
G01 F480 X52.712 Y35.310
G01 F480 X52.828 Y35.109
G01 F480 X52.984 Y34.936
G01 F480 X53.173 Y34.799
G01 F480 X53.385 Y34.704
G01 F480 X53.613 Y34.656
G01 F480 X53.846 Y34.656
G01 F480 X54.074 Y34.704
G01 F480 X54.286 Y34.799
G01 F480 X54.475 Y34.936
G01 F480 X54.631 Y35.109
G01 F480 X54.747 Y35.310
G01 F480 X54.819 Y35.532
G01 F480 X54.843 Y35.763
G01 F480 X54.819 Y35.995
G01 F480 X54.747 Y36.216
G01 F480 X54.631 Y36.418
G01 F480 X54.475 Y36.591
G01 F480 X54.286 Y36.728
G01 F480 X54.074 Y36.822
G01 F480 X53.846 Y36.871
G01 F480 X53.613 Y36.871
G00 F3000 Z3.000
G00 F3000 X25.673 Y36.871
G00 F1500 Z0
G01 F480 Z-0.200
G01 F480 X25.445 Y36.822
G01 F480 X25.233 Y36.728
G01 F480 X25.044 Y36.591
G01 F480 X24.888 Y36.418
G01 F480 X24.772 Y36.216
G01 F480 X24.700 Y35.995
G01 F480 X24.676 Y35.763
G01 F480 X24.700 Y35.532
G01 F480 X24.772 Y35.310
G01 F480 X24.888 Y35.109
G01 F480 X25.044 Y34.936
G01 F480 X25.233 Y34.799
G01 F480 X25.445 Y34.704
G01 F480 X25.673 Y34.656
G01 F480 X25.906 Y34.656
G01 F480 X26.134 Y34.704
G01 F480 X26.346 Y34.799
G01 F480 X26.535 Y34.936
G01 F480 X26.691 Y35.109
G01 F480 X26.807 Y35.310
G01 F480 X26.879 Y35.532
G01 F480 X26.903 Y35.763
G01 F480 X26.879 Y35.995
G01 F480 X26.807 Y36.216
G01 F480 X26.691 Y36.418
G01 F480 X26.535 Y36.591
G01 F480 X26.346 Y36.728
G01 F480 X26.134 Y36.822
G01 F480 X25.906 Y36.871
G01 F480 X25.673 Y36.871
G00 F3000 Z3.000
G00 F3000 X43.453 Y36.871
G00 F1500 Z0
G01 F480 Z-0.200
G01 F480 X43.225 Y36.822
G01 F480 X43.013 Y36.728
G01 F480 X42.824 Y36.591
G01 F480 X42.668 Y36.418
G01 F480 X42.552 Y36.216
G01 F480 X42.480 Y35.995
G01 F480 X42.456 Y35.763
G01 F480 X42.480 Y35.532
G01 F480 X42.552 Y35.310
G01 F480 X42.668 Y35.109
G01 F480 X42.824 Y34.936
G01 F480 X43.013 Y34.799
G01 F480 X43.225 Y34.704
G01 F480 X43.453 Y34.656
G01 F480 X43.686 Y34.656
G01 F480 X43.914 Y34.704
G01 F480 X44.126 Y34.799
G01 F480 X44.315 Y34.936
G01 F480 X44.471 Y35.109
G01 F480 X44.587 Y35.310
G01 F480 X44.659 Y35.532
G01 F480 X44.683 Y35.763
G01 F480 X44.659 Y35.995
G01 F480 X44.587 Y36.216
G01 F480 X44.471 Y36.418
G01 F480 X44.315 Y36.591
G01 F480 X44.126 Y36.728
G01 F480 X43.914 Y36.822
G01 F480 X43.686 Y36.871
G01 F480 X43.453 Y36.871
G00 F3000 Z3.000
G00 F3000 X7.893 Y36.871
G00 F1500 Z0
G01 F480 Z-0.200
G01 F480 X7.665 Y36.822
G01 F480 X7.453 Y36.728
G01 F480 X7.264 Y36.591
G01 F480 X7.108 Y36.418
G01 F480 X6.992 Y36.216
G01 F480 X6.920 Y35.995
G01 F480 X6.896 Y35.763
G01 F480 X6.920 Y35.532
G01 F480 X6.992 Y35.310
G01 F480 X7.108 Y35.109
G01 F480 X7.264 Y34.936
G01 F480 X7.453 Y34.799
G01 F480 X7.665 Y34.704
G01 F480 X7.893 Y34.656
G01 F480 X8.126 Y34.656
G01 F480 X8.354 Y34.704
G01 F480 X8.566 Y34.799
G01 F480 X8.755 Y34.936
G01 F480 X8.911 Y35.109
G01 F480 X9.027 Y35.310
G01 F480 X9.099 Y35.532
G01 F480 X9.123 Y35.763
G01 F480 X9.099 Y35.995
G01 F480 X9.027 Y36.216
G01 F480 X8.911 Y36.418
G01 F480 X8.755 Y36.591
G01 F480 X8.566 Y36.728
G01 F480 X8.354 Y36.822
G01 F480 X8.126 Y36.871
G01 F480 X7.893 Y36.871
G00 F3000 Z3.000
G00 F3000 X12.973 Y36.871
G00 F1500 Z0
G01 F480 Z-0.200
G01 F480 X12.745 Y36.822
G01 F480 X12.533 Y36.728
G01 F480 X12.344 Y36.591
G01 F480 X12.188 Y36.418
G01 F480 X12.072 Y36.216
G01 F480 X12.000 Y35.995
G01 F480 X11.976 Y35.763
G01 F480 X12.000 Y35.532
G01 F480 X12.072 Y35.310
G01 F480 X12.188 Y35.109
G01 F480 X12.344 Y34.936
G01 F480 X12.533 Y34.799
G01 F480 X12.745 Y34.704
G01 F480 X12.973 Y34.656
G01 F480 X13.206 Y34.656
G01 F480 X13.434 Y34.704
G01 F480 X13.646 Y34.799
G01 F480 X13.830 Y34.932
G01 F480 X13.883 Y34.984
G01 F480 X14.654 Y34.984
G01 F480 X14.728 Y34.855
G01 F480 X14.884 Y34.681
G01 F480 X14.887 Y34.679
G01 F480 X14.863 Y34.605
G01 F480 X14.847 Y34.453
G01 F480 X14.821 Y33.241
G01 F480 X14.838 Y33.086
G01 F480 X14.888 Y32.930
G01 F480 X14.970 Y32.788
G01 F480 X15.071 Y32.677
G01 F480 X17.387 Y30.360
G01 F480 X17.387 Y18.306
G01 F480 X15.096 Y16.015
G01 F480 X14.996 Y15.904
G01 F480 X14.914 Y15.762
G01 F480 X14.863 Y15.606
G01 F480 X14.847 Y15.452
G01 F480 X14.847 Y13.512
G01 F480 X13.950 Y13.606
G01 F480 X13.947 Y13.606
G01 F480 X13.835 Y13.731
G01 F480 X13.646 Y13.868
G01 F480 X13.434 Y13.962
G01 F480 X13.206 Y14.011
G01 F480 X12.973 Y14.011
G01 F480 X12.745 Y13.962
G01 F480 X12.533 Y13.868
G01 F480 X12.344 Y13.731
G01 F480 X12.188 Y13.558
G01 F480 X12.072 Y13.356
G01 F480 X12.000 Y13.135
G01 F480 X11.976 Y12.903
G01 F480 X12.000 Y12.672
G01 F480 X12.072 Y12.450
G01 F480 X12.188 Y12.249
G01 F480 X12.344 Y12.075
G01 F480 X12.533 Y11.939
G01 F480 X12.745 Y11.844
G01 F480 X12.973 Y11.796
G01 F480 X13.206 Y11.796
G01 F480 X13.434 Y11.844
G01 F480 X13.646 Y11.939
G01 F480 X13.797 Y12.048
G01 F480 X14.769 Y11.946
G01 F480 X14.772 Y11.946
G01 F480 X14.884 Y11.822
G01 F480 X15.073 Y11.685
G01 F480 X15.285 Y11.590
G01 F480 X15.513 Y11.542
G01 F480 X15.746 Y11.542
G01 F480 X15.974 Y11.590
G01 F480 X16.186 Y11.685
G01 F480 X16.375 Y11.822
G01 F480 X16.530 Y11.995
G01 F480 X16.647 Y12.196
G01 F480 X16.719 Y12.418
G01 F480 X16.743 Y12.649
G01 F480 X16.719 Y12.881
G01 F480 X16.647 Y13.102
G01 F480 X16.530 Y13.304
G01 F480 X16.412 Y13.435
G01 F480 X16.412 Y15.120
G01 F480 X18.703 Y17.411
G01 F480 X18.803 Y17.523
G01 F480 X18.885 Y17.665
G01 F480 X18.936 Y17.820
G01 F480 X18.952 Y17.974
G01 F480 X18.952 Y30.692
G01 F480 X18.936 Y30.846
G01 F480 X18.885 Y31.002
G01 F480 X18.803 Y31.144
G01 F480 X18.703 Y31.255
G01 F480 X17.499 Y32.460
G01 F480 X20.645 Y32.444
G01 F480 X30.543 Y32.444
G01 F480 X32.627 Y30.360
G01 F480 X32.627 Y23.386
G01 F480 X30.336 Y21.095
G01 F480 X30.236 Y20.984
G01 F480 X30.154 Y20.842
G01 F480 X30.103 Y20.686
G01 F480 X30.087 Y20.532
G01 F480 X30.087 Y13.690
G01 F480 X29.968 Y13.558
G01 F480 X29.852 Y13.356
G01 F480 X29.780 Y13.135
G01 F480 X29.756 Y12.903
G01 F480 X29.780 Y12.672
G01 F480 X29.852 Y12.450
G01 F480 X29.968 Y12.249
G01 F480 X30.124 Y12.075
G01 F480 X30.313 Y11.939
G01 F480 X30.525 Y11.844
G01 F480 X30.753 Y11.796
G01 F480 X30.986 Y11.796
G01 F480 X31.214 Y11.844
G01 F480 X31.426 Y11.939
G01 F480 X31.615 Y12.075
G01 F480 X31.771 Y12.249
G01 F480 X31.887 Y12.450
G01 F480 X31.959 Y12.672
G01 F480 X31.983 Y12.903
G01 F480 X31.959 Y13.135
G01 F480 X31.887 Y13.356
G01 F480 X31.771 Y13.558
G01 F480 X31.652 Y13.689
G01 F480 X31.652 Y20.200
G01 F480 X33.943 Y22.491
G01 F480 X34.043 Y22.603
G01 F480 X34.125 Y22.745
G01 F480 X34.176 Y22.900
G01 F480 X34.192 Y23.054
G01 F480 X34.192 Y30.692
G01 F480 X34.176 Y30.846
G01 F480 X34.125 Y31.002
G01 F480 X34.043 Y31.144
G01 F480 X33.943 Y31.255
G01 F480 X31.652 Y33.546
G01 F480 X31.652 Y34.901
G01 F480 X32.549 Y34.806
G01 F480 X32.552 Y34.806
G01 F480 X32.627 Y34.723
G01 F480 X32.627 Y33.214
G01 F480 X32.643 Y33.060
G01 F480 X32.694 Y32.904
G01 F480 X32.776 Y32.763
G01 F480 X32.876 Y32.651
G01 F480 X35.167 Y30.360
G01 F480 X35.167 Y15.434
G01 F480 X35.183 Y15.280
G01 F480 X35.234 Y15.125
G01 F480 X35.316 Y14.983
G01 F480 X35.425 Y14.861
G01 F480 X35.558 Y14.765
G01 F480 X35.707 Y14.698
G01 F480 X35.868 Y14.664
G01 F480 X37.717 Y14.664
G01 F480 X37.681 Y12.880
G01 F480 X37.681 Y10.354
G01 F480 X37.698 Y10.200
G01 F480 X37.748 Y10.045
G01 F480 X37.830 Y9.903
G01 F480 X37.940 Y9.781
G01 F480 X38.072 Y9.685
G01 F480 X38.222 Y9.618
G01 F480 X38.382 Y9.584
G01 F480 X41.093 Y9.584
G01 F480 X48.706 Y9.609
G01 F480 X48.866 Y9.643
G01 F480 X49.016 Y9.710
G01 F480 X49.148 Y9.806
G01 F480 X49.258 Y9.928
G01 F480 X49.340 Y10.070
G01 F480 X49.391 Y10.226
G01 F480 X49.407 Y10.378
G01 F480 X49.432 Y12.117
G01 F480 X49.550 Y12.249
G01 F480 X49.667 Y12.450
G01 F480 X49.739 Y12.672
G01 F480 X49.763 Y12.903
G01 F480 X49.739 Y13.135
G01 F480 X49.667 Y13.356
G01 F480 X49.550 Y13.558
G01 F480 X49.395 Y13.731
G01 F480 X49.206 Y13.868
G01 F480 X48.994 Y13.962
G01 F480 X48.766 Y14.011
G01 F480 X48.533 Y14.011
G01 F480 X48.305 Y13.962
G01 F480 X48.093 Y13.868
G01 F480 X47.904 Y13.731
G01 F480 X47.748 Y13.558
G01 F480 X47.632 Y13.356
G01 F480 X47.560 Y13.135
G01 F480 X47.536 Y12.903
G01 F480 X47.560 Y12.672
G01 F480 X47.632 Y12.450
G01 F480 X47.748 Y12.249
G01 F480 X47.867 Y12.117
G01 F480 X47.853 Y11.165
G01 F480 X40.965 Y11.143
G01 F480 X39.247 Y11.143
G01 F480 X39.247 Y12.878
G01 F480 X39.298 Y15.451
G01 F480 X39.281 Y15.606
G01 F480 X39.231 Y15.762
G01 F480 X39.149 Y15.904
G01 F480 X39.039 Y16.026
G01 F480 X38.907 Y16.122
G01 F480 X38.757 Y16.188
G01 F480 X38.597 Y16.223
G01 F480 X36.732 Y16.223
G01 F480 X36.732 Y30.692
G01 F480 X36.716 Y30.846
G01 F480 X36.665 Y31.002
G01 F480 X36.583 Y31.144
G01 F480 X36.483 Y31.255
G01 F480 X34.192 Y33.546
G01 F480 X34.192 Y34.723
G01 F480 X34.311 Y34.855
G01 F480 X34.427 Y35.056
G01 F480 X34.499 Y35.278
G01 F480 X34.523 Y35.509
G01 F480 X34.499 Y35.741
G01 F480 X34.427 Y35.962
G01 F480 X34.311 Y36.164
G01 F480 X34.155 Y36.337
G01 F480 X33.966 Y36.474
G01 F480 X33.754 Y36.568
G01 F480 X33.526 Y36.617
G01 F480 X33.293 Y36.617
G01 F480 X33.065 Y36.568
G01 F480 X32.853 Y36.474
G01 F480 X32.702 Y36.364
G01 F480 X31.730 Y36.466
G01 F480 X31.727 Y36.466
G01 F480 X31.615 Y36.591
G01 F480 X31.426 Y36.728
G01 F480 X31.214 Y36.822
G01 F480 X30.986 Y36.871
G01 F480 X30.753 Y36.871
G01 F480 X30.525 Y36.822
G01 F480 X30.313 Y36.728
G01 F480 X30.124 Y36.591
G01 F480 X29.968 Y36.418
G01 F480 X29.852 Y36.216
G01 F480 X29.780 Y35.995
G01 F480 X29.756 Y35.763
G01 F480 X29.780 Y35.532
G01 F480 X29.852 Y35.310
G01 F480 X29.968 Y35.109
G01 F480 X30.087 Y34.977
G01 F480 X30.087 Y34.003
G01 F480 X20.774 Y34.003
G01 F480 X16.403 Y34.024
G01 F480 X16.412 Y34.450
G01 F480 X16.396 Y34.605
G01 F480 X16.372 Y34.679
G01 F480 X16.375 Y34.681
G01 F480 X16.530 Y34.855
G01 F480 X16.647 Y35.056
G01 F480 X16.719 Y35.278
G01 F480 X16.743 Y35.509
G01 F480 X16.719 Y35.741
G01 F480 X16.647 Y35.962
G01 F480 X16.530 Y36.164
G01 F480 X16.375 Y36.337
G01 F480 X16.186 Y36.474
G01 F480 X15.974 Y36.568
G01 F480 X15.746 Y36.617
G01 F480 X15.513 Y36.617
G01 F480 X15.285 Y36.568
G01 F480 X15.130 Y36.499
G01 F480 X15.110 Y36.508
G01 F480 X14.949 Y36.543
G01 F480 X13.880 Y36.540
G01 F480 X13.835 Y36.591
G01 F480 X13.646 Y36.728
G01 F480 X13.434 Y36.822
G01 F480 X13.206 Y36.871
G01 F480 X12.973 Y36.871
G00 F3000 Z3.000
G00 F3000 X23.133 Y36.617
G00 F1500 Z0
G01 F480 Z-0.200
G01 F480 X22.905 Y36.568
G01 F480 X22.693 Y36.474
G01 F480 X22.504 Y36.337
G01 F480 X22.348 Y36.164
G01 F480 X22.232 Y35.962
G01 F480 X22.160 Y35.741
G01 F480 X22.136 Y35.509
G01 F480 X22.160 Y35.278
G01 F480 X22.232 Y35.056
G01 F480 X22.348 Y34.855
G01 F480 X22.504 Y34.681
G01 F480 X22.693 Y34.545
G01 F480 X22.905 Y34.450
G01 F480 X23.133 Y34.401
G01 F480 X23.366 Y34.401
G01 F480 X23.594 Y34.450
G01 F480 X23.806 Y34.545
G01 F480 X23.995 Y34.681
G01 F480 X24.151 Y34.855
G01 F480 X24.267 Y35.056
G01 F480 X24.339 Y35.278
G01 F480 X24.363 Y35.509
G01 F480 X24.339 Y35.741
G01 F480 X24.267 Y35.962
G01 F480 X24.151 Y36.164
G01 F480 X23.995 Y36.337
G01 F480 X23.806 Y36.474
G01 F480 X23.594 Y36.568
G01 F480 X23.366 Y36.617
G01 F480 X23.133 Y36.617
G00 F3000 Z3.000
G00 F3000 X40.913 Y36.617
G00 F1500 Z0
G01 F480 Z-0.200
G01 F480 X40.685 Y36.568
G01 F480 X40.473 Y36.474
G01 F480 X40.284 Y36.337
G01 F480 X40.128 Y36.164
G01 F480 X40.012 Y35.962
G01 F480 X39.940 Y35.741
G01 F480 X39.916 Y35.509
G01 F480 X39.940 Y35.278
G01 F480 X40.012 Y35.056
G01 F480 X40.128 Y34.855
G01 F480 X40.284 Y34.681
G01 F480 X40.473 Y34.545
G01 F480 X40.685 Y34.450
G01 F480 X40.913 Y34.401
G01 F480 X41.146 Y34.401
G01 F480 X41.374 Y34.450
G01 F480 X41.586 Y34.545
G01 F480 X41.775 Y34.681
G01 F480 X41.931 Y34.855
G01 F480 X42.047 Y35.056
G01 F480 X42.119 Y35.278
G01 F480 X42.143 Y35.509
G01 F480 X42.119 Y35.741
G01 F480 X42.047 Y35.962
G01 F480 X41.931 Y36.164
G01 F480 X41.775 Y36.337
G01 F480 X41.586 Y36.474
G01 F480 X41.374 Y36.568
G01 F480 X41.146 Y36.617
G01 F480 X40.913 Y36.617
G00 F3000 Z3.000
G00 F3000 X45.993 Y36.617
G00 F1500 Z0
G01 F480 Z-0.200
G01 F480 X45.765 Y36.568
G01 F480 X45.553 Y36.474
G01 F480 X45.364 Y36.337
G01 F480 X45.208 Y36.164
G01 F480 X45.092 Y35.962
G01 F480 X45.020 Y35.741
G01 F480 X44.996 Y35.509
G01 F480 X45.020 Y35.278
G01 F480 X45.092 Y35.056
G01 F480 X45.208 Y34.855
G01 F480 X45.364 Y34.681
G01 F480 X45.553 Y34.545
G01 F480 X45.765 Y34.450
G01 F480 X45.993 Y34.401
G01 F480 X46.226 Y34.401
G01 F480 X46.454 Y34.450
G01 F480 X46.666 Y34.545
G01 F480 X46.855 Y34.681
G01 F480 X47.011 Y34.855
G01 F480 X47.127 Y35.056
G01 F480 X47.199 Y35.278
G01 F480 X47.223 Y35.509
G01 F480 X47.199 Y35.741
G01 F480 X47.127 Y35.962
G01 F480 X47.011 Y36.164
G01 F480 X46.855 Y36.337
G01 F480 X46.666 Y36.474
G01 F480 X46.454 Y36.568
G01 F480 X46.226 Y36.617
G01 F480 X45.993 Y36.617
G00 F3000 Z3.000
G00 F3000 X28.213 Y36.617
G00 F1500 Z0
G01 F480 Z-0.200
G01 F480 X27.985 Y36.568
G01 F480 X27.773 Y36.474
G01 F480 X27.584 Y36.337
G01 F480 X27.428 Y36.164
G01 F480 X27.312 Y35.962
G01 F480 X27.240 Y35.741
G01 F480 X27.216 Y35.509
G01 F480 X27.240 Y35.278
G01 F480 X27.312 Y35.056
G01 F480 X27.428 Y34.855
G01 F480 X27.584 Y34.681
G01 F480 X27.773 Y34.545
G01 F480 X27.985 Y34.450
G01 F480 X28.213 Y34.401
G01 F480 X28.446 Y34.401
G01 F480 X28.674 Y34.450
G01 F480 X28.886 Y34.545
G01 F480 X29.075 Y34.681
G01 F480 X29.231 Y34.855
G01 F480 X29.347 Y35.056
G01 F480 X29.419 Y35.278
G01 F480 X29.443 Y35.509
G01 F480 X29.419 Y35.741
G01 F480 X29.347 Y35.962
G01 F480 X29.231 Y36.164
G01 F480 X29.075 Y36.337
G01 F480 X28.886 Y36.474
G01 F480 X28.674 Y36.568
G01 F480 X28.446 Y36.617
G01 F480 X28.213 Y36.617
G00 F3000 Z3.000
G00 F3000 X20.591 Y26.729
G00 F1500 Z0
G01 F480 Z-0.200
G01 F480 X20.360 Y26.680
G01 F480 X20.143 Y26.584
G01 F480 X19.952 Y26.444
G01 F480 X19.794 Y26.268
G01 F480 X19.675 Y26.064
G01 F480 X19.602 Y25.838
G01 F480 X19.578 Y25.603
G01 F480 X19.602 Y25.368
G01 F480 X19.675 Y25.143
G01 F480 X19.794 Y24.938
G01 F480 X19.952 Y24.762
G01 F480 X20.143 Y24.623
G01 F480 X20.360 Y24.527
G01 F480 X20.591 Y24.477
G01 F480 X20.828 Y24.477
G01 F480 X21.059 Y24.527
G01 F480 X21.275 Y24.623
G01 F480 X21.467 Y24.762
G01 F480 X21.523 Y24.824
G01 F480 X22.491 Y24.838
G01 F480 X22.467 Y13.436
G01 F480 X22.348 Y13.304
G01 F480 X22.232 Y13.102
G01 F480 X22.160 Y12.881
G01 F480 X22.136 Y12.649
G01 F480 X22.160 Y12.418
G01 F480 X22.232 Y12.196
G01 F480 X22.348 Y11.995
G01 F480 X22.504 Y11.822
G01 F480 X22.693 Y11.685
G01 F480 X22.905 Y11.590
G01 F480 X23.133 Y11.542
G01 F480 X23.366 Y11.542
G01 F480 X23.594 Y11.590
G01 F480 X23.806 Y11.685
G01 F480 X23.995 Y11.822
G01 F480 X24.151 Y11.995
G01 F480 X24.267 Y12.196
G01 F480 X24.339 Y12.418
G01 F480 X24.363 Y12.649
G01 F480 X24.339 Y12.881
G01 F480 X24.267 Y13.102
G01 F480 X24.151 Y13.304
G01 F480 X24.032 Y13.435
G01 F480 X24.056 Y24.843
G01 F480 X29.897 Y24.800
G01 F480 X29.897 Y24.579
G01 F480 X31.843 Y24.579
G01 F480 X31.843 Y26.525
G01 F480 X29.897 Y26.525
G01 F480 X29.897 Y26.360
G01 F480 X23.339 Y26.408
G01 F480 X23.210 Y26.408
G01 F480 X21.521 Y26.384
G01 F480 X21.467 Y26.444
G01 F480 X21.275 Y26.584
G01 F480 X21.059 Y26.680
G01 F480 X20.828 Y26.729
G01 F480 X20.591 Y26.729
G00 F3000 Z3.000
G00 F3000 X12.117 Y26.525
G00 F1500 Z0
G01 F480 Z-0.200
G01 F480 X12.117 Y26.359
G01 F480 X8.074 Y26.383
G01 F480 X7.928 Y26.383
G01 F480 X7.767 Y26.348
G01 F480 X7.618 Y26.282
G01 F480 X7.489 Y26.188
G01 F480 X4.936 Y23.635
G01 F480 X4.836 Y23.524
G01 F480 X4.754 Y23.382
G01 F480 X4.703 Y23.226
G01 F480 X4.687 Y23.072
G01 F480 X4.687 Y13.436
G01 F480 X4.568 Y13.304
G01 F480 X4.452 Y13.102
G01 F480 X4.380 Y12.881
G01 F480 X4.356 Y12.649
G01 F480 X4.380 Y12.418
G01 F480 X4.452 Y12.196
G01 F480 X4.568 Y11.995
G01 F480 X4.724 Y11.822
G01 F480 X4.913 Y11.685
G01 F480 X5.125 Y11.590
G01 F480 X5.353 Y11.542
G01 F480 X5.586 Y11.542
G01 F480 X5.814 Y11.590
G01 F480 X6.026 Y11.685
G01 F480 X6.215 Y11.822
G01 F480 X6.371 Y11.995
G01 F480 X6.487 Y12.196
G01 F480 X6.559 Y12.418
G01 F480 X6.583 Y12.649
G01 F480 X6.559 Y12.881
G01 F480 X6.487 Y13.102
G01 F480 X6.371 Y13.304
G01 F480 X6.252 Y13.435
G01 F480 X6.252 Y22.740
G01 F480 X8.334 Y24.822
G01 F480 X12.117 Y24.800
G01 F480 X12.117 Y24.579
G01 F480 X14.063 Y24.579
G01 F480 X14.063 Y26.525
G01 F480 X12.117 Y26.525
G00 F3000 Z3.000
G00 F3000 X12.988 Y24.032
G00 F1500 Z0
G01 F480 Z-0.200
G01 F480 X12.789 Y23.989
G01 F480 X12.603 Y23.907
G01 F480 X12.438 Y23.787
G01 F480 X12.302 Y23.636
G01 F480 X12.200 Y23.459
G01 F480 X12.137 Y23.266
G01 F480 X12.116 Y23.063
G01 F480 X12.137 Y22.861
G01 F480 X12.200 Y22.667
G01 F480 X12.302 Y22.491
G01 F480 X12.438 Y22.339
G01 F480 X12.603 Y22.220
G01 F480 X12.789 Y22.137
G01 F480 X12.988 Y22.095
G01 F480 X13.191 Y22.095
G01 F480 X13.390 Y22.137
G01 F480 X13.576 Y22.220
G01 F480 X13.741 Y22.339
G01 F480 X13.877 Y22.491
G01 F480 X13.979 Y22.667
G01 F480 X14.042 Y22.861
G01 F480 X14.063 Y23.063
G01 F480 X14.042 Y23.266
G01 F480 X13.979 Y23.459
G01 F480 X13.877 Y23.636
G01 F480 X13.741 Y23.787
G01 F480 X13.576 Y23.907
G01 F480 X13.390 Y23.989
G01 F480 X13.191 Y24.032
G01 F480 X12.988 Y24.032
G00 F3000 Z3.000
G00 F3000 X30.768 Y24.032
G00 F1500 Z0
G01 F480 Z-0.200
G01 F480 X30.569 Y23.989
G01 F480 X30.383 Y23.907
G01 F480 X30.218 Y23.787
G01 F480 X30.082 Y23.636
G01 F480 X29.980 Y23.459
G01 F480 X29.917 Y23.266
G01 F480 X29.896 Y23.063
G01 F480 X29.917 Y22.861
G01 F480 X29.980 Y22.667
G01 F480 X30.082 Y22.491
G01 F480 X30.218 Y22.339
G01 F480 X30.383 Y22.220
G01 F480 X30.569 Y22.137
G01 F480 X30.768 Y22.095
G01 F480 X30.971 Y22.095
G01 F480 X31.170 Y22.137
G01 F480 X31.356 Y22.220
G01 F480 X31.521 Y22.339
G01 F480 X31.657 Y22.491
G01 F480 X31.759 Y22.667
G01 F480 X31.822 Y22.861
G01 F480 X31.843 Y23.063
G01 F480 X31.822 Y23.266
G01 F480 X31.759 Y23.459
G01 F480 X31.657 Y23.636
G01 F480 X31.521 Y23.787
G01 F480 X31.356 Y23.907
G01 F480 X31.170 Y23.989
G01 F480 X30.971 Y24.032
G01 F480 X30.768 Y24.032
G00 F3000 Z3.000
G00 F3000 X48.548 Y24.032
G00 F1500 Z0
G01 F480 Z-0.200
G01 F480 X48.349 Y23.989
G01 F480 X48.163 Y23.907
G01 F480 X47.998 Y23.787
G01 F480 X47.861 Y23.636
G01 F480 X47.760 Y23.459
G01 F480 X47.697 Y23.266
G01 F480 X47.675 Y23.063
G01 F480 X47.697 Y22.861
G01 F480 X47.760 Y22.667
G01 F480 X47.861 Y22.491
G01 F480 X47.998 Y22.339
G01 F480 X48.163 Y22.220
G01 F480 X48.349 Y22.137
G01 F480 X48.548 Y22.095
G01 F480 X48.751 Y22.095
G01 F480 X48.950 Y22.137
G01 F480 X49.136 Y22.220
G01 F480 X49.301 Y22.339
G01 F480 X49.437 Y22.491
G01 F480 X49.539 Y22.667
G01 F480 X49.602 Y22.861
G01 F480 X49.623 Y23.063
G01 F480 X49.602 Y23.266
G01 F480 X49.539 Y23.459
G01 F480 X49.437 Y23.636
G01 F480 X49.301 Y23.787
G01 F480 X49.136 Y23.907
G01 F480 X48.950 Y23.989
G01 F480 X48.751 Y24.032
G01 F480 X48.548 Y24.032
G00 F3000 Z3.000
G00 F3000 X10.432 Y19.104
G00 F1500 Z0
G01 F480 Z-0.200
G01 F480 X10.201 Y19.055
G01 F480 X9.986 Y18.959
G01 F480 X9.796 Y18.820
G01 F480 X9.638 Y18.645
G01 F480 X9.520 Y18.441
G01 F480 X9.448 Y18.217
G01 F480 X9.423 Y17.983
G01 F480 X9.448 Y17.749
G01 F480 X9.520 Y17.525
G01 F480 X9.638 Y17.321
G01 F480 X9.796 Y17.146
G01 F480 X9.986 Y17.008
G01 F480 X10.201 Y16.912
G01 F480 X10.432 Y16.863
G01 F480 X10.667 Y16.863
G01 F480 X10.898 Y16.912
G01 F480 X11.113 Y17.008
G01 F480 X11.303 Y17.146
G01 F480 X11.461 Y17.321
G01 F480 X11.579 Y17.525
G01 F480 X11.651 Y17.749
G01 F480 X11.676 Y17.983
G01 F480 X11.651 Y18.217
G01 F480 X11.579 Y18.441
G01 F480 X11.461 Y18.645
G01 F480 X11.303 Y18.820
G01 F480 X11.113 Y18.959
G01 F480 X10.898 Y19.055
G01 F480 X10.667 Y19.104
G01 F480 X10.432 Y19.104
G00 F3000 Z3.000
G00 F3000 X20.592 Y19.104
G00 F1500 Z0
G01 F480 Z-0.200
G01 F480 X20.361 Y19.055
G01 F480 X20.146 Y18.959
G01 F480 X19.956 Y18.820
G01 F480 X19.798 Y18.645
G01 F480 X19.680 Y18.441
G01 F480 X19.608 Y18.217
G01 F480 X19.583 Y17.983
G01 F480 X19.608 Y17.749
G01 F480 X19.680 Y17.525
G01 F480 X19.798 Y17.321
G01 F480 X19.956 Y17.146
G01 F480 X20.146 Y17.008
G01 F480 X20.361 Y16.912
G01 F480 X20.592 Y16.863
G01 F480 X20.827 Y16.863
G01 F480 X21.058 Y16.912
G01 F480 X21.273 Y17.008
G01 F480 X21.463 Y17.146
G01 F480 X21.621 Y17.321
G01 F480 X21.739 Y17.525
G01 F480 X21.811 Y17.749
G01 F480 X21.836 Y17.983
G01 F480 X21.811 Y18.217
G01 F480 X21.739 Y18.441
G01 F480 X21.621 Y18.645
G01 F480 X21.463 Y18.820
G01 F480 X21.273 Y18.959
G01 F480 X21.058 Y19.055
G01 F480 X20.827 Y19.104
G01 F480 X20.592 Y19.104
G00 F3000 Z3.000
G00 F3000 X28.212 Y19.104
G00 F1500 Z0
G01 F480 Z-0.200
G01 F480 X27.981 Y19.055
G01 F480 X27.766 Y18.959
G01 F480 X27.576 Y18.820
G01 F480 X27.418 Y18.645
G01 F480 X27.300 Y18.441
G01 F480 X27.228 Y18.217
G01 F480 X27.203 Y17.983
G01 F480 X27.228 Y17.749
G01 F480 X27.300 Y17.525
G01 F480 X27.418 Y17.321
G01 F480 X27.576 Y17.146
G01 F480 X27.766 Y17.008
G01 F480 X27.981 Y16.912
G01 F480 X28.212 Y16.863
G01 F480 X28.447 Y16.863
G01 F480 X28.678 Y16.912
G01 F480 X28.893 Y17.008
G01 F480 X29.083 Y17.146
G01 F480 X29.241 Y17.321
G01 F480 X29.359 Y17.525
G01 F480 X29.431 Y17.749
G01 F480 X29.456 Y17.983
G01 F480 X29.431 Y18.217
G01 F480 X29.359 Y18.441
G01 F480 X29.241 Y18.645
G01 F480 X29.083 Y18.820
G01 F480 X28.893 Y18.959
G01 F480 X28.678 Y19.055
G01 F480 X28.447 Y19.104
G01 F480 X28.212 Y19.104
G00 F3000 Z3.000
G00 F3000 X38.372 Y19.104
G00 F1500 Z0
G01 F480 Z-0.200
G01 F480 X38.141 Y19.055
G01 F480 X37.926 Y18.959
G01 F480 X37.736 Y18.820
G01 F480 X37.578 Y18.645
G01 F480 X37.460 Y18.441
G01 F480 X37.388 Y18.217
G01 F480 X37.363 Y17.983
G01 F480 X37.388 Y17.749
G01 F480 X37.460 Y17.525
G01 F480 X37.578 Y17.321
G01 F480 X37.736 Y17.146
G01 F480 X37.926 Y17.008
G01 F480 X38.141 Y16.912
G01 F480 X38.372 Y16.863
G01 F480 X38.607 Y16.863
G01 F480 X38.838 Y16.912
G01 F480 X39.053 Y17.008
G01 F480 X39.243 Y17.146
G01 F480 X39.401 Y17.321
G01 F480 X39.519 Y17.525
G01 F480 X39.591 Y17.749
G01 F480 X39.616 Y17.983
G01 F480 X39.591 Y18.217
G01 F480 X39.519 Y18.441
G01 F480 X39.401 Y18.645
G01 F480 X39.243 Y18.820
G01 F480 X39.053 Y18.959
G01 F480 X38.838 Y19.055
G01 F480 X38.607 Y19.104
G01 F480 X38.372 Y19.104
G00 F3000 Z3.000
G00 F3000 X45.992 Y19.104
G00 F1500 Z0
G01 F480 Z-0.200
G01 F480 X45.761 Y19.055
G01 F480 X45.546 Y18.959
G01 F480 X45.356 Y18.820
G01 F480 X45.198 Y18.645
G01 F480 X45.080 Y18.441
G01 F480 X45.008 Y18.217
G01 F480 X44.983 Y17.983
G01 F480 X45.008 Y17.749
G01 F480 X45.080 Y17.525
G01 F480 X45.198 Y17.321
G01 F480 X45.356 Y17.146
G01 F480 X45.546 Y17.008
G01 F480 X45.761 Y16.912
G01 F480 X45.992 Y16.863
G01 F480 X46.227 Y16.863
G01 F480 X46.458 Y16.912
G01 F480 X46.673 Y17.008
G01 F480 X46.863 Y17.146
G01 F480 X47.021 Y17.321
G01 F480 X47.139 Y17.525
G01 F480 X47.211 Y17.749
G01 F480 X47.236 Y17.983
G01 F480 X47.211 Y18.217
G01 F480 X47.139 Y18.441
G01 F480 X47.021 Y18.645
G01 F480 X46.863 Y18.820
G01 F480 X46.673 Y18.959
G01 F480 X46.458 Y19.055
G01 F480 X46.227 Y19.104
G01 F480 X45.992 Y19.104
G00 F3000 Z3.000
G00 F3000 X56.152 Y19.104
G00 F1500 Z0
G01 F480 Z-0.200
G01 F480 X55.921 Y19.055
G01 F480 X55.706 Y18.959
G01 F480 X55.516 Y18.820
G01 F480 X55.358 Y18.645
G01 F480 X55.240 Y18.441
G01 F480 X55.168 Y18.217
G01 F480 X55.143 Y17.983
G01 F480 X55.168 Y17.749
G01 F480 X55.240 Y17.525
G01 F480 X55.358 Y17.321
G01 F480 X55.516 Y17.146
G01 F480 X55.706 Y17.008
G01 F480 X55.921 Y16.912
G01 F480 X56.152 Y16.863
G01 F480 X56.387 Y16.863
G01 F480 X56.618 Y16.912
G01 F480 X56.833 Y17.008
G01 F480 X57.023 Y17.146
G01 F480 X57.181 Y17.321
G01 F480 X57.299 Y17.525
G01 F480 X57.371 Y17.749
G01 F480 X57.396 Y17.983
G01 F480 X57.371 Y18.217
G01 F480 X57.299 Y18.441
G01 F480 X57.181 Y18.645
G01 F480 X57.023 Y18.820
G01 F480 X56.833 Y18.959
G01 F480 X56.618 Y19.055
G01 F480 X56.387 Y19.104
G01 F480 X56.152 Y19.104
G00 F3000 Z3.000
G00 F3000 X35.833 Y14.011
G00 F1500 Z0
G01 F480 Z-0.200
G01 F480 X35.605 Y13.962
G01 F480 X35.393 Y13.868
G01 F480 X35.204 Y13.731
G01 F480 X35.048 Y13.558
G01 F480 X34.932 Y13.356
G01 F480 X34.860 Y13.135
G01 F480 X34.836 Y12.903
G01 F480 X34.860 Y12.672
G01 F480 X34.932 Y12.450
G01 F480 X35.048 Y12.249
G01 F480 X35.204 Y12.075
G01 F480 X35.393 Y11.939
G01 F480 X35.605 Y11.844
G01 F480 X35.833 Y11.796
G01 F480 X36.066 Y11.796
G01 F480 X36.294 Y11.844
G01 F480 X36.506 Y11.939
G01 F480 X36.695 Y12.075
G01 F480 X36.851 Y12.249
G01 F480 X36.967 Y12.450
G01 F480 X37.039 Y12.672
G01 F480 X37.063 Y12.903
G01 F480 X37.039 Y13.135
G01 F480 X36.967 Y13.356
G01 F480 X36.851 Y13.558
G01 F480 X36.695 Y13.731
G01 F480 X36.506 Y13.868
G01 F480 X36.294 Y13.962
G01 F480 X36.066 Y14.011
G01 F480 X35.833 Y14.011
G00 F3000 Z3.000
G00 F3000 X7.893 Y14.011
G00 F1500 Z0
G01 F480 Z-0.200
G01 F480 X7.665 Y13.962
G01 F480 X7.453 Y13.868
G01 F480 X7.264 Y13.731
G01 F480 X7.108 Y13.558
G01 F480 X6.992 Y13.356
G01 F480 X6.920 Y13.135
G01 F480 X6.896 Y12.903
G01 F480 X6.920 Y12.672
G01 F480 X6.992 Y12.450
G01 F480 X7.108 Y12.249
G01 F480 X7.264 Y12.075
G01 F480 X7.453 Y11.939
G01 F480 X7.665 Y11.844
G01 F480 X7.893 Y11.796
G01 F480 X8.126 Y11.796
G01 F480 X8.354 Y11.844
G01 F480 X8.566 Y11.939
G01 F480 X8.755 Y12.075
G01 F480 X8.911 Y12.249
G01 F480 X9.027 Y12.450
G01 F480 X9.099 Y12.672
G01 F480 X9.123 Y12.903
G01 F480 X9.099 Y13.135
G01 F480 X9.027 Y13.356
G01 F480 X8.911 Y13.558
G01 F480 X8.755 Y13.731
G01 F480 X8.566 Y13.868
G01 F480 X8.354 Y13.962
G01 F480 X8.126 Y14.011
G01 F480 X7.893 Y14.011
G00 F3000 Z3.000
G00 F3000 X25.673 Y14.011
G00 F1500 Z0
G01 F480 Z-0.200
G01 F480 X25.445 Y13.962
G01 F480 X25.233 Y13.868
G01 F480 X25.044 Y13.731
G01 F480 X24.888 Y13.558
G01 F480 X24.772 Y13.356
G01 F480 X24.700 Y13.135
G01 F480 X24.676 Y12.903
G01 F480 X24.700 Y12.672
G01 F480 X24.772 Y12.450
G01 F480 X24.888 Y12.249
G01 F480 X25.044 Y12.075
G01 F480 X25.233 Y11.939
G01 F480 X25.445 Y11.844
G01 F480 X25.673 Y11.796
G01 F480 X25.906 Y11.796
G01 F480 X26.134 Y11.844
G01 F480 X26.346 Y11.939
G01 F480 X26.535 Y12.075
G01 F480 X26.691 Y12.249
G01 F480 X26.807 Y12.450
G01 F480 X26.879 Y12.672
G01 F480 X26.903 Y12.903
G01 F480 X26.879 Y13.135
G01 F480 X26.807 Y13.356
G01 F480 X26.691 Y13.558
G01 F480 X26.535 Y13.731
G01 F480 X26.346 Y13.868
G01 F480 X26.134 Y13.962
G01 F480 X25.906 Y14.011
G01 F480 X25.673 Y14.011
G00 F3000 Z3.000
G00 F3000 X18.053 Y14.011
G00 F1500 Z0
G01 F480 Z-0.200
G01 F480 X17.825 Y13.962
G01 F480 X17.613 Y13.868
G01 F480 X17.424 Y13.731
G01 F480 X17.268 Y13.558
G01 F480 X17.152 Y13.356
G01 F480 X17.080 Y13.135
G01 F480 X17.056 Y12.903
G01 F480 X17.080 Y12.672
G01 F480 X17.152 Y12.450
G01 F480 X17.268 Y12.249
G01 F480 X17.424 Y12.075
G01 F480 X17.613 Y11.939
G01 F480 X17.825 Y11.844
G01 F480 X18.053 Y11.796
G01 F480 X18.286 Y11.796
G01 F480 X18.514 Y11.844
G01 F480 X18.726 Y11.939
G01 F480 X18.915 Y12.075
G01 F480 X19.071 Y12.249
G01 F480 X19.187 Y12.450
G01 F480 X19.259 Y12.672
G01 F480 X19.283 Y12.903
G01 F480 X19.259 Y13.135
G01 F480 X19.187 Y13.356
G01 F480 X19.071 Y13.558
G01 F480 X18.915 Y13.731
G01 F480 X18.726 Y13.868
G01 F480 X18.514 Y13.962
G01 F480 X18.286 Y14.011
G01 F480 X18.053 Y14.011
G00 F3000 Z3.000
G00 F3000 X53.613 Y14.011
G00 F1500 Z0
G01 F480 Z-0.200
G01 F480 X53.385 Y13.962
G01 F480 X53.173 Y13.868
G01 F480 X52.984 Y13.731
G01 F480 X52.828 Y13.558
G01 F480 X52.712 Y13.356
G01 F480 X52.640 Y13.135
G01 F480 X52.616 Y12.903
G01 F480 X52.640 Y12.672
G01 F480 X52.712 Y12.450
G01 F480 X52.828 Y12.249
G01 F480 X52.984 Y12.075
G01 F480 X53.173 Y11.939
G01 F480 X53.385 Y11.844
G01 F480 X53.613 Y11.796
G01 F480 X53.846 Y11.796
G01 F480 X54.074 Y11.844
G01 F480 X54.286 Y11.939
G01 F480 X54.475 Y12.075
G01 F480 X54.631 Y12.249
G01 F480 X54.747 Y12.450
G01 F480 X54.819 Y12.672
G01 F480 X54.843 Y12.903
G01 F480 X54.819 Y13.135
G01 F480 X54.747 Y13.356
G01 F480 X54.631 Y13.558
G01 F480 X54.475 Y13.731
G01 F480 X54.286 Y13.868
G01 F480 X54.074 Y13.962
G01 F480 X53.846 Y14.011
G01 F480 X53.613 Y14.011
G00 F3000 Z3.000
G00 F3000 X43.453 Y14.011
G00 F1500 Z0
G01 F480 Z-0.200
G01 F480 X43.225 Y13.962
G01 F480 X43.013 Y13.868
G01 F480 X42.824 Y13.731
G01 F480 X42.668 Y13.558
G01 F480 X42.552 Y13.356
G01 F480 X42.480 Y13.135
G01 F480 X42.456 Y12.903
G01 F480 X42.480 Y12.672
G01 F480 X42.552 Y12.450
G01 F480 X42.668 Y12.249
G01 F480 X42.824 Y12.075
G01 F480 X43.013 Y11.939
G01 F480 X43.225 Y11.844
G01 F480 X43.453 Y11.796
G01 F480 X43.686 Y11.796
G01 F480 X43.914 Y11.844
G01 F480 X44.126 Y11.939
G01 F480 X44.315 Y12.075
G01 F480 X44.471 Y12.249
G01 F480 X44.587 Y12.450
G01 F480 X44.659 Y12.672
G01 F480 X44.683 Y12.903
G01 F480 X44.659 Y13.135
G01 F480 X44.587 Y13.356
G01 F480 X44.471 Y13.558
G01 F480 X44.315 Y13.731
G01 F480 X44.126 Y13.868
G01 F480 X43.914 Y13.962
G01 F480 X43.686 Y14.011
G01 F480 X43.453 Y14.011
G00 F3000 Z3.000
G00 F3000 X28.213 Y13.757
G00 F1500 Z0
G01 F480 Z-0.200
G01 F480 X27.985 Y13.708
G01 F480 X27.773 Y13.614
G01 F480 X27.584 Y13.477
G01 F480 X27.428 Y13.304
G01 F480 X27.312 Y13.102
G01 F480 X27.240 Y12.881
G01 F480 X27.216 Y12.649
G01 F480 X27.240 Y12.418
G01 F480 X27.312 Y12.196
G01 F480 X27.428 Y11.995
G01 F480 X27.584 Y11.822
G01 F480 X27.773 Y11.685
G01 F480 X27.985 Y11.590
G01 F480 X28.213 Y11.542
G01 F480 X28.446 Y11.542
G01 F480 X28.674 Y11.590
G01 F480 X28.886 Y11.685
G01 F480 X29.075 Y11.822
G01 F480 X29.231 Y11.995
G01 F480 X29.347 Y12.196
G01 F480 X29.419 Y12.418
G01 F480 X29.443 Y12.649
G01 F480 X29.419 Y12.881
G01 F480 X29.347 Y13.102
G01 F480 X29.231 Y13.304
G01 F480 X29.075 Y13.477
G01 F480 X28.886 Y13.614
G01 F480 X28.674 Y13.708
G01 F480 X28.446 Y13.757
G01 F480 X28.213 Y13.757
G00 F3000 Z3.000
G00 F3000 X10.433 Y13.757
G00 F1500 Z0
G01 F480 Z-0.200
G01 F480 X10.205 Y13.708
G01 F480 X9.993 Y13.614
G01 F480 X9.804 Y13.477
G01 F480 X9.648 Y13.304
G01 F480 X9.532 Y13.102
G01 F480 X9.460 Y12.881
G01 F480 X9.436 Y12.649
G01 F480 X9.460 Y12.418
G01 F480 X9.532 Y12.196
G01 F480 X9.648 Y11.995
G01 F480 X9.804 Y11.822
G01 F480 X9.993 Y11.685
G01 F480 X10.205 Y11.590
G01 F480 X10.433 Y11.542
G01 F480 X10.666 Y11.542
G01 F480 X10.894 Y11.590
G01 F480 X11.106 Y11.685
G01 F480 X11.295 Y11.822
G01 F480 X11.450 Y11.995
G01 F480 X11.567 Y12.196
G01 F480 X11.639 Y12.418
G01 F480 X11.663 Y12.649
G01 F480 X11.639 Y12.881
G01 F480 X11.567 Y13.102
G01 F480 X11.450 Y13.304
G01 F480 X11.295 Y13.477
G01 F480 X11.106 Y13.614
G01 F480 X10.894 Y13.708
G01 F480 X10.666 Y13.757
G01 F480 X10.433 Y13.757
G00 F3000 Z3.000
G00 F3000 X45.993 Y13.757
G00 F1500 Z0
G01 F480 Z-0.200
G01 F480 X45.765 Y13.708
G01 F480 X45.553 Y13.614
G01 F480 X45.364 Y13.477
G01 F480 X45.208 Y13.304
G01 F480 X45.092 Y13.102
G01 F480 X45.020 Y12.881
G01 F480 X44.996 Y12.649
G01 F480 X45.020 Y12.418
G01 F480 X45.092 Y12.196
G01 F480 X45.208 Y11.995
G01 F480 X45.364 Y11.822
G01 F480 X45.553 Y11.685
G01 F480 X45.765 Y11.590
G01 F480 X45.993 Y11.542
G01 F480 X46.226 Y11.542
G01 F480 X46.454 Y11.590
G01 F480 X46.666 Y11.685
G01 F480 X46.855 Y11.822
G01 F480 X47.011 Y11.995
G01 F480 X47.127 Y12.196
G01 F480 X47.199 Y12.418
G01 F480 X47.223 Y12.649
G01 F480 X47.199 Y12.881
G01 F480 X47.127 Y13.102
G01 F480 X47.011 Y13.304
G01 F480 X46.855 Y13.477
G01 F480 X46.666 Y13.614
G01 F480 X46.454 Y13.708
G01 F480 X46.226 Y13.757
G01 F480 X45.993 Y13.757
G00 F3000 Z3.000
G00 F3000 X33.293 Y13.757
G00 F1500 Z0
G01 F480 Z-0.200
G01 F480 X33.065 Y13.708
G01 F480 X32.853 Y13.614
G01 F480 X32.664 Y13.477
G01 F480 X32.508 Y13.304
G01 F480 X32.392 Y13.102
G01 F480 X32.320 Y12.881
G01 F480 X32.296 Y12.649
G01 F480 X32.320 Y12.418
G01 F480 X32.392 Y12.196
G01 F480 X32.508 Y11.995
G01 F480 X32.640 Y11.848
G01 F480 X32.627 Y11.719
G01 F480 X32.627 Y10.354
G01 F480 X32.643 Y10.200
G01 F480 X32.694 Y10.045
G01 F480 X32.776 Y9.903
G01 F480 X32.876 Y9.791
G01 F480 X35.455 Y7.238
G01 F480 X35.583 Y7.145
G01 F480 X35.733 Y7.078
G01 F480 X35.893 Y7.044
G01 F480 X38.579 Y7.044
G01 F480 X48.782 Y7.069
G01 F480 X48.942 Y7.103
G01 F480 X49.092 Y7.170
G01 F480 X49.221 Y7.263
G01 F480 X51.773 Y9.791
G01 F480 X51.874 Y9.903
G01 F480 X51.956 Y10.045
G01 F480 X52.007 Y10.200
G01 F480 X52.023 Y10.357
G01 F480 X51.972 Y11.863
G01 F480 X52.091 Y11.995
G01 F480 X52.207 Y12.196
G01 F480 X52.279 Y12.418
G01 F480 X52.303 Y12.649
G01 F480 X52.279 Y12.881
G01 F480 X52.207 Y13.102
G01 F480 X52.091 Y13.304
G01 F480 X51.935 Y13.477
G01 F480 X51.746 Y13.614
G01 F480 X51.534 Y13.708
G01 F480 X51.306 Y13.757
G01 F480 X51.073 Y13.757
G01 F480 X50.845 Y13.708
G01 F480 X50.633 Y13.614
G01 F480 X50.444 Y13.477
G01 F480 X50.288 Y13.304
G01 F480 X50.172 Y13.102
G01 F480 X50.100 Y12.881
G01 F480 X50.076 Y12.649
G01 F480 X50.100 Y12.418
G01 F480 X50.172 Y12.196
G01 F480 X50.288 Y11.995
G01 F480 X50.407 Y11.863
G01 F480 X50.447 Y10.678
G01 F480 X48.375 Y8.627
G01 F480 X38.451 Y8.603
G01 F480 X36.299 Y8.603
G01 F480 X34.192 Y10.689
G01 F480 X34.192 Y11.719
G01 F480 X34.178 Y11.848
G01 F480 X34.311 Y11.995
G01 F480 X34.427 Y12.196
G01 F480 X34.499 Y12.418
G01 F480 X34.523 Y12.649
G01 F480 X34.499 Y12.881
G01 F480 X34.427 Y13.102
G01 F480 X34.311 Y13.304
G01 F480 X34.155 Y13.477
G01 F480 X33.966 Y13.614
G01 F480 X33.754 Y13.708
G01 F480 X33.526 Y13.757
G01 F480 X33.293 Y13.757
G00 F3000 Z3.000
G00 F3000 Z3.000
G00 F3000 X0.000 Y0.000
M05
M30
%