( PCB drills )
( Generated by Rapid-PCB.com )
( Material Size)
( X= 72.290, Y= 100.000, Z= 1.490)
()
G00
G17
G21
G40
G49
G54
G80
G90
G94
G00 F3000 Z3.000
M03 S9000
G00 F3000 X60.985 Y5.281
G00 F1500 Z0
G01 F60 Z-2.000
G00 F3000 Z3.000
G00 F3000 X2.565 Y5.281
G00 F1500 Z0
G01 F60 Z-2.000
G00 F3000 Z3.000
G00 F3000 X60.985 Y58.621
G00 F1500 Z0
G01 F60 Z-2.000
G00 F3000 Z3.000
G00 F3000 X2.565 Y58.621
G00 F1500 Z0
G01 F60 Z-2.000
G00 F3000 Z3.000
G00 F3000 X7.645 Y58.621
G00 F1500 Z0
G01 F60 Z-2.000
G00 F3000 Z3.000
G00 F3000 X38.125 Y58.621
G00 F1500 Z0
G01 F60 Z-2.000
G00 F3000 Z3.000
G00 F3000 X35.585 Y58.621
G00 F1500 Z0
G01 F60 Z-2.000
G00 F3000 Z3.000
G00 F3000 X17.805 Y58.621
G00 F1500 Z0
G01 F60 Z-2.000
G00 F3000 Z3.000
G00 F3000 X40.665 Y56.081
G00 F1500 Z0
G01 F60 Z-2.000
G00 F3000 Z3.000
G00 F3000 X30.505 Y58.621
G00 F1500 Z0
G01 F60 Z-2.000
G00 F3000 Z3.000
G00 F3000 X12.725 Y56.081
G00 F1500 Z0
G01 F60 Z-2.000
G00 F3000 Z3.000
G00 F3000 X40.665 Y58.621
G00 F1500 Z0
G01 F60 Z-2.000
G00 F3000 Z3.000
G00 F3000 X55.905 Y56.081
G00 F1500 Z0
G01 F60 Z-2.000
G00 F3000 Z3.000
G00 F3000 X38.125 Y56.081
G00 F1500 Z0
G01 F60 Z-2.000
G00 F3000 Z3.000
G00 F3000 X53.365 Y56.081
G00 F1500 Z0
G01 F60 Z-2.000
G00 F3000 Z3.000
G00 F3000 X10.185 Y58.621
G00 F1500 Z0
G01 F60 Z-2.000
G00 F3000 Z3.000
G00 F3000 X55.905 Y58.621
G00 F1500 Z0
G01 F60 Z-2.000
G00 F3000 Z3.000
G00 F3000 X43.205 Y56.081
G00 F1500 Z0
G01 F60 Z-2.000
G00 F3000 Z3.000
G00 F3000 X25.425 Y56.081
G00 F1500 Z0
G01 F60 Z-2.000
G00 F3000 Z3.000
G00 F3000 X30.505 Y56.081
G00 F1500 Z0
G01 F60 Z-2.000
G00 F3000 Z3.000
G00 F3000 X35.585 Y56.081
G00 F1500 Z0
G01 F60 Z-2.000
G00 F3000 Z3.000
G00 F3000 X25.425 Y58.621
G00 F1500 Z0
G01 F60 Z-2.000
G00 F3000 Z3.000
G00 F3000 X50.825 Y56.081
G00 F1500 Z0
G01 F60 Z-2.000
G00 F3000 Z3.000
G00 F3000 X17.805 Y56.081
G00 F1500 Z0
G01 F60 Z-2.000
G00 F3000 Z3.000
G00 F3000 X43.205 Y58.621
G00 F1500 Z0
G01 F60 Z-2.000
G00 F3000 Z3.000
G00 F3000 X20.345 Y58.621
G00 F1500 Z0
G01 F60 Z-2.000
G00 F3000 Z3.000
G00 F3000 X10.185 Y56.081
G00 F1500 Z0
G01 F60 Z-2.000
G00 F3000 Z3.000
G00 F3000 X48.285 Y56.081
G00 F1500 Z0
G01 F60 Z-2.000
G00 F3000 Z3.000
G00 F3000 X50.825 Y58.621
G00 F1500 Z0
G01 F60 Z-2.000
G00 F3000 Z3.000
G00 F3000 X48.285 Y58.621
G00 F1500 Z0
G01 F60 Z-2.000
G00 F3000 Z3.000
G00 F3000 X22.885 Y58.621
G00 F1500 Z0
G01 F60 Z-2.000
G00 F3000 Z3.000
G00 F3000 X12.725 Y58.621
G00 F1500 Z0
G01 F60 Z-2.000
G00 F3000 Z3.000
G00 F3000 X20.345 Y56.081
G00 F1500 Z0
G01 F60 Z-2.000
G00 F3000 Z3.000
G00 F3000 X53.365 Y58.621
G00 F1500 Z0
G01 F60 Z-2.000
G00 F3000 Z3.000
G00 F3000 X7.645 Y56.081
G00 F1500 Z0
G01 F60 Z-2.000
G00 F3000 Z3.000
G00 F3000 X22.885 Y56.081
G00 F1500 Z0
G01 F60 Z-2.000
G00 F3000 Z3.000
G00 F3000 X12.725 Y12.647
G00 F1500 Z0
G01 F60 Z-2.000
G00 F3000 Z3.000
G00 F3000 X50.825 Y12.901
G00 F1500 Z0
G01 F60 Z-2.000
G00 F3000 Z3.000
G00 F3000 X7.645 Y12.647
G00 F1500 Z0
G01 F60 Z-2.000
G00 F3000 Z3.000
G00 F3000 X17.805 Y35.507
G00 F1500 Z0
G01 F60 Z-2.000
G00 F3000 Z3.000
G00 F3000 X20.345 Y12.901
G00 F1500 Z0
G01 F60 Z-2.000
G00 F3000 Z3.000
G00 F3000 X33.045 Y12.901
G00 F1500 Z0
G01 F60 Z-2.000
G00 F3000 Z3.000
G00 F3000 X35.585 Y35.507
G00 F1500 Z0
G01 F60 Z-2.000
G00 F3000 Z3.000
G00 F3000 X27.965 Y35.761
G00 F1500 Z0
G01 F60 Z-2.000
G00 F3000 Z3.000
G00 F3000 X10.185 Y35.761
G00 F1500 Z0
G01 F60 Z-2.000
G00 F3000 Z3.000
G00 F3000 X30.505 Y35.507
G00 F1500 Z0
G01 F60 Z-2.000
G00 F3000 Z3.000
G00 F3000 X43.205 Y12.647
G00 F1500 Z0
G01 F60 Z-2.000
G00 F3000 Z3.000
G00 F3000 X7.645 Y35.507
G00 F1500 Z0
G01 F60 Z-2.000
G00 F3000 Z3.000
G00 F3000 X50.825 Y35.761
G00 F1500 Z0
G01 F60 Z-2.000
G00 F3000 Z3.000
G00 F3000 X30.505 Y12.647
G00 F1500 Z0
G01 F60 Z-2.000
G00 F3000 Z3.000
G00 F3000 X35.585 Y12.647
G00 F1500 Z0
G01 F60 Z-2.000
G00 F3000 Z3.000
G00 F3000 X33.045 Y35.761
G00 F1500 Z0
G01 F60 Z-2.000
G00 F3000 Z3.000
G00 F3000 X25.425 Y35.507
G00 F1500 Z0
G01 F60 Z-2.000
G00 F3000 Z3.000
G00 F3000 X53.365 Y35.507
G00 F1500 Z0
G01 F60 Z-2.000
G00 F3000 Z3.000
G00 F3000 X38.125 Y35.761
G00 F1500 Z0
G01 F60 Z-2.000
G00 F3000 Z3.000
G00 F3000 X15.265 Y35.761
G00 F1500 Z0
G01 F60 Z-2.000
G00 F3000 Z3.000
G00 F3000 X10.185 Y12.901
G00 F1500 Z0
G01 F60 Z-2.000
G00 F3000 Z3.000
G00 F3000 X45.745 Y12.901
G00 F1500 Z0
G01 F60 Z-2.000
G00 F3000 Z3.000
G00 F3000 X38.125 Y12.901
G00 F1500 Z0
G01 F60 Z-2.000
G00 F3000 Z3.000
G00 F3000 X53.365 Y12.647
G00 F1500 Z0
G01 F60 Z-2.000
G00 F3000 Z3.000
G00 F3000 X25.425 Y12.647
G00 F1500 Z0
G01 F60 Z-2.000
G00 F3000 Z3.000
G00 F3000 X12.725 Y35.507
G00 F1500 Z0
G01 F60 Z-2.000
G00 F3000 Z3.000
G00 F3000 X15.265 Y12.901
G00 F1500 Z0
G01 F60 Z-2.000
G00 F3000 Z3.000
G00 F3000 X48.285 Y35.507
G00 F1500 Z0
G01 F60 Z-2.000
G00 F3000 Z3.000
G00 F3000 X17.805 Y12.647
G00 F1500 Z0
G01 F60 Z-2.000
G00 F3000 Z3.000
G00 F3000 X48.285 Y12.647
G00 F1500 Z0
G01 F60 Z-2.000
G00 F3000 Z3.000
G00 F3000 X20.345 Y35.761
G00 F1500 Z0
G01 F60 Z-2.000
G00 F3000 Z3.000
G00 F3000 X45.745 Y35.761
G00 F1500 Z0
G01 F60 Z-2.000
G00 F3000 Z3.000
G00 F3000 X27.965 Y12.901
G00 F1500 Z0
G01 F60 Z-2.000
G00 F3000 Z3.000
G00 F3000 X43.205 Y35.507
G00 F1500 Z0
G01 F60 Z-2.000
G00 F3000 Z3.000
G00 F3000 X55.905 Y12.901
G00 F1500 Z0
G01 F60 Z-2.000
G00 F3000 Z3.000
G00 F3000 X55.905 Y35.761
G00 F1500 Z0
G01 F60 Z-2.000
G00 F3000 Z3.000
G00 F3000 X12.725 Y17.981
G00 F1500 Z0
G01 F60 Z-2.000
G00 F3000 Z3.000
G00 F3000 X30.505 Y17.981
G00 F1500 Z0
G01 F60 Z-2.000
G00 F3000 Z3.000
G00 F3000 X58.445 Y17.981
G00 F1500 Z0
G01 F60 Z-2.000
G00 F3000 Z3.000
G00 F3000 X12.725 Y40.841
G00 F1500 Z0
G01 F60 Z-2.000
G00 F3000 Z3.000
G00 F3000 X30.505 Y40.841
G00 F1500 Z0
G01 F60 Z-2.000
G00 F3000 Z3.000
G00 F3000 X40.665 Y40.841
G00 F1500 Z0
G01 F60 Z-2.000
G00 F3000 Z3.000
G00 F3000 X48.285 Y40.841
G00 F1500 Z0
G01 F60 Z-2.000
G00 F3000 Z3.000
G00 F3000 X22.885 Y17.981
G00 F1500 Z0
G01 F60 Z-2.000
G00 F3000 Z3.000
G00 F3000 X22.885 Y40.841
G00 F1500 Z0
G01 F60 Z-2.000
G00 F3000 Z3.000
G00 F3000 X58.445 Y40.841
G00 F1500 Z0
G01 F60 Z-2.000
G00 F3000 Z3.000
G00 F3000 X40.665 Y17.981
G00 F1500 Z0
G01 F60 Z-2.000
G00 F3000 Z3.000
G00 F3000 X48.285 Y17.981
G00 F1500 Z0
G01 F60 Z-2.000
G00 F3000 Z3.000
G00 F3000 X22.885 Y25.601
G00 F1500 Z0
G01 F60 Z-2.000
G00 F3000 Z3.000
G00 F3000 X38.125 Y48.461
G00 F1500 Z0
G01 F60 Z-2.000
G00 F3000 Z3.000
G00 F3000 X30.505 Y51.001
G00 F1500 Z0
G01 F60 Z-2.000
G00 F3000 Z3.000
G00 F3000 X50.825 Y25.560
G00 F1500 Z0
G01 F60 Z-2.000
G00 F3000 Z3.000
G00 F3000 X15.265 Y25.560
G00 F1500 Z0
G01 F60 Z-2.000
G00 F3000 Z3.000
G00 F3000 X33.045 Y45.921
G00 F1500 Z0
G01 F60 Z-2.000
G00 F3000 Z3.000
G00 F3000 X15.265 Y23.061
G00 F1500 Z0
G01 F60 Z-2.000
G00 F3000 Z3.000
G00 F3000 X15.265 Y45.921
G00 F1500 Z0
G01 F60 Z-2.000
G00 F3000 Z3.000
G00 F3000 X15.265 Y48.420
G00 F1500 Z0
G01 F60 Z-2.000
G00 F3000 Z3.000
G00 F3000 X50.825 Y23.061
G00 F1500 Z0
G01 F60 Z-2.000
G00 F3000 Z3.000
G00 F3000 X50.825 Y45.921
G00 F1500 Z0
G01 F60 Z-2.000
G00 F3000 Z3.000
G00 F3000 X33.045 Y23.061
G00 F1500 Z0
G01 F60 Z-2.000
G00 F3000 Z3.000
G00 F3000 X33.045 Y48.420
G00 F1500 Z0
G01 F60 Z-2.000
G00 F3000 Z3.000
G00 F3000 X33.045 Y25.560
G00 F1500 Z0
G01 F60 Z-2.000
G00 F3000 Z3.000
G00 F3000 X50.825 Y48.420
G00 F1500 Z0
G01 F60 Z-2.000
G00 F3000 Z3.000
G00 F3000 X27.965 Y58.621
G00 F1500 Z0
G01 F60 Z-2.000
G00 F3000 Z3.000
G00 F3000 X15.265 Y56.081
G00 F1500 Z0
G01 F60 Z-2.000
G00 F3000 Z3.000
G00 F3000 X33.045 Y58.621
G00 F1500 Z0
G01 F60 Z-2.000
G00 F3000 Z3.000
G00 F3000 X15.265 Y58.621
G00 F1500 Z0
G01 F60 Z-2.000
G00 F3000 Z3.000
G00 F3000 X33.045 Y56.081
G00 F1500 Z0
G01 F60 Z-2.000
G00 F3000 Z3.000
G00 F3000 X27.965 Y56.081
G00 F1500 Z0
G01 F60 Z-2.000
G00 F3000 Z3.000
G00 F3000 X45.745 Y56.081
G00 F1500 Z0
G01 F60 Z-2.000
G00 F3000 Z3.000
G00 F3000 X45.745 Y58.621
G00 F1500 Z0
G01 F60 Z-2.000
G00 F3000 Z3.000
G00 F3000 Z3.000
G00 F3000 X0.000 Y0.000
M05
M30
%