( PCB Contour )
( Generated by Rapid-PCB.com )
( Material Size)
( X= 72.290, Y= 100.000, Z= 1.490)
()
G00
G17
G21
G40
G49
G54
G80
G90
G94
G00 F3000 Z3.000
M03 S9000
G00 F3000 X15.148 Y59.740
G00 F1500 Z0
G01 F480 Z-0.200
G01 F480 X14.918 Y59.691
G01 F480 X14.704 Y59.595
G01 F480 X14.514 Y59.457
G01 F480 X14.357 Y59.283
G01 F480 X14.240 Y59.080
G01 F480 X14.167 Y58.857
G01 F480 X14.143 Y58.623
G01 F480 X14.167 Y58.390
G01 F480 X14.240 Y58.167
G01 F480 X14.357 Y57.963
G01 F480 X14.514 Y57.789
G01 F480 X14.704 Y57.651
G01 F480 X14.918 Y57.556
G01 F480 X15.148 Y57.507
G01 F480 X15.383 Y57.507
G01 F480 X15.612 Y57.556
G01 F480 X15.827 Y57.651
G01 F480 X16.017 Y57.789
G01 F480 X16.174 Y57.963
G01 F480 X16.291 Y58.167
G01 F480 X16.363 Y58.390
G01 F480 X16.388 Y58.623
G01 F480 X16.363 Y58.857
G01 F480 X16.291 Y59.080
G01 F480 X16.174 Y59.283
G01 F480 X16.017 Y59.457
G01 F480 X15.827 Y59.595
G01 F480 X15.612 Y59.691
G01 F480 X15.383 Y59.740
G01 F480 X15.148 Y59.740
G00 F3000 Z3.000
G00 F3000 X32.928 Y59.740
G00 F1500 Z0
G01 F480 Z-0.200
G01 F480 X32.699 Y59.691
G01 F480 X32.484 Y59.595
G01 F480 X32.294 Y59.457
G01 F480 X32.137 Y59.283
G01 F480 X32.020 Y59.080
G01 F480 X31.947 Y58.857
G01 F480 X31.923 Y58.623
G01 F480 X31.947 Y58.390
G01 F480 X32.020 Y58.167
G01 F480 X32.137 Y57.963
G01 F480 X32.294 Y57.789
G01 F480 X32.484 Y57.651
G01 F480 X32.699 Y57.556
G01 F480 X32.928 Y57.507
G01 F480 X33.163 Y57.507
G01 F480 X33.392 Y57.556
G01 F480 X33.607 Y57.651
G01 F480 X33.797 Y57.789
G01 F480 X33.954 Y57.963
G01 F480 X34.071 Y58.167
G01 F480 X34.143 Y58.390
G01 F480 X34.168 Y58.623
G01 F480 X34.143 Y58.857
G01 F480 X34.071 Y59.080
G01 F480 X33.954 Y59.283
G01 F480 X33.797 Y59.457
G01 F480 X33.607 Y59.595
G01 F480 X33.392 Y59.691
G01 F480 X33.163 Y59.740
G01 F480 X32.928 Y59.740
G00 F3000 Z3.000
G00 F3000 X27.848 Y59.740
G00 F1500 Z0
G01 F480 Z-0.200
G01 F480 X27.619 Y59.691
G01 F480 X27.404 Y59.595
G01 F480 X27.214 Y59.457
G01 F480 X27.057 Y59.283
G01 F480 X26.940 Y59.080
G01 F480 X26.867 Y58.857
G01 F480 X26.843 Y58.623
G01 F480 X26.867 Y58.390
G01 F480 X26.940 Y58.167
G01 F480 X27.057 Y57.963
G01 F480 X27.214 Y57.789
G01 F480 X27.404 Y57.651
G01 F480 X27.619 Y57.556
G01 F480 X27.848 Y57.507
G01 F480 X28.083 Y57.507
G01 F480 X28.312 Y57.556
G01 F480 X28.527 Y57.651
G01 F480 X28.717 Y57.789
G01 F480 X28.874 Y57.963
G01 F480 X28.991 Y58.167
G01 F480 X29.063 Y58.390
G01 F480 X29.088 Y58.623
G01 F480 X29.063 Y58.857
G01 F480 X28.991 Y59.080
G01 F480 X28.874 Y59.283
G01 F480 X28.717 Y59.457
G01 F480 X28.527 Y59.595
G01 F480 X28.312 Y59.691
G01 F480 X28.083 Y59.740
G01 F480 X27.848 Y59.740
G00 F3000 Z3.000
G00 F3000 X45.628 Y59.740
G00 F1500 Z0
G01 F480 Z-0.200
G01 F480 X45.399 Y59.691
G01 F480 X45.184 Y59.595
G01 F480 X44.994 Y59.457
G01 F480 X44.837 Y59.283
G01 F480 X44.720 Y59.080
G01 F480 X44.647 Y58.857
G01 F480 X44.623 Y58.623
G01 F480 X44.647 Y58.390
G01 F480 X44.720 Y58.167
G01 F480 X44.837 Y57.963
G01 F480 X44.994 Y57.789
G01 F480 X45.184 Y57.651
G01 F480 X45.399 Y57.556
G01 F480 X45.628 Y57.507
G01 F480 X45.863 Y57.507
G01 F480 X46.092 Y57.556
G01 F480 X46.307 Y57.651
G01 F480 X46.497 Y57.789
G01 F480 X46.654 Y57.963
G01 F480 X46.771 Y58.167
G01 F480 X46.843 Y58.390
G01 F480 X46.868 Y58.623
G01 F480 X46.843 Y58.857
G01 F480 X46.771 Y59.080
G01 F480 X46.654 Y59.283
G01 F480 X46.497 Y59.457
G01 F480 X46.307 Y59.595
G01 F480 X46.092 Y59.691
G01 F480 X45.863 Y59.740
G01 F480 X45.628 Y59.740
G00 F3000 Z3.000
G00 F3000 X12.608 Y59.739
G00 F1500 Z0
G01 F480 Z-0.200
G01 F480 X12.379 Y59.691
G01 F480 X12.164 Y59.595
G01 F480 X11.975 Y59.457
G01 F480 X11.818 Y59.283
G01 F480 X11.700 Y59.080
G01 F480 X11.628 Y58.857
G01 F480 X11.603 Y58.623
G01 F480 X11.628 Y58.390
G01 F480 X11.700 Y58.167
G01 F480 X11.818 Y57.964
G01 F480 X11.975 Y57.789
G01 F480 X12.164 Y57.651
G01 F480 X12.379 Y57.556
G01 F480 X12.608 Y57.507
G01 F480 X12.843 Y57.507
G01 F480 X13.072 Y57.556
G01 F480 X13.287 Y57.651
G01 F480 X13.476 Y57.789
G01 F480 X13.633 Y57.964
G01 F480 X13.751 Y58.167
G01 F480 X13.823 Y58.390
G01 F480 X13.848 Y58.623
G01 F480 X13.823 Y58.857
G01 F480 X13.751 Y59.080
G01 F480 X13.633 Y59.283
G01 F480 X13.476 Y59.457
G01 F480 X13.287 Y59.595
G01 F480 X13.072 Y59.691
G01 F480 X12.843 Y59.739
G01 F480 X12.608 Y59.739
G00 F3000 Z3.000
G00 F3000 X10.068 Y59.739
G00 F1500 Z0
G01 F480 Z-0.200
G01 F480 X9.839 Y59.691
G01 F480 X9.624 Y59.595
G01 F480 X9.434 Y59.457
G01 F480 X9.277 Y59.283
G01 F480 X9.160 Y59.080
G01 F480 X9.088 Y58.857
G01 F480 X9.063 Y58.623
G01 F480 X9.088 Y58.390
G01 F480 X9.160 Y58.167
G01 F480 X9.277 Y57.964
G01 F480 X9.434 Y57.789
G01 F480 X9.624 Y57.651
G01 F480 X9.839 Y57.556
G01 F480 X10.068 Y57.507
G01 F480 X10.303 Y57.507
G01 F480 X10.532 Y57.556
G01 F480 X10.747 Y57.651
G01 F480 X10.936 Y57.789
G01 F480 X11.093 Y57.964
G01 F480 X11.211 Y58.167
G01 F480 X11.283 Y58.390
G01 F480 X11.308 Y58.623
G01 F480 X11.283 Y58.857
G01 F480 X11.211 Y59.080
G01 F480 X11.093 Y59.283
G01 F480 X10.936 Y59.457
G01 F480 X10.747 Y59.595
G01 F480 X10.532 Y59.691
G01 F480 X10.303 Y59.739
G01 F480 X10.068 Y59.739
G00 F3000 Z3.000
G00 F3000 X17.688 Y59.739
G00 F1500 Z0
G01 F480 Z-0.200
G01 F480 X17.459 Y59.691
G01 F480 X17.244 Y59.595
G01 F480 X17.055 Y59.457
G01 F480 X16.898 Y59.283
G01 F480 X16.780 Y59.080
G01 F480 X16.708 Y58.857
G01 F480 X16.683 Y58.623
G01 F480 X16.708 Y58.390
G01 F480 X16.780 Y58.167
G01 F480 X16.898 Y57.964
G01 F480 X17.055 Y57.789
G01 F480 X17.244 Y57.651
G01 F480 X17.459 Y57.556
G01 F480 X17.688 Y57.507
G01 F480 X17.923 Y57.507
G01 F480 X18.152 Y57.556
G01 F480 X18.367 Y57.651
G01 F480 X18.556 Y57.789
G01 F480 X18.713 Y57.964
G01 F480 X18.831 Y58.167
G01 F480 X18.903 Y58.390
G01 F480 X18.928 Y58.623
G01 F480 X18.903 Y58.857
G01 F480 X18.831 Y59.080
G01 F480 X18.713 Y59.283
G01 F480 X18.556 Y59.457
G01 F480 X18.367 Y59.595
G01 F480 X18.152 Y59.691
G01 F480 X17.923 Y59.739
G01 F480 X17.688 Y59.739
G00 F3000 Z3.000
G00 F3000 X7.528 Y59.739
G00 F1500 Z0
G01 F480 Z-0.200
G01 F480 X7.299 Y59.691
G01 F480 X7.084 Y59.595
G01 F480 X6.895 Y59.457
G01 F480 X6.738 Y59.283
G01 F480 X6.620 Y59.080
G01 F480 X6.548 Y58.857
G01 F480 X6.523 Y58.623
G01 F480 X6.548 Y58.390
G01 F480 X6.620 Y58.167
G01 F480 X6.738 Y57.964
G01 F480 X6.895 Y57.789
G01 F480 X7.084 Y57.651
G01 F480 X7.299 Y57.556
G01 F480 X7.528 Y57.507
G01 F480 X7.763 Y57.507
G01 F480 X7.992 Y57.556
G01 F480 X8.207 Y57.651
G01 F480 X8.396 Y57.789
G01 F480 X8.553 Y57.964
G01 F480 X8.671 Y58.167
G01 F480 X8.743 Y58.390
G01 F480 X8.768 Y58.623
G01 F480 X8.743 Y58.857
G01 F480 X8.671 Y59.080
G01 F480 X8.553 Y59.283
G01 F480 X8.396 Y59.457
G01 F480 X8.207 Y59.595
G01 F480 X7.992 Y59.691
G01 F480 X7.763 Y59.739
G01 F480 X7.528 Y59.739
G00 F3000 Z3.000
G00 F3000 X30.388 Y59.739
G00 F1500 Z0
G01 F480 Z-0.200
G01 F480 X30.159 Y59.691
G01 F480 X29.944 Y59.595
G01 F480 X29.755 Y59.457
G01 F480 X29.598 Y59.283
G01 F480 X29.480 Y59.080
G01 F480 X29.408 Y58.857
G01 F480 X29.383 Y58.623
G01 F480 X29.408 Y58.390
G01 F480 X29.480 Y58.167
G01 F480 X29.598 Y57.964
G01 F480 X29.755 Y57.789
G01 F480 X29.944 Y57.651
G01 F480 X30.159 Y57.556
G01 F480 X30.388 Y57.507
G01 F480 X30.623 Y57.507
G01 F480 X30.852 Y57.556
G01 F480 X31.067 Y57.651
G01 F480 X31.256 Y57.789
G01 F480 X31.413 Y57.964
G01 F480 X31.531 Y58.167
G01 F480 X31.603 Y58.390
G01 F480 X31.628 Y58.623
G01 F480 X31.603 Y58.857
G01 F480 X31.531 Y59.080
G01 F480 X31.413 Y59.283
G01 F480 X31.256 Y59.457
G01 F480 X31.067 Y59.595
G01 F480 X30.852 Y59.691
G01 F480 X30.623 Y59.739
G01 F480 X30.388 Y59.739
G00 F3000 Z3.000
G00 F3000 X38.008 Y59.739
G00 F1500 Z0
G01 F480 Z-0.200
G01 F480 X37.779 Y59.691
G01 F480 X37.564 Y59.595
G01 F480 X37.375 Y59.457
G01 F480 X37.218 Y59.283
G01 F480 X37.100 Y59.080
G01 F480 X37.028 Y58.857
G01 F480 X37.003 Y58.623
G01 F480 X37.028 Y58.390
G01 F480 X37.100 Y58.167
G01 F480 X37.218 Y57.964
G01 F480 X37.375 Y57.789
G01 F480 X37.564 Y57.651
G01 F480 X37.779 Y57.556
G01 F480 X38.008 Y57.507
G01 F480 X38.243 Y57.507
G01 F480 X38.472 Y57.556
G01 F480 X38.687 Y57.651
G01 F480 X38.876 Y57.789
G01 F480 X39.033 Y57.964
G01 F480 X39.151 Y58.167
G01 F480 X39.223 Y58.390
G01 F480 X39.248 Y58.623
G01 F480 X39.223 Y58.857
G01 F480 X39.151 Y59.080
G01 F480 X39.033 Y59.283
G01 F480 X38.876 Y59.457
G01 F480 X38.687 Y59.595
G01 F480 X38.472 Y59.691
G01 F480 X38.243 Y59.739
G01 F480 X38.008 Y59.739
G00 F3000 Z3.000
G00 F3000 X35.468 Y59.739
G00 F1500 Z0
G01 F480 Z-0.200
G01 F480 X35.239 Y59.691
G01 F480 X35.024 Y59.595
G01 F480 X34.834 Y59.457
G01 F480 X34.678 Y59.283
G01 F480 X34.560 Y59.080
G01 F480 X34.488 Y58.857
G01 F480 X34.463 Y58.623
G01 F480 X34.488 Y58.390
G01 F480 X34.560 Y58.167
G01 F480 X34.678 Y57.964
G01 F480 X34.834 Y57.789
G01 F480 X35.024 Y57.651
G01 F480 X35.239 Y57.556
G01 F480 X35.468 Y57.507
G01 F480 X35.703 Y57.507
G01 F480 X35.932 Y57.556
G01 F480 X36.147 Y57.651
G01 F480 X36.336 Y57.789
G01 F480 X36.493 Y57.964
G01 F480 X36.611 Y58.167
G01 F480 X36.683 Y58.390
G01 F480 X36.708 Y58.623
G01 F480 X36.683 Y58.857
G01 F480 X36.611 Y59.080
G01 F480 X36.493 Y59.283
G01 F480 X36.336 Y59.457
G01 F480 X36.147 Y59.595
G01 F480 X35.932 Y59.691
G01 F480 X35.703 Y59.739
G01 F480 X35.468 Y59.739
G00 F3000 Z3.000
G00 F3000 X22.768 Y59.739
G00 F1500 Z0
G01 F480 Z-0.200
G01 F480 X22.539 Y59.691
G01 F480 X22.324 Y59.595
G01 F480 X22.135 Y59.457
G01 F480 X21.978 Y59.283
G01 F480 X21.860 Y59.080
G01 F480 X21.788 Y58.857
G01 F480 X21.763 Y58.623
G01 F480 X21.788 Y58.390
G01 F480 X21.860 Y58.167
G01 F480 X21.978 Y57.964
G01 F480 X22.135 Y57.789
G01 F480 X22.324 Y57.651
G01 F480 X22.539 Y57.556
G01 F480 X22.768 Y57.507
G01 F480 X23.003 Y57.507
G01 F480 X23.232 Y57.556
G01 F480 X23.447 Y57.651
G01 F480 X23.636 Y57.789
G01 F480 X23.793 Y57.964
G01 F480 X23.911 Y58.167
G01 F480 X23.983 Y58.390
G01 F480 X24.008 Y58.623
G01 F480 X23.983 Y58.857
G01 F480 X23.911 Y59.080
G01 F480 X23.793 Y59.283
G01 F480 X23.636 Y59.457
G01 F480 X23.447 Y59.595
G01 F480 X23.232 Y59.691
G01 F480 X23.003 Y59.739
G01 F480 X22.768 Y59.739
G00 F3000 Z3.000
G00 F3000 X20.228 Y59.739
G00 F1500 Z0
G01 F480 Z-0.200
G01 F480 X19.999 Y59.691
G01 F480 X19.784 Y59.595
G01 F480 X19.595 Y59.457
G01 F480 X19.438 Y59.283
G01 F480 X19.320 Y59.080
G01 F480 X19.248 Y58.857
G01 F480 X19.223 Y58.623
G01 F480 X19.248 Y58.390
G01 F480 X19.320 Y58.167
G01 F480 X19.438 Y57.964
G01 F480 X19.595 Y57.789
G01 F480 X19.784 Y57.651
G01 F480 X19.999 Y57.556
G01 F480 X20.228 Y57.507
G01 F480 X20.463 Y57.507
G01 F480 X20.692 Y57.556
G01 F480 X20.907 Y57.651
G01 F480 X21.096 Y57.789
G01 F480 X21.253 Y57.964
G01 F480 X21.371 Y58.167
G01 F480 X21.443 Y58.390
G01 F480 X21.468 Y58.623
G01 F480 X21.443 Y58.857
G01 F480 X21.371 Y59.080
G01 F480 X21.253 Y59.283
G01 F480 X21.096 Y59.457
G01 F480 X20.907 Y59.595
G01 F480 X20.692 Y59.691
G01 F480 X20.463 Y59.739
G01 F480 X20.228 Y59.739
G00 F3000 Z3.000
G00 F3000 X25.308 Y59.739
G00 F1500 Z0
G01 F480 Z-0.200
G01 F480 X25.079 Y59.691
G01 F480 X24.864 Y59.595
G01 F480 X24.675 Y59.457
G01 F480 X24.518 Y59.283
G01 F480 X24.400 Y59.080
G01 F480 X24.328 Y58.857
G01 F480 X24.303 Y58.623
G01 F480 X24.328 Y58.390
G01 F480 X24.400 Y58.167
G01 F480 X24.518 Y57.964
G01 F480 X24.675 Y57.789
G01 F480 X24.864 Y57.651
G01 F480 X25.079 Y57.556
G01 F480 X25.308 Y57.507
G01 F480 X25.543 Y57.507
G01 F480 X25.772 Y57.556
G01 F480 X25.986 Y57.651
G01 F480 X26.176 Y57.789
G01 F480 X26.333 Y57.964
G01 F480 X26.451 Y58.167
G01 F480 X26.523 Y58.390
G01 F480 X26.548 Y58.623
G01 F480 X26.523 Y58.857
G01 F480 X26.451 Y59.080
G01 F480 X26.333 Y59.283
G01 F480 X26.176 Y59.457
G01 F480 X25.986 Y59.595
G01 F480 X25.772 Y59.691
G01 F480 X25.543 Y59.739
G01 F480 X25.308 Y59.739
G00 F3000 Z3.000
G00 F3000 X53.248 Y59.739
G00 F1500 Z0
G01 F480 Z-0.200
G01 F480 X53.019 Y59.691
G01 F480 X52.804 Y59.595
G01 F480 X52.614 Y59.457
G01 F480 X52.458 Y59.283
G01 F480 X52.340 Y59.080
G01 F480 X52.268 Y58.857
G01 F480 X52.243 Y58.623
G01 F480 X52.268 Y58.390
G01 F480 X52.340 Y58.167
G01 F480 X52.458 Y57.964
G01 F480 X52.614 Y57.789
G01 F480 X52.804 Y57.651
G01 F480 X53.019 Y57.556
G01 F480 X53.248 Y57.507
G01 F480 X53.483 Y57.507
G01 F480 X53.712 Y57.556
G01 F480 X53.927 Y57.651
G01 F480 X54.116 Y57.789
G01 F480 X54.273 Y57.964
G01 F480 X54.391 Y58.167
G01 F480 X54.463 Y58.390
G01 F480 X54.488 Y58.623
G01 F480 X54.463 Y58.857
G01 F480 X54.391 Y59.080
G01 F480 X54.273 Y59.283
G01 F480 X54.116 Y59.457
G01 F480 X53.927 Y59.595
G01 F480 X53.712 Y59.691
G01 F480 X53.483 Y59.739
G01 F480 X53.248 Y59.739
G00 F3000 Z3.000
G00 F3000 X50.708 Y59.739
G00 F1500 Z0
G01 F480 Z-0.200
G01 F480 X50.479 Y59.691
G01 F480 X50.264 Y59.595
G01 F480 X50.075 Y59.457
G01 F480 X49.918 Y59.283
G01 F480 X49.800 Y59.080
G01 F480 X49.728 Y58.857
G01 F480 X49.703 Y58.623
G01 F480 X49.728 Y58.390
G01 F480 X49.800 Y58.167
G01 F480 X49.918 Y57.964
G01 F480 X50.075 Y57.789
G01 F480 X50.264 Y57.651
G01 F480 X50.479 Y57.556
G01 F480 X50.708 Y57.507
G01 F480 X50.943 Y57.507
G01 F480 X51.172 Y57.556
G01 F480 X51.387 Y57.651
G01 F480 X51.576 Y57.789
G01 F480 X51.733 Y57.964
G01 F480 X51.851 Y58.167
G01 F480 X51.923 Y58.390
G01 F480 X51.948 Y58.623
G01 F480 X51.923 Y58.857
G01 F480 X51.851 Y59.080
G01 F480 X51.733 Y59.283
G01 F480 X51.576 Y59.457
G01 F480 X51.387 Y59.595
G01 F480 X51.172 Y59.691
G01 F480 X50.943 Y59.739
G01 F480 X50.708 Y59.739
G00 F3000 Z3.000
G00 F3000 X55.788 Y59.739
G00 F1500 Z0
G01 F480 Z-0.200
G01 F480 X55.559 Y59.691
G01 F480 X55.344 Y59.595
G01 F480 X55.155 Y59.457
G01 F480 X54.998 Y59.283
G01 F480 X54.880 Y59.080
G01 F480 X54.808 Y58.857
G01 F480 X54.783 Y58.623
G01 F480 X54.808 Y58.390
G01 F480 X54.880 Y58.167
G01 F480 X54.998 Y57.964
G01 F480 X55.155 Y57.789
G01 F480 X55.344 Y57.651
G01 F480 X55.559 Y57.556
G01 F480 X55.788 Y57.507
G01 F480 X56.023 Y57.507
G01 F480 X56.252 Y57.556
G01 F480 X56.467 Y57.651
G01 F480 X56.656 Y57.789
G01 F480 X56.813 Y57.964
G01 F480 X56.931 Y58.167
G01 F480 X57.003 Y58.390
G01 F480 X57.028 Y58.623
G01 F480 X57.003 Y58.857
G01 F480 X56.931 Y59.080
G01 F480 X56.813 Y59.283
G01 F480 X56.656 Y59.457
G01 F480 X56.467 Y59.595
G01 F480 X56.252 Y59.691
G01 F480 X56.023 Y59.739
G01 F480 X55.788 Y59.739
G00 F3000 Z3.000
G00 F3000 X43.088 Y59.739
G00 F1500 Z0
G01 F480 Z-0.200
G01 F480 X42.859 Y59.691
G01 F480 X42.644 Y59.595
G01 F480 X42.455 Y59.457
G01 F480 X42.297 Y59.283
G01 F480 X42.180 Y59.080
G01 F480 X42.108 Y58.857
G01 F480 X42.083 Y58.623
G01 F480 X42.108 Y58.390
G01 F480 X42.180 Y58.167
G01 F480 X42.297 Y57.964
G01 F480 X42.455 Y57.789
G01 F480 X42.644 Y57.651
G01 F480 X42.859 Y57.556
G01 F480 X43.088 Y57.507
G01 F480 X43.323 Y57.507
G01 F480 X43.552 Y57.556
G01 F480 X43.767 Y57.651
G01 F480 X43.956 Y57.789
G01 F480 X44.113 Y57.964
G01 F480 X44.231 Y58.167
G01 F480 X44.303 Y58.390
G01 F480 X44.328 Y58.623
G01 F480 X44.303 Y58.857
G01 F480 X44.231 Y59.080
G01 F480 X44.113 Y59.283
G01 F480 X43.956 Y59.457
G01 F480 X43.767 Y59.595
G01 F480 X43.552 Y59.691
G01 F480 X43.323 Y59.739
G01 F480 X43.088 Y59.739
G00 F3000 Z3.000
G00 F3000 X40.548 Y59.739
G00 F1500 Z0
G01 F480 Z-0.200
G01 F480 X40.319 Y59.691
G01 F480 X40.104 Y59.595
G01 F480 X39.915 Y59.457
G01 F480 X39.758 Y59.283
G01 F480 X39.640 Y59.080
G01 F480 X39.568 Y58.857
G01 F480 X39.543 Y58.623
G01 F480 X39.568 Y58.390
G01 F480 X39.640 Y58.167
G01 F480 X39.758 Y57.964
G01 F480 X39.915 Y57.789
G01 F480 X40.104 Y57.651
G01 F480 X40.319 Y57.556
G01 F480 X40.548 Y57.507
G01 F480 X40.783 Y57.507
G01 F480 X41.012 Y57.556
G01 F480 X41.227 Y57.651
G01 F480 X41.416 Y57.789
G01 F480 X41.573 Y57.964
G01 F480 X41.691 Y58.167
G01 F480 X41.763 Y58.390
G01 F480 X41.788 Y58.623
G01 F480 X41.763 Y58.857
G01 F480 X41.691 Y59.080
G01 F480 X41.573 Y59.283
G01 F480 X41.416 Y59.457
G01 F480 X41.227 Y59.595
G01 F480 X41.012 Y59.691
G01 F480 X40.783 Y59.739
G01 F480 X40.548 Y59.739
G00 F3000 Z3.000
G00 F3000 X48.168 Y59.739
G00 F1500 Z0
G01 F480 Z-0.200
G01 F480 X47.939 Y59.691
G01 F480 X47.724 Y59.595
G01 F480 X47.535 Y59.457
G01 F480 X47.378 Y59.283
G01 F480 X47.260 Y59.080
G01 F480 X47.188 Y58.857
G01 F480 X47.163 Y58.623
G01 F480 X47.188 Y58.390
G01 F480 X47.260 Y58.167
G01 F480 X47.378 Y57.964
G01 F480 X47.535 Y57.789
G01 F480 X47.724 Y57.651
G01 F480 X47.939 Y57.556
G01 F480 X48.168 Y57.507
G01 F480 X48.403 Y57.507
G01 F480 X48.632 Y57.556
G01 F480 X48.846 Y57.651
G01 F480 X49.036 Y57.789
G01 F480 X49.193 Y57.964
G01 F480 X49.311 Y58.167
G01 F480 X49.383 Y58.390
G01 F480 X49.408 Y58.623
G01 F480 X49.383 Y58.857
G01 F480 X49.311 Y59.080
G01 F480 X49.193 Y59.283
G01 F480 X49.036 Y59.457
G01 F480 X48.846 Y59.595
G01 F480 X48.632 Y59.691
G01 F480 X48.403 Y59.739
G01 F480 X48.168 Y59.739
G00 F3000 Z3.000
G00 F3000 X45.628 Y57.200
G00 F1500 Z0
G01 F480 Z-0.200
G01 F480 X45.399 Y57.151
G01 F480 X45.184 Y57.055
G01 F480 X44.994 Y56.917
G01 F480 X44.837 Y56.743
G01 F480 X44.720 Y56.540
G01 F480 X44.647 Y56.317
G01 F480 X44.623 Y56.083
G01 F480 X44.647 Y55.850
G01 F480 X44.720 Y55.627
G01 F480 X44.837 Y55.423
G01 F480 X44.994 Y55.249
G01 F480 X45.184 Y55.111
G01 F480 X45.399 Y55.016
G01 F480 X45.628 Y54.967
G01 F480 X45.863 Y54.967
G01 F480 X46.092 Y55.016
G01 F480 X46.307 Y55.111
G01 F480 X46.497 Y55.249
G01 F480 X46.654 Y55.423
G01 F480 X46.771 Y55.627
G01 F480 X46.843 Y55.850
G01 F480 X46.868 Y56.083
G01 F480 X46.843 Y56.317
G01 F480 X46.771 Y56.540
G01 F480 X46.654 Y56.743
G01 F480 X46.497 Y56.917
G01 F480 X46.307 Y57.055
G01 F480 X46.092 Y57.151
G01 F480 X45.863 Y57.200
G01 F480 X45.628 Y57.200
G00 F3000 Z3.000
G00 F3000 X15.148 Y57.200
G00 F1500 Z0
G01 F480 Z-0.200
G01 F480 X14.918 Y57.151
G01 F480 X14.704 Y57.055
G01 F480 X14.514 Y56.917
G01 F480 X14.357 Y56.743
G01 F480 X14.240 Y56.540
G01 F480 X14.167 Y56.317
G01 F480 X14.143 Y56.083
G01 F480 X14.167 Y55.850
G01 F480 X14.240 Y55.627
G01 F480 X14.357 Y55.423
G01 F480 X14.514 Y55.249
G01 F480 X14.704 Y55.111
G01 F480 X14.918 Y55.016
G01 F480 X15.148 Y54.967
G01 F480 X15.383 Y54.967
G01 F480 X15.612 Y55.016
G01 F480 X15.827 Y55.111
G01 F480 X16.017 Y55.249
G01 F480 X16.174 Y55.423
G01 F480 X16.291 Y55.627
G01 F480 X16.363 Y55.850
G01 F480 X16.388 Y56.083
G01 F480 X16.363 Y56.317
G01 F480 X16.291 Y56.540
G01 F480 X16.174 Y56.743
G01 F480 X16.017 Y56.917
G01 F480 X15.827 Y57.055
G01 F480 X15.612 Y57.151
G01 F480 X15.383 Y57.200
G01 F480 X15.148 Y57.200
G00 F3000 Z3.000
G00 F3000 X32.928 Y57.200
G00 F1500 Z0
G01 F480 Z-0.200
G01 F480 X32.699 Y57.151
G01 F480 X32.484 Y57.055
G01 F480 X32.294 Y56.917
G01 F480 X32.137 Y56.743
G01 F480 X32.090 Y56.660
G01 F480 X31.461 Y56.660
G01 F480 X31.413 Y56.743
G01 F480 X31.256 Y56.917
G01 F480 X31.067 Y57.055
G01 F480 X30.852 Y57.151
G01 F480 X30.623 Y57.199
G01 F480 X30.388 Y57.199
G01 F480 X30.159 Y57.151
G01 F480 X29.944 Y57.055
G01 F480 X29.755 Y56.917
G01 F480 X29.598 Y56.743
G01 F480 X29.480 Y56.540
G01 F480 X29.408 Y56.317
G01 F480 X29.383 Y56.083
G01 F480 X29.408 Y55.850
G01 F480 X29.480 Y55.627
G01 F480 X29.598 Y55.424
G01 F480 X29.755 Y55.249
G01 F480 X29.944 Y55.111
G01 F480 X30.159 Y55.016
G01 F480 X30.388 Y54.967
G01 F480 X30.623 Y54.967
G01 F480 X30.852 Y55.016
G01 F480 X31.067 Y55.111
G01 F480 X31.256 Y55.249
G01 F480 X31.413 Y55.424
G01 F480 X31.461 Y55.506
G01 F480 X31.649 Y55.506
G01 F480 X25.084 Y48.947
G01 F480 X25.012 Y48.895
G01 F480 X24.931 Y48.804
G01 F480 X24.870 Y48.699
G01 F480 X24.832 Y48.584
G01 F480 X24.821 Y48.472
G01 F480 X24.821 Y40.954
G01 F480 X22.354 Y36.020
G01 F480 X22.318 Y35.909
G01 F480 X22.306 Y35.798
G01 F480 X22.306 Y26.574
G01 F480 X22.128 Y26.444
G01 F480 X21.970 Y26.268
G01 F480 X21.918 Y26.180
G01 F480 X16.238 Y26.156
G01 F480 X16.238 Y26.525
G01 F480 X14.292 Y26.525
G01 F480 X14.292 Y24.579
G01 F480 X16.238 Y24.579
G01 F480 X16.238 Y25.002
G01 F480 X21.919 Y25.025
G01 F480 X21.970 Y24.938
G01 F480 X22.128 Y24.762
G01 F480 X22.319 Y24.623
G01 F480 X22.536 Y24.527
G01 F480 X22.767 Y24.477
G01 F480 X23.004 Y24.477
G01 F480 X23.235 Y24.527
G01 F480 X23.451 Y24.623
G01 F480 X23.643 Y24.762
G01 F480 X23.801 Y24.938
G01 F480 X23.920 Y25.143
G01 F480 X23.993 Y25.368
G01 F480 X24.017 Y25.603
G01 F480 X23.993 Y25.838
G01 F480 X23.920 Y26.064
G01 F480 X23.801 Y26.268
G01 F480 X23.643 Y26.444
G01 F480 X23.465 Y26.574
G01 F480 X23.465 Y35.653
G01 F480 X25.932 Y40.587
G01 F480 X25.968 Y40.697
G01 F480 X25.979 Y40.808
G01 F480 X26.004 Y48.223
G01 F480 X32.779 Y54.998
G01 F480 X32.928 Y54.967
G01 F480 X33.163 Y54.967
G01 F480 X33.392 Y55.016
G01 F480 X33.607 Y55.111
G01 F480 X33.797 Y55.249
G01 F480 X33.954 Y55.423
G01 F480 X34.071 Y55.627
G01 F480 X34.143 Y55.850
G01 F480 X34.168 Y56.083
G01 F480 X34.143 Y56.317
G01 F480 X34.071 Y56.540
G01 F480 X33.954 Y56.743
G01 F480 X33.797 Y56.917
G01 F480 X33.607 Y57.055
G01 F480 X33.392 Y57.151
G01 F480 X33.163 Y57.200
G01 F480 X32.928 Y57.200
G00 F3000 Z3.000
G00 F3000 X27.848 Y57.200
G00 F1500 Z0
G01 F480 Z-0.200
G01 F480 X27.619 Y57.151
G01 F480 X27.404 Y57.055
G01 F480 X27.214 Y56.917
G01 F480 X27.057 Y56.743
G01 F480 X26.940 Y56.540
G01 F480 X26.867 Y56.317
G01 F480 X26.843 Y56.083
G01 F480 X26.867 Y55.850
G01 F480 X26.940 Y55.627
G01 F480 X27.057 Y55.423
G01 F480 X27.214 Y55.249
G01 F480 X27.404 Y55.111
G01 F480 X27.619 Y55.016
G01 F480 X27.848 Y54.967
G01 F480 X28.083 Y54.967
G01 F480 X28.312 Y55.016
G01 F480 X28.527 Y55.111
G01 F480 X28.717 Y55.249
G01 F480 X28.874 Y55.423
G01 F480 X28.991 Y55.627
G01 F480 X29.063 Y55.850
G01 F480 X29.088 Y56.083
G01 F480 X29.063 Y56.317
G01 F480 X28.991 Y56.540
G01 F480 X28.874 Y56.743
G01 F480 X28.717 Y56.917
G01 F480 X28.527 Y57.055
G01 F480 X28.312 Y57.151
G01 F480 X28.083 Y57.200
G01 F480 X27.848 Y57.200
G00 F3000 Z3.000
G00 F3000 X10.068 Y57.199
G00 F1500 Z0
G01 F480 Z-0.200
G01 F480 X9.839 Y57.151
G01 F480 X9.624 Y57.055
G01 F480 X9.434 Y56.917
G01 F480 X9.277 Y56.743
G01 F480 X9.160 Y56.540
G01 F480 X9.088 Y56.317
G01 F480 X9.063 Y56.083
G01 F480 X9.088 Y55.850
G01 F480 X9.160 Y55.627
G01 F480 X9.277 Y55.424
G01 F480 X9.434 Y55.249
G01 F480 X9.624 Y55.111
G01 F480 X9.839 Y55.016
G01 F480 X10.068 Y54.967
G01 F480 X10.303 Y54.967
G01 F480 X10.532 Y55.016
G01 F480 X10.747 Y55.111
G01 F480 X10.936 Y55.249
G01 F480 X11.093 Y55.424
G01 F480 X11.211 Y55.627
G01 F480 X11.283 Y55.850
G01 F480 X11.308 Y56.083
G01 F480 X11.283 Y56.317
G01 F480 X11.211 Y56.540
G01 F480 X11.093 Y56.743
G01 F480 X10.936 Y56.917
G01 F480 X10.747 Y57.055
G01 F480 X10.532 Y57.151
G01 F480 X10.303 Y57.199
G01 F480 X10.068 Y57.199
G00 F3000 Z3.000
G00 F3000 X12.608 Y57.199
G00 F1500 Z0
G01 F480 Z-0.200
G01 F480 X12.379 Y57.151
G01 F480 X12.164 Y57.055
G01 F480 X11.975 Y56.917
G01 F480 X11.818 Y56.743
G01 F480 X11.700 Y56.540
G01 F480 X11.628 Y56.317
G01 F480 X11.603 Y56.083
G01 F480 X11.628 Y55.850
G01 F480 X11.700 Y55.627
G01 F480 X11.818 Y55.424
G01 F480 X11.975 Y55.249
G01 F480 X12.164 Y55.111
G01 F480 X12.379 Y55.016
G01 F480 X12.608 Y54.967
G01 F480 X12.843 Y54.967
G01 F480 X13.072 Y55.016
G01 F480 X13.287 Y55.111
G01 F480 X13.476 Y55.249
G01 F480 X13.633 Y55.424
G01 F480 X13.751 Y55.627
G01 F480 X13.823 Y55.850
G01 F480 X13.848 Y56.083
G01 F480 X13.823 Y56.317
G01 F480 X13.751 Y56.540
G01 F480 X13.633 Y56.743
G01 F480 X13.476 Y56.917
G01 F480 X13.287 Y57.055
G01 F480 X13.072 Y57.151
G01 F480 X12.843 Y57.199
G01 F480 X12.608 Y57.199
G00 F3000 Z3.000
G00 F3000 X7.528 Y57.199
G00 F1500 Z0
G01 F480 Z-0.200
G01 F480 X7.299 Y57.151
G01 F480 X7.084 Y57.055
G01 F480 X6.895 Y56.917
G01 F480 X6.738 Y56.743
G01 F480 X6.620 Y56.540
G01 F480 X6.548 Y56.317
G01 F480 X6.523 Y56.083
G01 F480 X6.548 Y55.850
G01 F480 X6.553 Y55.834
G01 F480 X4.733 Y54.015
G01 F480 X4.661 Y53.935
G01 F480 X4.601 Y53.830
G01 F480 X4.563 Y53.715
G01 F480 X4.551 Y53.603
G01 F480 X4.551 Y30.700
G01 F480 X4.563 Y30.588
G01 F480 X4.601 Y30.473
G01 F480 X4.661 Y30.367
G01 F480 X4.734 Y30.287
G01 F480 X7.287 Y27.760
G01 F480 X7.381 Y27.691
G01 F480 X7.492 Y27.642
G01 F480 X7.610 Y27.617
G01 F480 X12.146 Y27.617
G01 F480 X12.146 Y18.947
G01 F480 X11.972 Y18.820
G01 F480 X11.814 Y18.645
G01 F480 X11.696 Y18.441
G01 F480 X11.624 Y18.217
G01 F480 X11.599 Y17.983
G01 F480 X11.624 Y17.749
G01 F480 X11.696 Y17.525
G01 F480 X11.814 Y17.321
G01 F480 X11.972 Y17.146
G01 F480 X11.985 Y17.137
G01 F480 X12.017 Y17.036
G01 F480 X12.078 Y16.931
G01 F480 X12.146 Y16.855
G01 F480 X12.146 Y13.597
G01 F480 X11.980 Y13.477
G01 F480 X11.824 Y13.304
G01 F480 X11.708 Y13.102
G01 F480 X11.636 Y12.881
G01 F480 X11.612 Y12.649
G01 F480 X11.636 Y12.418
G01 F480 X11.708 Y12.196
G01 F480 X11.824 Y11.995
G01 F480 X11.980 Y11.822
G01 F480 X12.168 Y11.685
G01 F480 X12.381 Y11.590
G01 F480 X12.609 Y11.542
G01 F480 X12.842 Y11.542
G01 F480 X13.070 Y11.590
G01 F480 X13.282 Y11.685
G01 F480 X13.471 Y11.822
G01 F480 X13.626 Y11.995
G01 F480 X13.743 Y12.196
G01 F480 X13.815 Y12.418
G01 F480 X13.839 Y12.649
G01 F480 X13.815 Y12.881
G01 F480 X13.743 Y13.102
G01 F480 X13.626 Y13.304
G01 F480 X13.471 Y13.477
G01 F480 X13.305 Y13.597
G01 F480 X13.305 Y17.020
G01 F480 X13.479 Y17.146
G01 F480 X13.637 Y17.321
G01 F480 X13.755 Y17.525
G01 F480 X13.827 Y17.749
G01 F480 X13.852 Y17.983
G01 F480 X13.827 Y18.217
G01 F480 X13.755 Y18.441
G01 F480 X13.637 Y18.645
G01 F480 X13.479 Y18.820
G01 F480 X13.305 Y18.947
G01 F480 X13.305 Y34.561
G01 F480 X13.471 Y34.681
G01 F480 X13.626 Y34.855
G01 F480 X13.743 Y35.056
G01 F480 X13.815 Y35.278
G01 F480 X13.839 Y35.509
G01 F480 X13.815 Y35.741
G01 F480 X13.743 Y35.962
G01 F480 X13.626 Y36.164
G01 F480 X13.471 Y36.337
G01 F480 X13.305 Y36.457
G01 F480 X13.305 Y39.880
G01 F480 X13.479 Y40.006
G01 F480 X13.637 Y40.181
G01 F480 X13.755 Y40.385
G01 F480 X13.827 Y40.609
G01 F480 X13.852 Y40.843
G01 F480 X13.827 Y41.077
G01 F480 X13.755 Y41.301
G01 F480 X13.637 Y41.505
G01 F480 X13.479 Y41.680
G01 F480 X13.289 Y41.819
G01 F480 X13.074 Y41.915
G01 F480 X12.843 Y41.964
G01 F480 X12.608 Y41.964
G01 F480 X12.377 Y41.915
G01 F480 X12.162 Y41.819
G01 F480 X11.972 Y41.680
G01 F480 X11.814 Y41.505
G01 F480 X11.696 Y41.301
G01 F480 X11.624 Y41.077
G01 F480 X11.599 Y40.843
G01 F480 X11.624 Y40.609
G01 F480 X11.696 Y40.385
G01 F480 X11.814 Y40.181
G01 F480 X11.972 Y40.006
G01 F480 X12.146 Y39.880
G01 F480 X12.146 Y36.457
G01 F480 X11.980 Y36.337
G01 F480 X11.824 Y36.164
G01 F480 X11.708 Y35.962
G01 F480 X11.636 Y35.741
G01 F480 X11.612 Y35.509
G01 F480 X11.636 Y35.278
G01 F480 X11.708 Y35.056
G01 F480 X11.824 Y34.855
G01 F480 X11.980 Y34.681
G01 F480 X12.146 Y34.561
G01 F480 X12.146 Y28.771
G01 F480 X7.911 Y28.771
G01 F480 X5.710 Y30.950
G01 F480 X5.710 Y53.355
G01 F480 X7.358 Y55.003
G01 F480 X7.528 Y54.967
G01 F480 X7.763 Y54.967
G01 F480 X7.992 Y55.016
G01 F480 X8.207 Y55.111
G01 F480 X8.396 Y55.249
G01 F480 X8.553 Y55.424
G01 F480 X8.671 Y55.627
G01 F480 X8.743 Y55.850
G01 F480 X8.768 Y56.083
G01 F480 X8.743 Y56.317
G01 F480 X8.671 Y56.540
G01 F480 X8.553 Y56.743
G01 F480 X8.396 Y56.917
G01 F480 X8.207 Y57.055
G01 F480 X7.992 Y57.151
G01 F480 X7.763 Y57.199
G01 F480 X7.528 Y57.199
G00 F3000 Z3.000
G00 F3000 X40.548 Y57.199
G00 F1500 Z0
G01 F480 Z-0.200
G01 F480 X40.319 Y57.151
G01 F480 X40.104 Y57.055
G01 F480 X39.915 Y56.917
G01 F480 X39.758 Y56.743
G01 F480 X39.640 Y56.540
G01 F480 X39.568 Y56.317
G01 F480 X39.543 Y56.083
G01 F480 X39.568 Y55.850
G01 F480 X39.640 Y55.627
G01 F480 X39.758 Y55.424
G01 F480 X39.915 Y55.249
G01 F480 X40.104 Y55.111
G01 F480 X40.319 Y55.016
G01 F480 X40.548 Y54.967
G01 F480 X40.783 Y54.967
G01 F480 X41.012 Y55.016
G01 F480 X41.227 Y55.111
G01 F480 X41.416 Y55.249
G01 F480 X41.573 Y55.424
G01 F480 X41.691 Y55.627
G01 F480 X41.763 Y55.850
G01 F480 X41.788 Y56.083
G01 F480 X41.763 Y56.317
G01 F480 X41.691 Y56.540
G01 F480 X41.573 Y56.743
G01 F480 X41.416 Y56.917
G01 F480 X41.227 Y57.055
G01 F480 X41.012 Y57.151
G01 F480 X40.783 Y57.199
G01 F480 X40.548 Y57.199
G00 F3000 Z3.000
G00 F3000 X43.088 Y57.199
G00 F1500 Z0
G01 F480 Z-0.200
G01 F480 X42.859 Y57.151
G01 F480 X42.644 Y57.055
G01 F480 X42.455 Y56.917
G01 F480 X42.297 Y56.743
G01 F480 X42.180 Y56.540
G01 F480 X42.108 Y56.317
G01 F480 X42.083 Y56.083
G01 F480 X42.108 Y55.850
G01 F480 X42.119 Y55.815
G01 F480 X37.882 Y51.578
G01 F480 X35.524 Y51.555
G01 F480 X35.406 Y51.530
G01 F480 X35.295 Y51.480
G01 F480 X35.200 Y51.411
G01 F480 X33.232 Y49.417
G01 F480 X33.203 Y49.385
G01 F480 X32.072 Y49.385
G01 F480 X32.072 Y49.020
G01 F480 X30.549 Y49.040
G01 F480 X30.445 Y49.040
G01 F480 X30.326 Y49.015
G01 F480 X30.215 Y48.966
G01 F480 X30.121 Y48.897
G01 F480 X27.543 Y46.345
G01 F480 X27.471 Y46.264
G01 F480 X27.410 Y46.159
G01 F480 X27.372 Y46.044
G01 F480 X27.360 Y45.923
G01 F480 X27.372 Y45.802
G01 F480 X27.386 Y45.761
G01 F480 X27.386 Y40.949
G01 F480 X25.319 Y36.617
G01 F480 X25.309 Y36.617
G01 F480 X25.081 Y36.568
G01 F480 X24.869 Y36.474
G01 F480 X24.680 Y36.337
G01 F480 X24.524 Y36.164
G01 F480 X24.408 Y35.962
G01 F480 X24.336 Y35.741
G01 F480 X24.312 Y35.509
G01 F480 X24.336 Y35.278
G01 F480 X24.408 Y35.056
G01 F480 X24.524 Y34.855
G01 F480 X24.680 Y34.681
G01 F480 X24.869 Y34.545
G01 F480 X25.081 Y34.450
G01 F480 X25.309 Y34.401
G01 F480 X25.542 Y34.401
G01 F480 X25.770 Y34.450
G01 F480 X25.982 Y34.545
G01 F480 X26.171 Y34.681
G01 F480 X26.326 Y34.855
G01 F480 X26.443 Y35.056
G01 F480 X26.515 Y35.278
G01 F480 X26.539 Y35.509
G01 F480 X26.515 Y35.741
G01 F480 X26.443 Y35.962
G01 F480 X26.359 Y36.107
G01 F480 X28.498 Y40.588
G01 F480 X28.533 Y40.697
G01 F480 X28.545 Y40.809
G01 F480 X28.545 Y45.707
G01 F480 X30.741 Y47.882
G01 F480 X32.072 Y47.864
G01 F480 X32.072 Y47.439
G01 F480 X34.018 Y47.439
G01 F480 X34.018 Y48.567
G01 F480 X35.831 Y50.403
G01 F480 X38.187 Y50.426
G01 F480 X38.305 Y50.451
G01 F480 X38.416 Y50.501
G01 F480 X38.511 Y50.570
G01 F480 X42.940 Y54.999
G01 F480 X43.088 Y54.967
G01 F480 X43.323 Y54.967
G01 F480 X43.552 Y55.016
G01 F480 X43.767 Y55.111
G01 F480 X43.956 Y55.249
G01 F480 X44.113 Y55.424
G01 F480 X44.231 Y55.627
G01 F480 X44.303 Y55.850
G01 F480 X44.328 Y56.083
G01 F480 X44.303 Y56.317
G01 F480 X44.231 Y56.540
G01 F480 X44.113 Y56.743
G01 F480 X43.956 Y56.917
G01 F480 X43.767 Y57.055
G01 F480 X43.552 Y57.151
G01 F480 X43.323 Y57.199
G01 F480 X43.088 Y57.199
G00 F3000 Z3.000
G00 F3000 X35.468 Y57.199
G00 F1500 Z0
G01 F480 Z-0.200
G01 F480 X35.239 Y57.151
G01 F480 X35.024 Y57.055
G01 F480 X34.834 Y56.917
G01 F480 X34.678 Y56.743
G01 F480 X34.560 Y56.540
G01 F480 X34.488 Y56.317
G01 F480 X34.463 Y56.083
G01 F480 X34.488 Y55.850
G01 F480 X34.560 Y55.627
G01 F480 X34.678 Y55.424
G01 F480 X34.834 Y55.249
G01 F480 X35.024 Y55.111
G01 F480 X35.239 Y55.016
G01 F480 X35.468 Y54.967
G01 F480 X35.703 Y54.967
G01 F480 X35.932 Y55.016
G01 F480 X36.147 Y55.111
G01 F480 X36.336 Y55.249
G01 F480 X36.493 Y55.424
G01 F480 X36.611 Y55.627
G01 F480 X36.683 Y55.850
G01 F480 X36.708 Y56.083
G01 F480 X36.683 Y56.317
G01 F480 X36.611 Y56.540
G01 F480 X36.493 Y56.743
G01 F480 X36.336 Y56.917
G01 F480 X36.147 Y57.055
G01 F480 X35.932 Y57.151
G01 F480 X35.703 Y57.199
G01 F480 X35.468 Y57.199
G00 F3000 Z3.000
G00 F3000 X38.008 Y57.199
G00 F1500 Z0
G01 F480 Z-0.200
G01 F480 X37.779 Y57.151
G01 F480 X37.564 Y57.055
G01 F480 X37.375 Y56.917
G01 F480 X37.218 Y56.743
G01 F480 X37.100 Y56.540
G01 F480 X37.028 Y56.317
G01 F480 X37.003 Y56.083
G01 F480 X37.028 Y55.850
G01 F480 X37.045 Y55.796
G01 F480 X32.808 Y51.559
G01 F480 X31.473 Y51.580
G01 F480 X31.421 Y51.669
G01 F480 X31.263 Y51.844
G01 F480 X31.071 Y51.983
G01 F480 X30.855 Y52.080
G01 F480 X30.624 Y52.129
G01 F480 X30.387 Y52.129
G01 F480 X30.156 Y52.080
G01 F480 X29.939 Y51.983
G01 F480 X29.748 Y51.844
G01 F480 X29.590 Y51.669
G01 F480 X29.471 Y51.464
G01 F480 X29.398 Y51.239
G01 F480 X29.373 Y51.003
G01 F480 X29.398 Y50.768
G01 F480 X29.471 Y50.543
G01 F480 X29.590 Y50.338
G01 F480 X29.748 Y50.162
G01 F480 X29.939 Y50.023
G01 F480 X30.156 Y49.927
G01 F480 X30.387 Y49.877
G01 F480 X30.624 Y49.877
G01 F480 X30.855 Y49.927
G01 F480 X31.071 Y50.023
G01 F480 X31.263 Y50.162
G01 F480 X31.421 Y50.338
G01 F480 X31.471 Y50.424
G01 F480 X33.002 Y50.401
G01 F480 X33.106 Y50.401
G01 F480 X33.225 Y50.426
G01 F480 X33.336 Y50.475
G01 F480 X33.430 Y50.544
G01 F480 X37.863 Y54.976
G01 F480 X37.879 Y54.995
G01 F480 X38.008 Y54.967
G01 F480 X38.243 Y54.967
G01 F480 X38.472 Y55.016
G01 F480 X38.687 Y55.111
G01 F480 X38.876 Y55.249
G01 F480 X39.033 Y55.424
G01 F480 X39.151 Y55.627
G01 F480 X39.223 Y55.850
G01 F480 X39.248 Y56.083
G01 F480 X39.223 Y56.317
G01 F480 X39.151 Y56.540
G01 F480 X39.033 Y56.743
G01 F480 X38.876 Y56.917
G01 F480 X38.687 Y57.055
G01 F480 X38.472 Y57.151
G01 F480 X38.243 Y57.199
G01 F480 X38.008 Y57.199
G00 F3000 Z3.000
G00 F3000 X50.708 Y57.199
G00 F1500 Z0
G01 F480 Z-0.200
G01 F480 X50.479 Y57.151
G01 F480 X50.264 Y57.055
G01 F480 X50.075 Y56.917
G01 F480 X49.918 Y56.743
G01 F480 X49.800 Y56.540
G01 F480 X49.728 Y56.317
G01 F480 X49.703 Y56.083
G01 F480 X49.728 Y55.850
G01 F480 X49.800 Y55.627
G01 F480 X49.918 Y55.424
G01 F480 X50.075 Y55.249
G01 F480 X50.264 Y55.111
G01 F480 X50.479 Y55.016
G01 F480 X50.708 Y54.967
G01 F480 X50.943 Y54.967
G01 F480 X51.172 Y55.016
G01 F480 X51.387 Y55.111
G01 F480 X51.576 Y55.249
G01 F480 X51.733 Y55.424
G01 F480 X51.851 Y55.627
G01 F480 X51.923 Y55.850
G01 F480 X51.948 Y56.083
G01 F480 X51.923 Y56.317
G01 F480 X51.851 Y56.540
G01 F480 X51.733 Y56.743
G01 F480 X51.576 Y56.917
G01 F480 X51.387 Y57.055
G01 F480 X51.172 Y57.151
G01 F480 X50.943 Y57.199
G01 F480 X50.708 Y57.199
G00 F3000 Z3.000
G00 F3000 X53.248 Y57.199
G00 F1500 Z0
G01 F480 Z-0.200
G01 F480 X53.019 Y57.151
G01 F480 X52.804 Y57.055
G01 F480 X52.614 Y56.917
G01 F480 X52.458 Y56.743
G01 F480 X52.340 Y56.540
G01 F480 X52.268 Y56.317
G01 F480 X52.243 Y56.083
G01 F480 X52.268 Y55.850
G01 F480 X52.279 Y55.815
G01 F480 X50.559 Y54.095
G01 F480 X43.145 Y54.095
G01 F480 X43.026 Y54.070
G01 F480 X42.915 Y54.020
G01 F480 X42.821 Y53.952
G01 F480 X38.400 Y49.556
G01 F480 X38.244 Y49.589
G01 F480 X38.007 Y49.589
G01 F480 X37.776 Y49.540
G01 F480 X37.559 Y49.444
G01 F480 X37.368 Y49.304
G01 F480 X37.210 Y49.129
G01 F480 X37.091 Y48.924
G01 F480 X37.018 Y48.699
G01 F480 X36.993 Y48.463
G01 F480 X37.018 Y48.228
G01 F480 X37.091 Y48.003
G01 F480 X37.210 Y47.798
G01 F480 X37.368 Y47.622
G01 F480 X37.559 Y47.483
G01 F480 X37.776 Y47.387
G01 F480 X38.007 Y47.337
G01 F480 X38.244 Y47.337
G01 F480 X38.475 Y47.387
G01 F480 X38.691 Y47.483
G01 F480 X38.883 Y47.622
G01 F480 X39.041 Y47.798
G01 F480 X39.160 Y48.003
G01 F480 X39.233 Y48.228
G01 F480 X39.257 Y48.463
G01 F480 X39.233 Y48.699
G01 F480 X39.220 Y48.738
G01 F480 X43.446 Y52.941
G01 F480 X50.861 Y52.941
G01 F480 X50.979 Y52.966
G01 F480 X51.090 Y53.015
G01 F480 X51.185 Y53.084
G01 F480 X53.099 Y54.999
G01 F480 X53.248 Y54.967
G01 F480 X53.483 Y54.967
G01 F480 X53.654 Y55.004
G01 F480 X55.547 Y53.159
G01 F480 X55.641 Y53.091
G01 F480 X55.752 Y53.042
G01 F480 X55.870 Y53.017
G01 F480 X58.222 Y53.017
G01 F480 X60.405 Y50.723
G01 F480 X60.381 Y41.058
G01 F480 X58.052 Y38.729
G01 F480 X56.141 Y36.846
G01 F480 X56.022 Y36.871
G01 F480 X55.789 Y36.871
G01 F480 X55.561 Y36.822
G01 F480 X55.349 Y36.728
G01 F480 X55.160 Y36.591
G01 F480 X55.004 Y36.418
G01 F480 X54.888 Y36.216
G01 F480 X54.816 Y35.995
G01 F480 X54.792 Y35.763
G01 F480 X54.816 Y35.532
G01 F480 X54.888 Y35.310
G01 F480 X55.004 Y35.109
G01 F480 X55.160 Y34.936
G01 F480 X55.349 Y34.799
G01 F480 X55.561 Y34.704
G01 F480 X55.789 Y34.656
G01 F480 X56.024 Y34.656
G01 F480 X56.164 Y34.689
G01 F480 X58.050 Y32.851
G01 F480 X60.381 Y30.426
G01 F480 X60.406 Y15.443
G01 F480 X60.406 Y13.480
G01 F480 X56.851 Y13.480
G01 F480 X56.806 Y13.558
G01 F480 X56.651 Y13.731
G01 F480 X56.462 Y13.868
G01 F480 X56.250 Y13.962
G01 F480 X56.022 Y14.011
G01 F480 X55.789 Y14.011
G01 F480 X55.561 Y13.962
G01 F480 X55.349 Y13.868
G01 F480 X55.160 Y13.731
G01 F480 X55.004 Y13.558
G01 F480 X54.888 Y13.356
G01 F480 X54.816 Y13.135
G01 F480 X54.792 Y12.903
G01 F480 X54.816 Y12.672
G01 F480 X54.888 Y12.450
G01 F480 X55.004 Y12.249
G01 F480 X55.160 Y12.075
G01 F480 X55.328 Y11.953
G01 F480 X55.348 Y10.599
G01 F480 X53.175 Y8.425
G01 F480 X40.932 Y8.401
G01 F480 X38.705 Y10.628
G01 F480 X38.705 Y11.955
G01 F480 X38.871 Y12.075
G01 F480 X39.026 Y12.249
G01 F480 X39.143 Y12.450
G01 F480 X39.215 Y12.672
G01 F480 X39.239 Y12.903
G01 F480 X39.215 Y13.135
G01 F480 X39.143 Y13.356
G01 F480 X39.026 Y13.558
G01 F480 X38.871 Y13.731
G01 F480 X38.682 Y13.868
G01 F480 X38.470 Y13.962
G01 F480 X38.242 Y14.011
G01 F480 X38.009 Y14.011
G01 F480 X37.781 Y13.962
G01 F480 X37.569 Y13.868
G01 F480 X37.380 Y13.731
G01 F480 X37.224 Y13.558
G01 F480 X37.108 Y13.356
G01 F480 X37.036 Y13.135
G01 F480 X37.012 Y12.903
G01 F480 X37.036 Y12.672
G01 F480 X37.108 Y12.450
G01 F480 X37.224 Y12.249
G01 F480 X37.380 Y12.075
G01 F480 X37.546 Y11.955
G01 F480 X37.546 Y10.380
G01 F480 X37.558 Y10.268
G01 F480 X37.595 Y10.152
G01 F480 X37.656 Y10.048
G01 F480 X37.728 Y9.968
G01 F480 X40.306 Y7.389
G01 F480 X40.401 Y7.321
G01 F480 X40.512 Y7.271
G01 F480 X40.630 Y7.246
G01 F480 X40.733 Y7.246
G01 F480 X53.477 Y7.272
G01 F480 X53.596 Y7.297
G01 F480 X53.706 Y7.346
G01 F480 X53.801 Y7.415
G01 F480 X56.328 Y9.942
G01 F480 X56.400 Y10.022
G01 F480 X56.461 Y10.127
G01 F480 X56.498 Y10.242
G01 F480 X56.510 Y10.355
G01 F480 X56.487 Y11.957
G01 F480 X56.651 Y12.075
G01 F480 X56.806 Y12.249
G01 F480 X56.851 Y12.326
G01 F480 X60.400 Y12.326
G01 F480 X60.383 Y10.579
G01 F480 X55.664 Y5.860
G01 F480 X25.736 Y5.860
G01 F480 X21.350 Y12.428
G01 F480 X21.363 Y12.450
G01 F480 X21.435 Y12.672
G01 F480 X21.459 Y12.903
G01 F480 X21.435 Y13.135
G01 F480 X21.363 Y13.356
G01 F480 X21.246 Y13.558
G01 F480 X21.091 Y13.731
G01 F480 X20.902 Y13.868
G01 F480 X20.690 Y13.962
G01 F480 X20.462 Y14.011
G01 F480 X20.229 Y14.011
G01 F480 X20.001 Y13.962
G01 F480 X19.789 Y13.868
G01 F480 X19.600 Y13.731
G01 F480 X19.444 Y13.558
G01 F480 X19.328 Y13.356
G01 F480 X19.256 Y13.135
G01 F480 X19.232 Y12.903
G01 F480 X19.256 Y12.672
G01 F480 X19.328 Y12.450
G01 F480 X19.444 Y12.249
G01 F480 X19.600 Y12.075
G01 F480 X19.789 Y11.939
G01 F480 X20.001 Y11.844
G01 F480 X20.229 Y11.796
G01 F480 X20.380 Y11.796
G01 F480 X24.960 Y4.938
G01 F480 X25.037 Y4.852
G01 F480 X25.135 Y4.781
G01 F480 X25.246 Y4.731
G01 F480 X25.365 Y4.706
G01 F480 X55.966 Y4.706
G01 F480 X56.085 Y4.731
G01 F480 X56.196 Y4.781
G01 F480 X56.290 Y4.849
G01 F480 X61.358 Y9.917
G01 F480 X61.430 Y9.997
G01 F480 X61.490 Y10.102
G01 F480 X61.528 Y10.217
G01 F480 X61.539 Y10.328
G01 F480 X61.565 Y12.902
G01 F480 X61.565 Y15.443
G01 F480 X61.539 Y30.667
G01 F480 X61.528 Y30.779
G01 F480 X61.490 Y30.894
G01 F480 X61.430 Y30.999
G01 F480 X61.359 Y31.078
G01 F480 X58.840 Y33.698
G01 F480 X56.986 Y35.505
G01 F480 X56.995 Y35.532
G01 F480 X57.019 Y35.763
G01 F480 X56.995 Y35.995
G01 F480 X56.985 Y36.024
G01 F480 X61.358 Y40.397
G01 F480 X61.430 Y40.477
G01 F480 X61.490 Y40.582
G01 F480 X61.528 Y40.697
G01 F480 X61.539 Y40.809
G01 F480 X61.565 Y50.961
G01 F480 X61.553 Y51.073
G01 F480 X61.516 Y51.189
G01 F480 X61.455 Y51.294
G01 F480 X61.384 Y51.372
G01 F480 X58.857 Y54.027
G01 F480 X58.761 Y54.097
G01 F480 X58.650 Y54.146
G01 F480 X58.532 Y54.171
G01 F480 X56.168 Y54.171
G01 F480 X54.459 Y55.836
G01 F480 X54.463 Y55.850
G01 F480 X54.488 Y56.083
G01 F480 X54.463 Y56.317
G01 F480 X54.391 Y56.540
G01 F480 X54.273 Y56.743
G01 F480 X54.116 Y56.917
G01 F480 X53.927 Y57.055
G01 F480 X53.712 Y57.151
G01 F480 X53.483 Y57.199
G01 F480 X53.248 Y57.199
G00 F3000 Z3.000
G00 F3000 X48.168 Y57.199
G00 F1500 Z0
G01 F480 Z-0.200
G01 F480 X47.939 Y57.151
G01 F480 X47.724 Y57.055
G01 F480 X47.535 Y56.917
G01 F480 X47.378 Y56.743
G01 F480 X47.260 Y56.540
G01 F480 X47.188 Y56.317
G01 F480 X47.163 Y56.083
G01 F480 X47.188 Y55.850
G01 F480 X47.260 Y55.627
G01 F480 X47.378 Y55.424
G01 F480 X47.535 Y55.249
G01 F480 X47.724 Y55.111
G01 F480 X47.939 Y55.016
G01 F480 X48.168 Y54.967
G01 F480 X48.403 Y54.967
G01 F480 X48.632 Y55.016
G01 F480 X48.846 Y55.111
G01 F480 X49.036 Y55.249
G01 F480 X49.193 Y55.424
G01 F480 X49.311 Y55.627
G01 F480 X49.383 Y55.850
G01 F480 X49.408 Y56.083
G01 F480 X49.383 Y56.317
G01 F480 X49.311 Y56.540
G01 F480 X49.193 Y56.743
G01 F480 X49.036 Y56.917
G01 F480 X48.846 Y57.055
G01 F480 X48.632 Y57.151
G01 F480 X48.403 Y57.199
G01 F480 X48.168 Y57.199
G00 F3000 Z3.000
G00 F3000 X20.228 Y57.199
G00 F1500 Z0
G01 F480 Z-0.200
G01 F480 X19.999 Y57.151
G01 F480 X19.784 Y57.055
G01 F480 X19.595 Y56.917
G01 F480 X19.438 Y56.743
G01 F480 X19.320 Y56.540
G01 F480 X19.248 Y56.317
G01 F480 X19.223 Y56.083
G01 F480 X19.248 Y55.850
G01 F480 X19.320 Y55.627
G01 F480 X19.438 Y55.424
G01 F480 X19.595 Y55.249
G01 F480 X19.784 Y55.111
G01 F480 X19.999 Y55.016
G01 F480 X20.228 Y54.967
G01 F480 X20.463 Y54.967
G01 F480 X20.692 Y55.016
G01 F480 X20.907 Y55.111
G01 F480 X21.096 Y55.249
G01 F480 X21.253 Y55.424
G01 F480 X21.371 Y55.627
G01 F480 X21.443 Y55.850
G01 F480 X21.468 Y56.083
G01 F480 X21.443 Y56.317
G01 F480 X21.371 Y56.540
G01 F480 X21.253 Y56.743
G01 F480 X21.096 Y56.917
G01 F480 X20.907 Y57.055
G01 F480 X20.692 Y57.151
G01 F480 X20.463 Y57.199
G01 F480 X20.228 Y57.199
G00 F3000 Z3.000
G00 F3000 X22.768 Y57.199
G00 F1500 Z0
G01 F480 Z-0.200
G01 F480 X22.539 Y57.151
G01 F480 X22.324 Y57.055
G01 F480 X22.135 Y56.917
G01 F480 X21.978 Y56.743
G01 F480 X21.860 Y56.540
G01 F480 X21.788 Y56.317
G01 F480 X21.763 Y56.083
G01 F480 X21.788 Y55.850
G01 F480 X21.860 Y55.627
G01 F480 X21.978 Y55.424
G01 F480 X22.135 Y55.249
G01 F480 X22.324 Y55.111
G01 F480 X22.539 Y55.016
G01 F480 X22.768 Y54.967
G01 F480 X23.003 Y54.967
G01 F480 X23.232 Y55.016
G01 F480 X23.447 Y55.111
G01 F480 X23.636 Y55.249
G01 F480 X23.793 Y55.424
G01 F480 X23.911 Y55.627
G01 F480 X23.983 Y55.850
G01 F480 X24.008 Y56.083
G01 F480 X23.983 Y56.317
G01 F480 X23.911 Y56.540
G01 F480 X23.793 Y56.743
G01 F480 X23.636 Y56.917
G01 F480 X23.447 Y57.055
G01 F480 X23.232 Y57.151
G01 F480 X23.003 Y57.199
G01 F480 X22.768 Y57.199
G00 F3000 Z3.000
G00 F3000 X17.688 Y57.199
G00 F1500 Z0
G01 F480 Z-0.200
G01 F480 X17.459 Y57.151
G01 F480 X17.244 Y57.055
G01 F480 X17.055 Y56.917
G01 F480 X16.898 Y56.743
G01 F480 X16.780 Y56.540
G01 F480 X16.708 Y56.317
G01 F480 X16.683 Y56.083
G01 F480 X16.708 Y55.850
G01 F480 X16.780 Y55.627
G01 F480 X16.898 Y55.424
G01 F480 X17.055 Y55.249
G01 F480 X17.244 Y55.111
G01 F480 X17.459 Y55.016
G01 F480 X17.688 Y54.967
G01 F480 X17.923 Y54.967
G01 F480 X18.152 Y55.016
G01 F480 X18.367 Y55.111
G01 F480 X18.556 Y55.249
G01 F480 X18.713 Y55.424
G01 F480 X18.831 Y55.627
G01 F480 X18.903 Y55.850
G01 F480 X18.928 Y56.083
G01 F480 X18.903 Y56.317
G01 F480 X18.831 Y56.540
G01 F480 X18.713 Y56.743
G01 F480 X18.556 Y56.917
G01 F480 X18.367 Y57.055
G01 F480 X18.152 Y57.151
G01 F480 X17.923 Y57.199
G01 F480 X17.688 Y57.199
G00 F3000 Z3.000
G00 F3000 X25.308 Y57.199
G00 F1500 Z0
G01 F480 Z-0.200
G01 F480 X25.079 Y57.151
G01 F480 X24.864 Y57.055
G01 F480 X24.675 Y56.917
G01 F480 X24.518 Y56.743
G01 F480 X24.400 Y56.540
G01 F480 X24.328 Y56.317
G01 F480 X24.303 Y56.083
G01 F480 X24.328 Y55.850
G01 F480 X24.400 Y55.627
G01 F480 X24.518 Y55.424
G01 F480 X24.675 Y55.249
G01 F480 X24.864 Y55.111
G01 F480 X25.079 Y55.016
G01 F480 X25.308 Y54.967
G01 F480 X25.543 Y54.967
G01 F480 X25.772 Y55.016
G01 F480 X25.986 Y55.111
G01 F480 X26.176 Y55.249
G01 F480 X26.333 Y55.424
G01 F480 X26.451 Y55.627
G01 F480 X26.523 Y55.850
G01 F480 X26.548 Y56.083
G01 F480 X26.523 Y56.317
G01 F480 X26.451 Y56.540
G01 F480 X26.333 Y56.743
G01 F480 X26.176 Y56.917
G01 F480 X25.986 Y57.055
G01 F480 X25.772 Y57.151
G01 F480 X25.543 Y57.199
G01 F480 X25.308 Y57.199
G00 F3000 Z3.000
G00 F3000 X55.788 Y57.199
G00 F1500 Z0
G01 F480 Z-0.200
G01 F480 X55.559 Y57.151
G01 F480 X55.344 Y57.055
G01 F480 X55.155 Y56.917
G01 F480 X54.998 Y56.743
G01 F480 X54.880 Y56.540
G01 F480 X54.808 Y56.317
G01 F480 X54.783 Y56.083
G01 F480 X54.808 Y55.850
G01 F480 X54.880 Y55.627
G01 F480 X54.998 Y55.424
G01 F480 X55.155 Y55.249
G01 F480 X55.344 Y55.111
G01 F480 X55.559 Y55.016
G01 F480 X55.788 Y54.967
G01 F480 X56.023 Y54.967
G01 F480 X56.252 Y55.016
G01 F480 X56.467 Y55.111
G01 F480 X56.656 Y55.249
G01 F480 X56.813 Y55.424
G01 F480 X56.931 Y55.627
G01 F480 X57.003 Y55.850
G01 F480 X57.028 Y56.083
G01 F480 X57.003 Y56.317
G01 F480 X56.931 Y56.540
G01 F480 X56.813 Y56.743
G01 F480 X56.656 Y56.917
G01 F480 X56.467 Y57.055
G01 F480 X56.252 Y57.151
G01 F480 X56.023 Y57.199
G01 F480 X55.788 Y57.199
G00 F3000 Z3.000
G00 F3000 X49.852 Y49.385
G00 F1500 Z0
G01 F480 Z-0.200
G01 F480 X49.852 Y48.990
G01 F480 X45.634 Y48.990
G01 F480 X45.515 Y48.964
G01 F480 X45.404 Y48.915
G01 F480 X45.310 Y48.846
G01 F480 X42.783 Y46.319
G01 F480 X42.711 Y46.239
G01 F480 X42.650 Y46.134
G01 F480 X42.612 Y46.019
G01 F480 X42.601 Y45.907
G01 F480 X42.626 Y36.457
G01 F480 X42.460 Y36.337
G01 F480 X42.304 Y36.164
G01 F480 X42.188 Y35.962
G01 F480 X42.116 Y35.741
G01 F480 X42.092 Y35.509
G01 F480 X42.116 Y35.278
G01 F480 X42.188 Y35.056
G01 F480 X42.304 Y34.855
G01 F480 X42.460 Y34.681
G01 F480 X42.648 Y34.545
G01 F480 X42.861 Y34.450
G01 F480 X43.089 Y34.401
G01 F480 X43.322 Y34.401
G01 F480 X43.550 Y34.450
G01 F480 X43.762 Y34.545
G01 F480 X43.951 Y34.681
G01 F480 X44.106 Y34.855
G01 F480 X44.223 Y35.056
G01 F480 X44.295 Y35.278
G01 F480 X44.319 Y35.509
G01 F480 X44.295 Y35.741
G01 F480 X44.223 Y35.962
G01 F480 X44.106 Y36.164
G01 F480 X43.951 Y36.337
G01 F480 X43.784 Y36.458
G01 F480 X43.760 Y45.659
G01 F480 X45.936 Y47.835
G01 F480 X49.852 Y47.835
G01 F480 X49.852 Y47.439
G01 F480 X51.798 Y47.439
G01 F480 X51.798 Y49.385
G01 F480 X49.852 Y49.385
G00 F3000 Z3.000
G00 F3000 X14.292 Y49.385
G00 F1500 Z0
G01 F480 Z-0.200
G01 F480 X14.292 Y47.439
G01 F480 X16.238 Y47.439
G01 F480 X16.238 Y49.385
G01 F480 X14.292 Y49.385
G00 F3000 Z3.000
G00 F3000 X32.944 Y46.892
G00 F1500 Z0
G01 F480 Z-0.200
G01 F480 X32.744 Y46.849
G01 F480 X32.558 Y46.767
G01 F480 X32.394 Y46.647
G01 F480 X32.258 Y46.496
G01 F480 X32.156 Y46.319
G01 F480 X32.093 Y46.126
G01 F480 X32.071 Y45.923
G01 F480 X32.093 Y45.721
G01 F480 X32.156 Y45.527
G01 F480 X32.258 Y45.351
G01 F480 X32.394 Y45.199
G01 F480 X32.558 Y45.080
G01 F480 X32.744 Y44.997
G01 F480 X32.944 Y44.955
G01 F480 X33.147 Y44.955
G01 F480 X33.346 Y44.997
G01 F480 X33.532 Y45.080
G01 F480 X33.697 Y45.199
G01 F480 X33.828 Y45.345
G01 F480 X37.881 Y45.322
G01 F480 X40.061 Y43.120
G01 F480 X40.061 Y41.788
G01 F480 X39.912 Y41.680
G01 F480 X39.754 Y41.505
G01 F480 X39.636 Y41.301
G01 F480 X39.564 Y41.077
G01 F480 X39.539 Y40.842
G01 F480 X39.561 Y40.664
G01 F480 X39.551 Y40.648
G01 F480 X39.514 Y40.532
G01 F480 X39.501 Y40.411
G01 F480 X39.514 Y40.291
G01 F480 X39.551 Y40.175
G01 F480 X39.612 Y40.070
G01 F480 X39.693 Y39.980
G01 F480 X39.791 Y39.909
G01 F480 X39.902 Y39.860
G01 F480 X40.020 Y39.834
G01 F480 X40.138 Y39.834
G01 F480 X40.167 Y39.839
G01 F480 X40.317 Y39.772
G01 F480 X40.548 Y39.723
G01 F480 X40.783 Y39.723
G01 F480 X41.014 Y39.772
G01 F480 X41.229 Y39.868
G01 F480 X41.419 Y40.006
G01 F480 X41.577 Y40.181
G01 F480 X41.695 Y40.385
G01 F480 X41.767 Y40.609
G01 F480 X41.792 Y40.843
G01 F480 X41.767 Y41.077
G01 F480 X41.695 Y41.301
G01 F480 X41.577 Y41.505
G01 F480 X41.419 Y41.680
G01 F480 X41.229 Y41.819
G01 F480 X41.219 Y41.823
G01 F480 X41.219 Y43.367
G01 F480 X41.208 Y43.479
G01 F480 X41.170 Y43.594
G01 F480 X41.110 Y43.699
G01 F480 X41.038 Y43.779
G01 F480 X38.510 Y46.332
G01 F480 X38.416 Y46.400
G01 F480 X38.305 Y46.450
G01 F480 X38.187 Y46.475
G01 F480 X33.829 Y46.500
G01 F480 X33.697 Y46.647
G01 F480 X33.532 Y46.767
G01 F480 X33.346 Y46.849
G01 F480 X33.147 Y46.892
G01 F480 X32.944 Y46.892
G00 F3000 Z3.000
G00 F3000 X50.724 Y46.892
G00 F1500 Z0
G01 F480 Z-0.200
G01 F480 X50.524 Y46.849
G01 F480 X50.338 Y46.767
G01 F480 X50.174 Y46.647
G01 F480 X50.038 Y46.496
G01 F480 X49.936 Y46.319
G01 F480 X49.873 Y46.126
G01 F480 X49.851 Y45.923
G01 F480 X49.873 Y45.721
G01 F480 X49.936 Y45.527
G01 F480 X50.038 Y45.351
G01 F480 X50.174 Y45.199
G01 F480 X50.338 Y45.080
G01 F480 X50.524 Y44.997
G01 F480 X50.724 Y44.955
G01 F480 X50.927 Y44.955
G01 F480 X51.123 Y44.996
G01 F480 X51.203 Y45.028
G01 F480 X51.230 Y45.016
G01 F480 X51.349 Y44.990
G01 F480 X51.470 Y44.990
G01 F480 X51.589 Y45.016
G01 F480 X51.700 Y45.065
G01 F480 X51.798 Y45.136
G01 F480 X51.879 Y45.227
G01 F480 X51.934 Y45.321
G01 F480 X55.689 Y45.321
G01 F480 X57.888 Y43.122
G01 F480 X57.869 Y41.809
G01 F480 X57.692 Y41.680
G01 F480 X57.534 Y41.505
G01 F480 X57.416 Y41.301
G01 F480 X57.344 Y41.077
G01 F480 X57.319 Y40.843
G01 F480 X57.344 Y40.609
G01 F480 X57.416 Y40.385
G01 F480 X57.534 Y40.181
G01 F480 X57.692 Y40.006
G01 F480 X57.882 Y39.868
G01 F480 X58.097 Y39.772
G01 F480 X58.328 Y39.723
G01 F480 X58.563 Y39.723
G01 F480 X58.794 Y39.772
G01 F480 X59.009 Y39.868
G01 F480 X59.199 Y40.006
G01 F480 X59.357 Y40.181
G01 F480 X59.475 Y40.385
G01 F480 X59.547 Y40.609
G01 F480 X59.572 Y40.843
G01 F480 X59.547 Y41.077
G01 F480 X59.475 Y41.301
G01 F480 X59.357 Y41.505
G01 F480 X59.199 Y41.680
G01 F480 X59.028 Y41.805
G01 F480 X59.050 Y43.366
G01 F480 X59.039 Y43.479
G01 F480 X59.001 Y43.594
G01 F480 X58.940 Y43.699
G01 F480 X58.868 Y43.779
G01 F480 X56.315 Y46.332
G01 F480 X56.221 Y46.400
G01 F480 X56.110 Y46.450
G01 F480 X55.992 Y46.475
G01 F480 X51.625 Y46.475
G01 F480 X51.613 Y46.496
G01 F480 X51.477 Y46.647
G01 F480 X51.312 Y46.767
G01 F480 X51.126 Y46.849
G01 F480 X50.927 Y46.892
G01 F480 X50.724 Y46.892
G00 F3000 Z3.000
G00 F3000 X15.164 Y46.892
G00 F1500 Z0
G01 F480 Z-0.200
G01 F480 X14.964 Y46.849
G01 F480 X14.778 Y46.767
G01 F480 X14.614 Y46.647
G01 F480 X14.478 Y46.496
G01 F480 X14.376 Y46.319
G01 F480 X14.313 Y46.126
G01 F480 X14.291 Y45.923
G01 F480 X14.313 Y45.721
G01 F480 X14.376 Y45.527
G01 F480 X14.478 Y45.351
G01 F480 X14.614 Y45.199
G01 F480 X14.778 Y45.080
G01 F480 X14.964 Y44.997
G01 F480 X15.164 Y44.955
G01 F480 X15.367 Y44.955
G01 F480 X15.566 Y44.997
G01 F480 X15.752 Y45.080
G01 F480 X15.917 Y45.199
G01 F480 X16.049 Y45.345
G01 F480 X20.052 Y45.322
G01 F480 X22.254 Y43.120
G01 F480 X22.237 Y41.757
G01 F480 X22.132 Y41.680
G01 F480 X21.974 Y41.505
G01 F480 X21.856 Y41.300
G01 F480 X21.804 Y41.136
G01 F480 X21.786 Y41.122
G01 F480 X21.705 Y41.032
G01 F480 X21.644 Y40.927
G01 F480 X21.607 Y40.812
G01 F480 X21.594 Y40.691
G01 F480 X21.607 Y40.570
G01 F480 X21.644 Y40.455
G01 F480 X21.705 Y40.350
G01 F480 X21.786 Y40.260
G01 F480 X21.884 Y40.188
G01 F480 X21.987 Y40.142
G01 F480 X22.018 Y40.133
G01 F480 X22.132 Y40.006
G01 F480 X22.322 Y39.868
G01 F480 X22.537 Y39.772
G01 F480 X22.768 Y39.723
G01 F480 X23.003 Y39.723
G01 F480 X23.233 Y39.772
G01 F480 X23.449 Y39.868
G01 F480 X23.639 Y40.006
G01 F480 X23.797 Y40.181
G01 F480 X23.915 Y40.385
G01 F480 X23.987 Y40.609
G01 F480 X24.012 Y40.843
G01 F480 X23.987 Y41.077
G01 F480 X23.915 Y41.301
G01 F480 X23.797 Y41.505
G01 F480 X23.639 Y41.680
G01 F480 X23.449 Y41.819
G01 F480 X23.414 Y41.834
G01 F480 X23.414 Y43.367
G01 F480 X23.402 Y43.479
G01 F480 X23.365 Y43.594
G01 F480 X23.304 Y43.699
G01 F480 X23.232 Y43.779
G01 F480 X20.679 Y46.332
G01 F480 X20.585 Y46.400
G01 F480 X20.474 Y46.450
G01 F480 X20.356 Y46.475
G01 F480 X16.049 Y46.500
G01 F480 X15.917 Y46.647
G01 F480 X15.752 Y46.767
G01 F480 X15.566 Y46.849
G01 F480 X15.367 Y46.892
G01 F480 X15.164 Y46.892
G00 F3000 Z3.000
G00 F3000 X30.388 Y41.964
G00 F1500 Z0
G01 F480 Z-0.200
G01 F480 X30.157 Y41.915
G01 F480 X29.942 Y41.819
G01 F480 X29.752 Y41.680
G01 F480 X29.594 Y41.505
G01 F480 X29.476 Y41.301
G01 F480 X29.404 Y41.077
G01 F480 X29.379 Y40.843
G01 F480 X29.404 Y40.609
G01 F480 X29.476 Y40.385
G01 F480 X29.594 Y40.181
G01 F480 X29.752 Y40.006
G01 F480 X29.929 Y39.877
G01 F480 X29.951 Y38.303
G01 F480 X29.928 Y36.459
G01 F480 X29.760 Y36.337
G01 F480 X29.604 Y36.164
G01 F480 X29.488 Y35.962
G01 F480 X29.416 Y35.741
G01 F480 X29.392 Y35.509
G01 F480 X29.416 Y35.278
G01 F480 X29.488 Y35.056
G01 F480 X29.604 Y34.855
G01 F480 X29.760 Y34.681
G01 F480 X29.926 Y34.561
G01 F480 X29.926 Y18.947
G01 F480 X29.752 Y18.820
G01 F480 X29.594 Y18.645
G01 F480 X29.476 Y18.441
G01 F480 X29.404 Y18.217
G01 F480 X29.379 Y17.983
G01 F480 X29.404 Y17.749
G01 F480 X29.476 Y17.525
G01 F480 X29.594 Y17.321
G01 F480 X29.752 Y17.146
G01 F480 X29.927 Y17.018
G01 F480 X29.947 Y13.613
G01 F480 X29.760 Y13.477
G01 F480 X29.604 Y13.304
G01 F480 X29.488 Y13.102
G01 F480 X29.416 Y12.881
G01 F480 X29.392 Y12.649
G01 F480 X29.416 Y12.418
G01 F480 X29.488 Y12.196
G01 F480 X29.604 Y11.995
G01 F480 X29.760 Y11.822
G01 F480 X29.949 Y11.685
G01 F480 X30.161 Y11.590
G01 F480 X30.389 Y11.542
G01 F480 X30.622 Y11.542
G01 F480 X30.850 Y11.590
G01 F480 X31.062 Y11.685
G01 F480 X31.251 Y11.822
G01 F480 X31.406 Y11.995
G01 F480 X31.523 Y12.196
G01 F480 X31.595 Y12.418
G01 F480 X31.619 Y12.649
G01 F480 X31.595 Y12.881
G01 F480 X31.523 Y13.102
G01 F480 X31.406 Y13.304
G01 F480 X31.251 Y13.477
G01 F480 X31.150 Y13.550
G01 F480 X31.149 Y13.557
G01 F480 X31.112 Y13.673
G01 F480 X31.106 Y13.683
G01 F480 X31.086 Y17.020
G01 F480 X31.259 Y17.146
G01 F480 X31.417 Y17.321
G01 F480 X31.535 Y17.525
G01 F480 X31.607 Y17.749
G01 F480 X31.632 Y17.983
G01 F480 X31.607 Y18.217
G01 F480 X31.535 Y18.441
G01 F480 X31.417 Y18.645
G01 F480 X31.259 Y18.820
G01 F480 X31.085 Y18.947
G01 F480 X31.085 Y34.561
G01 F480 X31.251 Y34.681
G01 F480 X31.406 Y34.855
G01 F480 X31.523 Y35.056
G01 F480 X31.595 Y35.278
G01 F480 X31.619 Y35.509
G01 F480 X31.595 Y35.741
G01 F480 X31.523 Y35.962
G01 F480 X31.406 Y36.164
G01 F480 X31.251 Y36.337
G01 F480 X31.087 Y36.456
G01 F480 X31.110 Y38.303
G01 F480 X31.088 Y39.882
G01 F480 X31.259 Y40.006
G01 F480 X31.417 Y40.181
G01 F480 X31.535 Y40.385
G01 F480 X31.607 Y40.609
G01 F480 X31.632 Y40.843
G01 F480 X31.607 Y41.077
G01 F480 X31.535 Y41.301
G01 F480 X31.417 Y41.505
G01 F480 X31.259 Y41.680
G01 F480 X31.069 Y41.819
G01 F480 X30.854 Y41.915
G01 F480 X30.623 Y41.964
G01 F480 X30.388 Y41.964
G00 F3000 Z3.000
G00 F3000 X48.168 Y41.964
G00 F1500 Z0
G01 F480 Z-0.200
G01 F480 X47.937 Y41.915
G01 F480 X47.722 Y41.819
G01 F480 X47.532 Y41.680
G01 F480 X47.374 Y41.505
G01 F480 X47.256 Y41.300
G01 F480 X47.204 Y41.136
G01 F480 X47.186 Y41.122
G01 F480 X47.105 Y41.032
G01 F480 X47.044 Y40.927
G01 F480 X47.007 Y40.812
G01 F480 X46.994 Y40.691
G01 F480 X47.007 Y40.570
G01 F480 X47.044 Y40.455
G01 F480 X47.105 Y40.350
G01 F480 X47.186 Y40.260
G01 F480 X47.284 Y40.188
G01 F480 X47.387 Y40.142
G01 F480 X47.418 Y40.133
G01 F480 X47.532 Y40.006
G01 F480 X47.665 Y39.909
G01 F480 X47.704 Y36.456
G01 F480 X47.540 Y36.337
G01 F480 X47.384 Y36.164
G01 F480 X47.268 Y35.962
G01 F480 X47.196 Y35.741
G01 F480 X47.172 Y35.509
G01 F480 X47.195 Y35.289
G01 F480 X45.351 Y33.648
G01 F480 X45.276 Y33.564
G01 F480 X45.215 Y33.459
G01 F480 X45.178 Y33.344
G01 F480 X45.166 Y33.232
G01 F480 X45.166 Y20.514
G01 F480 X45.178 Y20.402
G01 F480 X45.215 Y20.287
G01 F480 X45.276 Y20.182
G01 F480 X45.348 Y20.102
G01 F480 X47.196 Y18.255
G01 F480 X47.184 Y18.217
G01 F480 X47.159 Y17.983
G01 F480 X47.184 Y17.749
G01 F480 X47.256 Y17.525
G01 F480 X47.374 Y17.321
G01 F480 X47.532 Y17.146
G01 F480 X47.703 Y17.021
G01 F480 X47.666 Y13.780
G01 F480 X47.663 Y13.778
G01 F480 X47.603 Y13.673
G01 F480 X47.565 Y13.557
G01 F480 X47.558 Y13.490
G01 F480 X47.540 Y13.477
G01 F480 X47.384 Y13.304
G01 F480 X47.268 Y13.102
G01 F480 X47.196 Y12.881
G01 F480 X47.172 Y12.649
G01 F480 X47.196 Y12.418
G01 F480 X47.268 Y12.196
G01 F480 X47.384 Y11.995
G01 F480 X47.540 Y11.822
G01 F480 X47.729 Y11.685
G01 F480 X47.941 Y11.590
G01 F480 X48.169 Y11.542
G01 F480 X48.402 Y11.542
G01 F480 X48.630 Y11.590
G01 F480 X48.842 Y11.685
G01 F480 X49.031 Y11.822
G01 F480 X49.186 Y11.995
G01 F480 X49.303 Y12.196
G01 F480 X49.375 Y12.418
G01 F480 X49.399 Y12.649
G01 F480 X49.375 Y12.881
G01 F480 X49.303 Y13.102
G01 F480 X49.186 Y13.304
G01 F480 X49.031 Y13.477
G01 F480 X48.842 Y13.614
G01 F480 X48.822 Y13.623
G01 F480 X48.862 Y17.018
G01 F480 X49.039 Y17.146
G01 F480 X49.197 Y17.321
G01 F480 X49.315 Y17.525
G01 F480 X49.387 Y17.749
G01 F480 X49.412 Y17.983
G01 F480 X49.387 Y18.217
G01 F480 X49.315 Y18.441
G01 F480 X49.197 Y18.645
G01 F480 X49.039 Y18.820
G01 F480 X48.849 Y18.959
G01 F480 X48.634 Y19.055
G01 F480 X48.403 Y19.104
G01 F480 X48.168 Y19.104
G01 F480 X48.016 Y19.071
G01 F480 X46.325 Y20.762
G01 F480 X46.325 Y32.963
G01 F480 X47.984 Y34.441
G01 F480 X48.169 Y34.401
G01 F480 X48.402 Y34.401
G01 F480 X48.630 Y34.450
G01 F480 X48.842 Y34.545
G01 F480 X49.031 Y34.681
G01 F480 X49.186 Y34.855
G01 F480 X49.303 Y35.056
G01 F480 X49.375 Y35.278
G01 F480 X49.399 Y35.509
G01 F480 X49.375 Y35.741
G01 F480 X49.303 Y35.962
G01 F480 X49.186 Y36.164
G01 F480 X49.031 Y36.337
G01 F480 X48.863 Y36.459
G01 F480 X48.825 Y39.857
G01 F480 X48.849 Y39.868
G01 F480 X49.039 Y40.006
G01 F480 X49.197 Y40.181
G01 F480 X49.315 Y40.385
G01 F480 X49.387 Y40.609
G01 F480 X49.412 Y40.843
G01 F480 X49.387 Y41.077
G01 F480 X49.315 Y41.301
G01 F480 X49.197 Y41.505
G01 F480 X49.039 Y41.680
G01 F480 X48.849 Y41.819
G01 F480 X48.634 Y41.915
G01 F480 X48.403 Y41.964
G01 F480 X48.168 Y41.964
G00 F3000 Z3.000
G00 F3000 X27.849 Y36.871
G00 F1500 Z0
G01 F480 Z-0.200
G01 F480 X27.621 Y36.822
G01 F480 X27.409 Y36.728
G01 F480 X27.220 Y36.591
G01 F480 X27.064 Y36.418
G01 F480 X26.948 Y36.216
G01 F480 X26.876 Y35.995
G01 F480 X26.852 Y35.763
G01 F480 X26.876 Y35.532
G01 F480 X26.948 Y35.310
G01 F480 X27.064 Y35.109
G01 F480 X27.220 Y34.936
G01 F480 X27.409 Y34.799
G01 F480 X27.621 Y34.704
G01 F480 X27.849 Y34.656
G01 F480 X28.082 Y34.656
G01 F480 X28.310 Y34.704
G01 F480 X28.522 Y34.799
G01 F480 X28.711 Y34.936
G01 F480 X28.866 Y35.109
G01 F480 X28.983 Y35.310
G01 F480 X29.055 Y35.532
G01 F480 X29.079 Y35.763
G01 F480 X29.055 Y35.995
G01 F480 X28.983 Y36.216
G01 F480 X28.866 Y36.418
G01 F480 X28.711 Y36.591
G01 F480 X28.522 Y36.728
G01 F480 X28.310 Y36.822
G01 F480 X28.082 Y36.871
G01 F480 X27.849 Y36.871
G00 F3000 Z3.000
G00 F3000 X45.629 Y36.871
G00 F1500 Z0
G01 F480 Z-0.200
G01 F480 X45.401 Y36.822
G01 F480 X45.189 Y36.728
G01 F480 X45.000 Y36.591
G01 F480 X44.844 Y36.418
G01 F480 X44.728 Y36.216
G01 F480 X44.656 Y35.995
G01 F480 X44.632 Y35.763
G01 F480 X44.656 Y35.532
G01 F480 X44.728 Y35.310
G01 F480 X44.844 Y35.109
G01 F480 X45.000 Y34.936
G01 F480 X45.189 Y34.799
G01 F480 X45.401 Y34.704
G01 F480 X45.629 Y34.656
G01 F480 X45.862 Y34.656
G01 F480 X46.090 Y34.704
G01 F480 X46.302 Y34.799
G01 F480 X46.491 Y34.936
G01 F480 X46.646 Y35.109
G01 F480 X46.763 Y35.310
G01 F480 X46.835 Y35.532
G01 F480 X46.859 Y35.763
G01 F480 X46.835 Y35.995
G01 F480 X46.763 Y36.216
G01 F480 X46.646 Y36.418
G01 F480 X46.491 Y36.591
G01 F480 X46.302 Y36.728
G01 F480 X46.090 Y36.822
G01 F480 X45.862 Y36.871
G01 F480 X45.629 Y36.871
G00 F3000 Z3.000
G00 F3000 X50.709 Y36.871
G00 F1500 Z0
G01 F480 Z-0.200
G01 F480 X50.481 Y36.822
G01 F480 X50.269 Y36.728
G01 F480 X50.080 Y36.591
G01 F480 X49.924 Y36.418
G01 F480 X49.808 Y36.216
G01 F480 X49.736 Y35.995
G01 F480 X49.712 Y35.763
G01 F480 X49.736 Y35.532
G01 F480 X49.808 Y35.310
G01 F480 X49.924 Y35.109
G01 F480 X50.080 Y34.936
G01 F480 X50.246 Y34.815
G01 F480 X50.246 Y33.461
G01 F480 X47.888 Y31.079
G01 F480 X47.816 Y30.999
G01 F480 X47.755 Y30.894
G01 F480 X47.718 Y30.779
G01 F480 X47.706 Y30.667
G01 F480 X47.706 Y23.054
G01 F480 X47.718 Y22.943
G01 F480 X47.754 Y22.832
G01 F480 X50.246 Y17.847
G01 F480 X50.246 Y13.851
G01 F480 X50.080 Y13.731
G01 F480 X49.924 Y13.558
G01 F480 X49.808 Y13.356
G01 F480 X49.736 Y13.135
G01 F480 X49.712 Y12.903
G01 F480 X49.736 Y12.672
G01 F480 X49.808 Y12.450
G01 F480 X49.924 Y12.249
G01 F480 X50.080 Y12.075
G01 F480 X50.269 Y11.939
G01 F480 X50.481 Y11.844
G01 F480 X50.709 Y11.796
G01 F480 X50.942 Y11.796
G01 F480 X51.170 Y11.844
G01 F480 X51.382 Y11.939
G01 F480 X51.571 Y12.075
G01 F480 X51.726 Y12.249
G01 F480 X51.843 Y12.450
G01 F480 X51.915 Y12.672
G01 F480 X51.939 Y12.903
G01 F480 X51.915 Y13.135
G01 F480 X51.843 Y13.356
G01 F480 X51.726 Y13.558
G01 F480 X51.571 Y13.731
G01 F480 X51.405 Y13.851
G01 F480 X51.405 Y17.992
G01 F480 X51.393 Y18.104
G01 F480 X51.357 Y18.214
G01 F480 X48.865 Y23.199
G01 F480 X48.865 Y30.421
G01 F480 X51.223 Y32.802
G01 F480 X51.295 Y32.882
G01 F480 X51.356 Y32.987
G01 F480 X51.393 Y33.102
G01 F480 X51.405 Y33.214
G01 F480 X51.405 Y34.815
G01 F480 X51.571 Y34.936
G01 F480 X51.726 Y35.109
G01 F480 X51.843 Y35.310
G01 F480 X51.915 Y35.532
G01 F480 X51.939 Y35.763
G01 F480 X51.915 Y35.995
G01 F480 X51.843 Y36.216
G01 F480 X51.726 Y36.418
G01 F480 X51.571 Y36.591
G01 F480 X51.382 Y36.728
G01 F480 X51.170 Y36.822
G01 F480 X50.942 Y36.871
G01 F480 X50.709 Y36.871
G00 F3000 Z3.000
G00 F3000 X10.069 Y36.871
G00 F1500 Z0
G01 F480 Z-0.200
G01 F480 X9.841 Y36.822
G01 F480 X9.629 Y36.728
G01 F480 X9.440 Y36.591
G01 F480 X9.284 Y36.418
G01 F480 X9.168 Y36.216
G01 F480 X9.096 Y35.995
G01 F480 X9.072 Y35.763
G01 F480 X9.096 Y35.532
G01 F480 X9.168 Y35.310
G01 F480 X9.284 Y35.109
G01 F480 X9.440 Y34.936
G01 F480 X9.629 Y34.799
G01 F480 X9.841 Y34.704
G01 F480 X10.069 Y34.656
G01 F480 X10.302 Y34.656
G01 F480 X10.530 Y34.704
G01 F480 X10.742 Y34.799
G01 F480 X10.931 Y34.936
G01 F480 X11.086 Y35.109
G01 F480 X11.203 Y35.310
G01 F480 X11.275 Y35.532
G01 F480 X11.299 Y35.763
G01 F480 X11.275 Y35.995
G01 F480 X11.203 Y36.216
G01 F480 X11.086 Y36.418
G01 F480 X10.931 Y36.591
G01 F480 X10.742 Y36.728
G01 F480 X10.530 Y36.822
G01 F480 X10.302 Y36.871
G01 F480 X10.069 Y36.871
G00 F3000 Z3.000
G00 F3000 X15.149 Y36.871
G00 F1500 Z0
G01 F480 Z-0.200
G01 F480 X14.921 Y36.822
G01 F480 X14.709 Y36.728
G01 F480 X14.520 Y36.591
G01 F480 X14.364 Y36.418
G01 F480 X14.248 Y36.216
G01 F480 X14.176 Y35.995
G01 F480 X14.152 Y35.763
G01 F480 X14.176 Y35.532
G01 F480 X14.248 Y35.310
G01 F480 X14.364 Y35.109
G01 F480 X14.520 Y34.936
G01 F480 X14.709 Y34.799
G01 F480 X14.921 Y34.704
G01 F480 X15.149 Y34.656
G01 F480 X15.382 Y34.656
G01 F480 X15.610 Y34.704
G01 F480 X15.822 Y34.799
G01 F480 X16.011 Y34.936
G01 F480 X16.166 Y35.109
G01 F480 X16.283 Y35.310
G01 F480 X16.355 Y35.532
G01 F480 X16.379 Y35.763
G01 F480 X16.355 Y35.995
G01 F480 X16.283 Y36.216
G01 F480 X16.166 Y36.418
G01 F480 X16.011 Y36.591
G01 F480 X15.822 Y36.728
G01 F480 X15.610 Y36.822
G01 F480 X15.382 Y36.871
G01 F480 X15.149 Y36.871
G00 F3000 Z3.000
G00 F3000 X32.929 Y36.871
G00 F1500 Z0
G01 F480 Z-0.200
G01 F480 X32.701 Y36.822
G01 F480 X32.489 Y36.728
G01 F480 X32.300 Y36.591
G01 F480 X32.144 Y36.418
G01 F480 X32.028 Y36.216
G01 F480 X31.956 Y35.995
G01 F480 X31.932 Y35.763
G01 F480 X31.956 Y35.532
G01 F480 X32.028 Y35.310
G01 F480 X32.144 Y35.109
G01 F480 X32.300 Y34.936
G01 F480 X32.489 Y34.799
G01 F480 X32.701 Y34.704
G01 F480 X32.929 Y34.656
G01 F480 X33.162 Y34.656
G01 F480 X33.390 Y34.704
G01 F480 X33.602 Y34.799
G01 F480 X33.791 Y34.936
G01 F480 X33.946 Y35.109
G01 F480 X34.063 Y35.310
G01 F480 X34.135 Y35.532
G01 F480 X34.159 Y35.763
G01 F480 X34.135 Y35.995
G01 F480 X34.063 Y36.216
G01 F480 X33.946 Y36.418
G01 F480 X33.791 Y36.591
G01 F480 X33.602 Y36.728
G01 F480 X33.390 Y36.822
G01 F480 X33.162 Y36.871
G01 F480 X32.929 Y36.871
G00 F3000 Z3.000
G00 F3000 X38.009 Y36.871
G00 F1500 Z0
G01 F480 Z-0.200
G01 F480 X37.781 Y36.822
G01 F480 X37.569 Y36.728
G01 F480 X37.380 Y36.591
G01 F480 X37.224 Y36.418
G01 F480 X37.108 Y36.216
G01 F480 X37.036 Y35.995
G01 F480 X37.012 Y35.763
G01 F480 X37.036 Y35.532
G01 F480 X37.108 Y35.310
G01 F480 X37.224 Y35.109
G01 F480 X37.380 Y34.936
G01 F480 X37.569 Y34.799
G01 F480 X37.781 Y34.704
G01 F480 X38.009 Y34.656
G01 F480 X38.242 Y34.656
G01 F480 X38.470 Y34.704
G01 F480 X38.682 Y34.799
G01 F480 X38.871 Y34.936
G01 F480 X39.026 Y35.109
G01 F480 X39.143 Y35.310
G01 F480 X39.215 Y35.532
G01 F480 X39.239 Y35.763
G01 F480 X39.215 Y35.995
G01 F480 X39.143 Y36.216
G01 F480 X39.026 Y36.418
G01 F480 X38.871 Y36.591
G01 F480 X38.682 Y36.728
G01 F480 X38.470 Y36.822
G01 F480 X38.242 Y36.871
G01 F480 X38.009 Y36.871
G00 F3000 Z3.000
G00 F3000 X20.229 Y36.871
G00 F1500 Z0
G01 F480 Z-0.200
G01 F480 X20.001 Y36.822
G01 F480 X19.789 Y36.728
G01 F480 X19.600 Y36.591
G01 F480 X19.444 Y36.418
G01 F480 X19.328 Y36.216
G01 F480 X19.256 Y35.995
G01 F480 X19.232 Y35.763
G01 F480 X19.256 Y35.532
G01 F480 X19.328 Y35.310
G01 F480 X19.444 Y35.109
G01 F480 X19.600 Y34.936
G01 F480 X19.789 Y34.799
G01 F480 X20.001 Y34.704
G01 F480 X20.229 Y34.656
G01 F480 X20.462 Y34.656
G01 F480 X20.690 Y34.704
G01 F480 X20.902 Y34.799
G01 F480 X21.091 Y34.936
G01 F480 X21.246 Y35.109
G01 F480 X21.363 Y35.310
G01 F480 X21.435 Y35.532
G01 F480 X21.459 Y35.763
G01 F480 X21.435 Y35.995
G01 F480 X21.363 Y36.216
G01 F480 X21.246 Y36.418
G01 F480 X21.091 Y36.591
G01 F480 X20.902 Y36.728
G01 F480 X20.690 Y36.822
G01 F480 X20.462 Y36.871
G01 F480 X20.229 Y36.871
G00 F3000 Z3.000
G00 F3000 X53.249 Y36.617
G00 F1500 Z0
G01 F480 Z-0.200
G01 F480 X53.021 Y36.568
G01 F480 X52.809 Y36.474
G01 F480 X52.620 Y36.337
G01 F480 X52.464 Y36.164
G01 F480 X52.348 Y35.962
G01 F480 X52.276 Y35.741
G01 F480 X52.252 Y35.509
G01 F480 X52.276 Y35.278
G01 F480 X52.348 Y35.056
G01 F480 X52.464 Y34.855
G01 F480 X52.620 Y34.681
G01 F480 X52.809 Y34.545
G01 F480 X53.021 Y34.450
G01 F480 X53.249 Y34.401
G01 F480 X53.482 Y34.401
G01 F480 X53.710 Y34.450
G01 F480 X53.922 Y34.545
G01 F480 X54.111 Y34.681
G01 F480 X54.266 Y34.855
G01 F480 X54.383 Y35.056
G01 F480 X54.455 Y35.278
G01 F480 X54.479 Y35.509
G01 F480 X54.455 Y35.741
G01 F480 X54.383 Y35.962
G01 F480 X54.266 Y36.164
G01 F480 X54.111 Y36.337
G01 F480 X53.922 Y36.474
G01 F480 X53.710 Y36.568
G01 F480 X53.482 Y36.617
G01 F480 X53.249 Y36.617
G00 F3000 Z3.000
G00 F3000 X7.529 Y36.617
G00 F1500 Z0
G01 F480 Z-0.200
G01 F480 X7.301 Y36.568
G01 F480 X7.089 Y36.474
G01 F480 X6.900 Y36.337
G01 F480 X6.744 Y36.164
G01 F480 X6.628 Y35.962
G01 F480 X6.556 Y35.741
G01 F480 X6.532 Y35.509
G01 F480 X6.556 Y35.278
G01 F480 X6.628 Y35.056
G01 F480 X6.744 Y34.855
G01 F480 X6.900 Y34.681
G01 F480 X7.089 Y34.545
G01 F480 X7.301 Y34.450
G01 F480 X7.529 Y34.401
G01 F480 X7.762 Y34.401
G01 F480 X7.990 Y34.450
G01 F480 X8.202 Y34.545
G01 F480 X8.391 Y34.681
G01 F480 X8.546 Y34.855
G01 F480 X8.663 Y35.056
G01 F480 X8.735 Y35.278
G01 F480 X8.759 Y35.509
G01 F480 X8.735 Y35.741
G01 F480 X8.663 Y35.962
G01 F480 X8.546 Y36.164
G01 F480 X8.391 Y36.337
G01 F480 X8.202 Y36.474
G01 F480 X7.990 Y36.568
G01 F480 X7.762 Y36.617
G01 F480 X7.529 Y36.617
G00 F3000 Z3.000
G00 F3000 X35.469 Y36.617
G00 F1500 Z0
G01 F480 Z-0.200
G01 F480 X35.241 Y36.568
G01 F480 X35.029 Y36.474
G01 F480 X34.840 Y36.337
G01 F480 X34.684 Y36.164
G01 F480 X34.568 Y35.962
G01 F480 X34.496 Y35.741
G01 F480 X34.472 Y35.509
G01 F480 X34.496 Y35.278
G01 F480 X34.568 Y35.056
G01 F480 X34.684 Y34.855
G01 F480 X34.840 Y34.681
G01 F480 X35.029 Y34.545
G01 F480 X35.241 Y34.450
G01 F480 X35.469 Y34.401
G01 F480 X35.702 Y34.401
G01 F480 X35.930 Y34.450
G01 F480 X36.142 Y34.545
G01 F480 X36.331 Y34.681
G01 F480 X36.486 Y34.855
G01 F480 X36.603 Y35.056
G01 F480 X36.675 Y35.278
G01 F480 X36.699 Y35.509
G01 F480 X36.675 Y35.741
G01 F480 X36.603 Y35.962
G01 F480 X36.486 Y36.164
G01 F480 X36.331 Y36.337
G01 F480 X36.142 Y36.474
G01 F480 X35.930 Y36.568
G01 F480 X35.702 Y36.617
G01 F480 X35.469 Y36.617
G00 F3000 Z3.000
G00 F3000 X17.689 Y36.617
G00 F1500 Z0
G01 F480 Z-0.200
G01 F480 X17.461 Y36.568
G01 F480 X17.248 Y36.474
G01 F480 X17.060 Y36.337
G01 F480 X16.904 Y36.164
G01 F480 X16.788 Y35.962
G01 F480 X16.716 Y35.741
G01 F480 X16.692 Y35.509
G01 F480 X16.716 Y35.278
G01 F480 X16.788 Y35.056
G01 F480 X16.904 Y34.855
G01 F480 X17.060 Y34.681
G01 F480 X17.248 Y34.545
G01 F480 X17.461 Y34.450
G01 F480 X17.689 Y34.401
G01 F480 X17.922 Y34.401
G01 F480 X18.150 Y34.450
G01 F480 X18.362 Y34.545
G01 F480 X18.551 Y34.681
G01 F480 X18.706 Y34.855
G01 F480 X18.823 Y35.056
G01 F480 X18.895 Y35.278
G01 F480 X18.919 Y35.509
G01 F480 X18.895 Y35.741
G01 F480 X18.823 Y35.962
G01 F480 X18.706 Y36.164
G01 F480 X18.551 Y36.337
G01 F480 X18.362 Y36.474
G01 F480 X18.150 Y36.568
G01 F480 X17.922 Y36.617
G01 F480 X17.689 Y36.617
G00 F3000 Z3.000
G00 F3000 X32.072 Y26.525
G00 F1500 Z0
G01 F480 Z-0.200
G01 F480 X32.072 Y24.579
G01 F480 X34.018 Y24.579
G01 F480 X34.018 Y26.525
G01 F480 X32.072 Y26.525
G00 F3000 Z3.000
G00 F3000 X49.852 Y26.525
G00 F1500 Z0
G01 F480 Z-0.200
G01 F480 X49.852 Y24.579
G01 F480 X51.798 Y24.579
G01 F480 X51.798 Y26.525
G01 F480 X49.852 Y26.525
G00 F3000 Z3.000
G00 F3000 X50.724 Y24.032
G00 F1500 Z0
G01 F480 Z-0.200
G01 F480 X50.524 Y23.989
G01 F480 X50.338 Y23.907
G01 F480 X50.174 Y23.787
G01 F480 X50.038 Y23.636
G01 F480 X49.936 Y23.459
G01 F480 X49.873 Y23.266
G01 F480 X49.851 Y23.063
G01 F480 X49.873 Y22.861
G01 F480 X49.936 Y22.667
G01 F480 X50.038 Y22.491
G01 F480 X50.174 Y22.339
G01 F480 X50.338 Y22.220
G01 F480 X50.524 Y22.137
G01 F480 X50.724 Y22.095
G01 F480 X50.927 Y22.095
G01 F480 X51.126 Y22.137
G01 F480 X51.312 Y22.220
G01 F480 X51.477 Y22.339
G01 F480 X51.608 Y22.484
G01 F480 X55.689 Y22.438
G01 F480 X57.891 Y20.257
G01 F480 X57.891 Y18.963
G01 F480 X57.882 Y18.959
G01 F480 X57.692 Y18.820
G01 F480 X57.534 Y18.645
G01 F480 X57.416 Y18.441
G01 F480 X57.344 Y18.217
G01 F480 X57.319 Y17.983
G01 F480 X57.344 Y17.749
G01 F480 X57.416 Y17.525
G01 F480 X57.534 Y17.321
G01 F480 X57.692 Y17.146
G01 F480 X57.882 Y17.008
G01 F480 X58.097 Y16.912
G01 F480 X58.328 Y16.863
G01 F480 X58.563 Y16.863
G01 F480 X58.686 Y16.889
G01 F480 X58.723 Y16.872
G01 F480 X58.842 Y16.847
G01 F480 X58.963 Y16.847
G01 F480 X59.082 Y16.873
G01 F480 X59.193 Y16.922
G01 F480 X59.291 Y16.993
G01 F480 X59.372 Y17.083
G01 F480 X59.433 Y17.188
G01 F480 X59.470 Y17.304
G01 F480 X59.483 Y17.424
G01 F480 X59.473 Y17.522
G01 F480 X59.475 Y17.525
G01 F480 X59.547 Y17.749
G01 F480 X59.572 Y17.983
G01 F480 X59.547 Y18.217
G01 F480 X59.475 Y18.441
G01 F480 X59.357 Y18.645
G01 F480 X59.199 Y18.820
G01 F480 X59.050 Y18.928
G01 F480 X59.050 Y20.507
G01 F480 X59.039 Y20.619
G01 F480 X59.001 Y20.734
G01 F480 X58.940 Y20.839
G01 F480 X58.868 Y20.919
G01 F480 X56.315 Y23.447
G01 F480 X56.221 Y23.515
G01 F480 X56.110 Y23.564
G01 F480 X55.992 Y23.589
G01 F480 X51.610 Y23.640
G01 F480 X51.477 Y23.787
G01 F480 X51.312 Y23.907
G01 F480 X51.126 Y23.989
G01 F480 X50.927 Y24.032
G01 F480 X50.724 Y24.032
G00 F3000 Z3.000
G00 F3000 X32.944 Y24.032
G00 F1500 Z0
G01 F480 Z-0.200
G01 F480 X32.744 Y23.989
G01 F480 X32.558 Y23.907
G01 F480 X32.394 Y23.787
G01 F480 X32.258 Y23.636
G01 F480 X32.156 Y23.459
G01 F480 X32.093 Y23.266
G01 F480 X32.071 Y23.063
G01 F480 X32.093 Y22.861
G01 F480 X32.156 Y22.667
G01 F480 X32.258 Y22.491
G01 F480 X32.394 Y22.339
G01 F480 X32.558 Y22.220
G01 F480 X32.744 Y22.137
G01 F480 X32.944 Y22.095
G01 F480 X33.147 Y22.095
G01 F480 X33.346 Y22.137
G01 F480 X33.532 Y22.220
G01 F480 X33.697 Y22.339
G01 F480 X33.828 Y22.484
G01 F480 X37.882 Y22.438
G01 F480 X40.061 Y20.259
G01 F480 X40.061 Y18.928
G01 F480 X39.912 Y18.820
G01 F480 X39.754 Y18.645
G01 F480 X39.636 Y18.441
G01 F480 X39.564 Y18.217
G01 F480 X39.539 Y17.983
G01 F480 X39.564 Y17.749
G01 F480 X39.634 Y17.531
G01 F480 X39.684 Y17.427
G01 F480 X39.679 Y17.374
G01 F480 X39.691 Y17.253
G01 F480 X39.729 Y17.137
G01 F480 X39.790 Y17.033
G01 F480 X39.871 Y16.942
G01 F480 X39.969 Y16.871
G01 F480 X40.080 Y16.822
G01 F480 X40.198 Y16.796
G01 F480 X40.320 Y16.796
G01 F480 X40.438 Y16.822
G01 F480 X40.536 Y16.865
G01 F480 X40.548 Y16.863
G01 F480 X40.783 Y16.863
G01 F480 X41.014 Y16.912
G01 F480 X41.229 Y17.008
G01 F480 X41.419 Y17.146
G01 F480 X41.577 Y17.321
G01 F480 X41.695 Y17.525
G01 F480 X41.767 Y17.749
G01 F480 X41.792 Y17.983
G01 F480 X41.767 Y18.217
G01 F480 X41.695 Y18.441
G01 F480 X41.577 Y18.645
G01 F480 X41.419 Y18.820
G01 F480 X41.229 Y18.959
G01 F480 X41.219 Y18.963
G01 F480 X41.219 Y20.507
G01 F480 X41.208 Y20.619
G01 F480 X41.170 Y20.734
G01 F480 X41.110 Y20.839
G01 F480 X41.038 Y20.919
G01 F480 X38.510 Y23.446
G01 F480 X38.416 Y23.515
G01 F480 X38.305 Y23.564
G01 F480 X38.187 Y23.589
G01 F480 X33.830 Y23.640
G01 F480 X33.697 Y23.787
G01 F480 X33.532 Y23.907
G01 F480 X33.346 Y23.989
G01 F480 X33.147 Y24.032
G01 F480 X32.944 Y24.032
G00 F3000 Z3.000
G00 F3000 X15.164 Y24.032
G00 F1500 Z0
G01 F480 Z-0.200
G01 F480 X14.964 Y23.989
G01 F480 X14.778 Y23.907
G01 F480 X14.614 Y23.787
G01 F480 X14.478 Y23.636
G01 F480 X14.376 Y23.459
G01 F480 X14.313 Y23.266
G01 F480 X14.291 Y23.063
G01 F480 X14.313 Y22.861
G01 F480 X14.376 Y22.667
G01 F480 X14.478 Y22.491
G01 F480 X14.614 Y22.339
G01 F480 X14.778 Y22.220
G01 F480 X14.964 Y22.137
G01 F480 X15.164 Y22.095
G01 F480 X15.367 Y22.095
G01 F480 X15.566 Y22.137
G01 F480 X15.752 Y22.220
G01 F480 X15.917 Y22.339
G01 F480 X16.048 Y22.484
G01 F480 X20.052 Y22.438
G01 F480 X22.254 Y20.258
G01 F480 X22.237 Y18.897
G01 F480 X22.132 Y18.820
G01 F480 X21.974 Y18.645
G01 F480 X21.856 Y18.441
G01 F480 X21.783 Y18.216
G01 F480 X21.768 Y18.033
G01 F480 X21.756 Y18.020
G01 F480 X21.695 Y17.915
G01 F480 X21.657 Y17.799
G01 F480 X21.645 Y17.678
G01 F480 X21.657 Y17.558
G01 F480 X21.695 Y17.442
G01 F480 X21.756 Y17.337
G01 F480 X21.837 Y17.247
G01 F480 X21.935 Y17.176
G01 F480 X22.046 Y17.127
G01 F480 X22.164 Y17.101
G01 F480 X22.194 Y17.101
G01 F480 X22.322 Y17.008
G01 F480 X22.537 Y16.912
G01 F480 X22.768 Y16.863
G01 F480 X23.003 Y16.863
G01 F480 X23.233 Y16.912
G01 F480 X23.449 Y17.008
G01 F480 X23.639 Y17.146
G01 F480 X23.797 Y17.321
G01 F480 X23.915 Y17.525
G01 F480 X23.987 Y17.749
G01 F480 X24.012 Y17.983
G01 F480 X23.987 Y18.217
G01 F480 X23.915 Y18.441
G01 F480 X23.797 Y18.645
G01 F480 X23.639 Y18.820
G01 F480 X23.449 Y18.959
G01 F480 X23.414 Y18.974
G01 F480 X23.414 Y20.507
G01 F480 X23.402 Y20.619
G01 F480 X23.365 Y20.734
G01 F480 X23.304 Y20.839
G01 F480 X23.232 Y20.919
G01 F480 X20.679 Y23.447
G01 F480 X20.585 Y23.515
G01 F480 X20.474 Y23.564
G01 F480 X20.356 Y23.589
G01 F480 X16.050 Y23.640
G01 F480 X15.917 Y23.787
G01 F480 X15.752 Y23.907
G01 F480 X15.566 Y23.989
G01 F480 X15.367 Y24.032
G01 F480 X15.164 Y24.032
G00 F3000 Z3.000
G00 F3000 X10.069 Y14.011
G00 F1500 Z0
G01 F480 Z-0.200
G01 F480 X9.841 Y13.962
G01 F480 X9.629 Y13.868
G01 F480 X9.440 Y13.731
G01 F480 X9.284 Y13.558
G01 F480 X9.168 Y13.356
G01 F480 X9.096 Y13.135
G01 F480 X9.072 Y12.903
G01 F480 X9.096 Y12.672
G01 F480 X9.168 Y12.450
G01 F480 X9.284 Y12.249
G01 F480 X9.440 Y12.075
G01 F480 X9.629 Y11.939
G01 F480 X9.841 Y11.844
G01 F480 X10.069 Y11.796
G01 F480 X10.302 Y11.796
G01 F480 X10.530 Y11.844
G01 F480 X10.742 Y11.939
G01 F480 X10.931 Y12.075
G01 F480 X11.086 Y12.249
G01 F480 X11.203 Y12.450
G01 F480 X11.275 Y12.672
G01 F480 X11.299 Y12.903
G01 F480 X11.275 Y13.135
G01 F480 X11.203 Y13.356
G01 F480 X11.086 Y13.558
G01 F480 X10.931 Y13.731
G01 F480 X10.742 Y13.868
G01 F480 X10.530 Y13.962
G01 F480 X10.302 Y14.011
G01 F480 X10.069 Y14.011
G00 F3000 Z3.000
G00 F3000 X27.849 Y14.011
G00 F1500 Z0
G01 F480 Z-0.200
G01 F480 X27.621 Y13.962
G01 F480 X27.409 Y13.868
G01 F480 X27.220 Y13.731
G01 F480 X27.064 Y13.558
G01 F480 X26.948 Y13.356
G01 F480 X26.876 Y13.135
G01 F480 X26.852 Y12.903
G01 F480 X26.876 Y12.672
G01 F480 X26.948 Y12.450
G01 F480 X27.064 Y12.249
G01 F480 X27.220 Y12.075
G01 F480 X27.409 Y11.939
G01 F480 X27.621 Y11.844
G01 F480 X27.849 Y11.796
G01 F480 X28.082 Y11.796
G01 F480 X28.310 Y11.844
G01 F480 X28.522 Y11.939
G01 F480 X28.711 Y12.075
G01 F480 X28.866 Y12.249
G01 F480 X28.983 Y12.450
G01 F480 X29.055 Y12.672
G01 F480 X29.079 Y12.903
G01 F480 X29.055 Y13.135
G01 F480 X28.983 Y13.356
G01 F480 X28.866 Y13.558
G01 F480 X28.711 Y13.731
G01 F480 X28.522 Y13.868
G01 F480 X28.310 Y13.962
G01 F480 X28.082 Y14.011
G01 F480 X27.849 Y14.011
G00 F3000 Z3.000
G00 F3000 X32.929 Y14.011
G00 F1500 Z0
G01 F480 Z-0.200
G01 F480 X32.701 Y13.962
G01 F480 X32.489 Y13.868
G01 F480 X32.300 Y13.731
G01 F480 X32.144 Y13.558
G01 F480 X32.028 Y13.356
G01 F480 X31.956 Y13.135
G01 F480 X31.932 Y12.903
G01 F480 X31.956 Y12.672
G01 F480 X32.028 Y12.450
G01 F480 X32.144 Y12.249
G01 F480 X32.300 Y12.075
G01 F480 X32.489 Y11.939
G01 F480 X32.701 Y11.844
G01 F480 X32.929 Y11.796
G01 F480 X33.162 Y11.796
G01 F480 X33.390 Y11.844
G01 F480 X33.602 Y11.939
G01 F480 X33.791 Y12.075
G01 F480 X33.933 Y12.234
G01 F480 X34.586 Y12.165
G01 F480 X34.684 Y11.995
G01 F480 X34.840 Y11.822
G01 F480 X35.029 Y11.685
G01 F480 X35.241 Y11.590
G01 F480 X35.469 Y11.542
G01 F480 X35.702 Y11.542
G01 F480 X35.930 Y11.590
G01 F480 X36.142 Y11.685
G01 F480 X36.331 Y11.822
G01 F480 X36.486 Y11.995
G01 F480 X36.603 Y12.196
G01 F480 X36.675 Y12.418
G01 F480 X36.699 Y12.649
G01 F480 X36.675 Y12.881
G01 F480 X36.603 Y13.102
G01 F480 X36.486 Y13.304
G01 F480 X36.331 Y13.477
G01 F480 X36.142 Y13.614
G01 F480 X35.930 Y13.708
G01 F480 X35.702 Y13.757
G01 F480 X35.469 Y13.757
G01 F480 X35.241 Y13.708
G01 F480 X35.029 Y13.614
G01 F480 X34.840 Y13.477
G01 F480 X34.698 Y13.319
G01 F480 X34.045 Y13.387
G01 F480 X33.946 Y13.558
G01 F480 X33.791 Y13.731
G01 F480 X33.602 Y13.868
G01 F480 X33.390 Y13.962
G01 F480 X33.162 Y14.011
G01 F480 X32.929 Y14.011
G00 F3000 Z3.000
G00 F3000 X15.149 Y14.011
G00 F1500 Z0
G01 F480 Z-0.200
G01 F480 X14.921 Y13.962
G01 F480 X14.709 Y13.868
G01 F480 X14.520 Y13.731
G01 F480 X14.364 Y13.558
G01 F480 X14.248 Y13.356
G01 F480 X14.176 Y13.135
G01 F480 X14.152 Y12.903
G01 F480 X14.176 Y12.672
G01 F480 X14.248 Y12.450
G01 F480 X14.364 Y12.249
G01 F480 X14.520 Y12.075
G01 F480 X14.709 Y11.939
G01 F480 X14.921 Y11.844
G01 F480 X15.149 Y11.796
G01 F480 X15.382 Y11.796
G01 F480 X15.610 Y11.844
G01 F480 X15.822 Y11.939
G01 F480 X16.011 Y12.075
G01 F480 X16.166 Y12.249
G01 F480 X16.283 Y12.450
G01 F480 X16.355 Y12.672
G01 F480 X16.379 Y12.903
G01 F480 X16.355 Y13.135
G01 F480 X16.283 Y13.356
G01 F480 X16.166 Y13.558
G01 F480 X16.011 Y13.731
G01 F480 X15.822 Y13.868
G01 F480 X15.610 Y13.962
G01 F480 X15.382 Y14.011
G01 F480 X15.149 Y14.011
G00 F3000 Z3.000
G00 F3000 X45.629 Y14.011
G00 F1500 Z0
G01 F480 Z-0.200
G01 F480 X45.401 Y13.962
G01 F480 X45.189 Y13.868
G01 F480 X45.000 Y13.731
G01 F480 X44.844 Y13.558
G01 F480 X44.728 Y13.356
G01 F480 X44.656 Y13.135
G01 F480 X44.632 Y12.903
G01 F480 X44.656 Y12.672
G01 F480 X44.728 Y12.450
G01 F480 X44.844 Y12.249
G01 F480 X45.000 Y12.075
G01 F480 X45.189 Y11.939
G01 F480 X45.401 Y11.844
G01 F480 X45.629 Y11.796
G01 F480 X45.862 Y11.796
G01 F480 X46.090 Y11.844
G01 F480 X46.302 Y11.939
G01 F480 X46.491 Y12.075
G01 F480 X46.646 Y12.249
G01 F480 X46.763 Y12.450
G01 F480 X46.835 Y12.672
G01 F480 X46.859 Y12.903
G01 F480 X46.835 Y13.135
G01 F480 X46.763 Y13.356
G01 F480 X46.646 Y13.558
G01 F480 X46.491 Y13.731
G01 F480 X46.302 Y13.868
G01 F480 X46.090 Y13.962
G01 F480 X45.862 Y14.011
G01 F480 X45.629 Y14.011
G00 F3000 Z3.000
G00 F3000 X7.529 Y13.757
G00 F1500 Z0
G01 F480 Z-0.200
G01 F480 X7.301 Y13.708
G01 F480 X7.089 Y13.614
G01 F480 X6.900 Y13.477
G01 F480 X6.744 Y13.304
G01 F480 X6.628 Y13.102
G01 F480 X6.556 Y12.881
G01 F480 X6.532 Y12.649
G01 F480 X6.556 Y12.418
G01 F480 X6.628 Y12.196
G01 F480 X6.744 Y11.995
G01 F480 X6.900 Y11.822
G01 F480 X7.089 Y11.685
G01 F480 X7.301 Y11.590
G01 F480 X7.529 Y11.542
G01 F480 X7.762 Y11.542
G01 F480 X7.990 Y11.590
G01 F480 X8.202 Y11.685
G01 F480 X8.391 Y11.822
G01 F480 X8.546 Y11.995
G01 F480 X8.663 Y12.196
G01 F480 X8.735 Y12.418
G01 F480 X8.759 Y12.649
G01 F480 X8.735 Y12.881
G01 F480 X8.663 Y13.102
G01 F480 X8.546 Y13.304
G01 F480 X8.391 Y13.477
G01 F480 X8.202 Y13.614
G01 F480 X7.990 Y13.708
G01 F480 X7.762 Y13.757
G01 F480 X7.529 Y13.757
G00 F3000 Z3.000
G00 F3000 X25.309 Y13.757
G00 F1500 Z0
G01 F480 Z-0.200
G01 F480 X25.081 Y13.708
G01 F480 X24.869 Y13.614
G01 F480 X24.680 Y13.477
G01 F480 X24.524 Y13.304
G01 F480 X24.408 Y13.102
G01 F480 X24.336 Y12.881
G01 F480 X24.312 Y12.649
G01 F480 X24.336 Y12.418
G01 F480 X24.408 Y12.196
G01 F480 X24.524 Y11.995
G01 F480 X24.680 Y11.822
G01 F480 X24.869 Y11.685
G01 F480 X25.081 Y11.590
G01 F480 X25.309 Y11.542
G01 F480 X25.542 Y11.542
G01 F480 X25.770 Y11.590
G01 F480 X25.982 Y11.685
G01 F480 X26.171 Y11.822
G01 F480 X26.326 Y11.995
G01 F480 X26.443 Y12.196
G01 F480 X26.515 Y12.418
G01 F480 X26.539 Y12.649
G01 F480 X26.515 Y12.881
G01 F480 X26.443 Y13.102
G01 F480 X26.326 Y13.304
G01 F480 X26.171 Y13.477
G01 F480 X25.982 Y13.614
G01 F480 X25.770 Y13.708
G01 F480 X25.542 Y13.757
G01 F480 X25.309 Y13.757
G00 F3000 Z3.000
G00 F3000 X17.689 Y13.757
G00 F1500 Z0
G01 F480 Z-0.200
G01 F480 X17.461 Y13.708
G01 F480 X17.248 Y13.614
G01 F480 X17.060 Y13.477
G01 F480 X16.904 Y13.304
G01 F480 X16.788 Y13.102
G01 F480 X16.716 Y12.881
G01 F480 X16.692 Y12.649
G01 F480 X16.716 Y12.418
G01 F480 X16.788 Y12.196
G01 F480 X16.904 Y11.995
G01 F480 X17.060 Y11.822
G01 F480 X17.248 Y11.685
G01 F480 X17.461 Y11.590
G01 F480 X17.689 Y11.542
G01 F480 X17.922 Y11.542
G01 F480 X18.150 Y11.590
G01 F480 X18.362 Y11.685
G01 F480 X18.551 Y11.822
G01 F480 X18.706 Y11.995
G01 F480 X18.823 Y12.196
G01 F480 X18.895 Y12.418
G01 F480 X18.919 Y12.649
G01 F480 X18.895 Y12.881
G01 F480 X18.823 Y13.102
G01 F480 X18.706 Y13.304
G01 F480 X18.551 Y13.477
G01 F480 X18.362 Y13.614
G01 F480 X18.150 Y13.708
G01 F480 X17.922 Y13.757
G01 F480 X17.689 Y13.757
G00 F3000 Z3.000
G00 F3000 X53.249 Y13.757
G00 F1500 Z0
G01 F480 Z-0.200
G01 F480 X53.021 Y13.708
G01 F480 X52.809 Y13.614
G01 F480 X52.620 Y13.477
G01 F480 X52.464 Y13.304
G01 F480 X52.348 Y13.102
G01 F480 X52.276 Y12.881
G01 F480 X52.252 Y12.649
G01 F480 X52.276 Y12.418
G01 F480 X52.348 Y12.196
G01 F480 X52.464 Y11.995
G01 F480 X52.620 Y11.822
G01 F480 X52.809 Y11.685
G01 F480 X53.021 Y11.590
G01 F480 X53.249 Y11.542
G01 F480 X53.482 Y11.542
G01 F480 X53.710 Y11.590
G01 F480 X53.922 Y11.685
G01 F480 X54.111 Y11.822
G01 F480 X54.266 Y11.995
G01 F480 X54.383 Y12.196
G01 F480 X54.455 Y12.418
G01 F480 X54.479 Y12.649
G01 F480 X54.455 Y12.881
G01 F480 X54.383 Y13.102
G01 F480 X54.266 Y13.304
G01 F480 X54.111 Y13.477
G01 F480 X53.922 Y13.614
G01 F480 X53.710 Y13.708
G01 F480 X53.482 Y13.757
G01 F480 X53.249 Y13.757
G00 F3000 Z3.000
G00 F3000 X43.089 Y13.757
G00 F1500 Z0
G01 F480 Z-0.200
G01 F480 X42.861 Y13.708
G01 F480 X42.648 Y13.614
G01 F480 X42.460 Y13.477
G01 F480 X42.304 Y13.304
G01 F480 X42.188 Y13.102
G01 F480 X42.116 Y12.881
G01 F480 X42.092 Y12.649
G01 F480 X42.116 Y12.418
G01 F480 X42.188 Y12.196
G01 F480 X42.304 Y11.995
G01 F480 X42.460 Y11.822
G01 F480 X42.648 Y11.685
G01 F480 X42.861 Y11.590
G01 F480 X43.089 Y11.542
G01 F480 X43.322 Y11.542
G01 F480 X43.550 Y11.590
G01 F480 X43.762 Y11.685
G01 F480 X43.951 Y11.822
G01 F480 X44.106 Y11.995
G01 F480 X44.223 Y12.196
G01 F480 X44.295 Y12.418
G01 F480 X44.319 Y12.649
G01 F480 X44.295 Y12.881
G01 F480 X44.223 Y13.102
G01 F480 X44.106 Y13.304
G01 F480 X43.951 Y13.477
G01 F480 X43.762 Y13.614
G01 F480 X43.550 Y13.708
G01 F480 X43.322 Y13.757
G01 F480 X43.089 Y13.757
G00 F3000 Z3.000
G00 F3000 Z3.000
G00 F3000 X0.000 Y0.000
M05
M30
%