( PCB Contour )
( Generated by Rapid-PCB.com )
( Material Size)
( X= 72.290, Y= 100.000, Z= 1.490)
()
G00
G17
G21
G40
G49
G54
G80
G90
G94
G00 F3000 Z3.000
M03 S9000
G00 F3000 X15.148 Y59.740
G00 F1500 Z0
G01 F480 Z-0.200
G01 F480 X14.918 Y59.691
G01 F480 X14.704 Y59.595
G01 F480 X14.514 Y59.457
G01 F480 X14.357 Y59.283
G01 F480 X14.240 Y59.080
G01 F480 X14.167 Y58.857
G01 F480 X14.143 Y58.623
G01 F480 X14.167 Y58.390
G01 F480 X14.240 Y58.167
G01 F480 X14.357 Y57.963
G01 F480 X14.514 Y57.789
G01 F480 X14.704 Y57.651
G01 F480 X14.918 Y57.556
G01 F480 X15.148 Y57.507
G01 F480 X15.383 Y57.507
G01 F480 X15.612 Y57.556
G01 F480 X15.827 Y57.651
G01 F480 X16.017 Y57.789
G01 F480 X16.174 Y57.963
G01 F480 X16.291 Y58.167
G01 F480 X16.363 Y58.390
G01 F480 X16.388 Y58.623
G01 F480 X16.363 Y58.857
G01 F480 X16.291 Y59.080
G01 F480 X16.174 Y59.283
G01 F480 X16.017 Y59.457
G01 F480 X15.827 Y59.595
G01 F480 X15.612 Y59.691
G01 F480 X15.383 Y59.740
G01 F480 X15.148 Y59.740
G00 F3000 Z3.000
G00 F3000 X32.928 Y59.740
G00 F1500 Z0
G01 F480 Z-0.200
G01 F480 X32.699 Y59.691
G01 F480 X32.484 Y59.595
G01 F480 X32.294 Y59.457
G01 F480 X32.137 Y59.283
G01 F480 X32.020 Y59.080
G01 F480 X31.947 Y58.857
G01 F480 X31.923 Y58.623
G01 F480 X31.947 Y58.390
G01 F480 X32.020 Y58.167
G01 F480 X32.137 Y57.963
G01 F480 X32.294 Y57.789
G01 F480 X32.484 Y57.651
G01 F480 X32.699 Y57.556
G01 F480 X32.928 Y57.507
G01 F480 X33.163 Y57.507
G01 F480 X33.392 Y57.556
G01 F480 X33.607 Y57.651
G01 F480 X33.797 Y57.789
G01 F480 X33.954 Y57.963
G01 F480 X34.071 Y58.167
G01 F480 X34.143 Y58.390
G01 F480 X34.168 Y58.623
G01 F480 X34.143 Y58.857
G01 F480 X34.071 Y59.080
G01 F480 X33.954 Y59.283
G01 F480 X33.797 Y59.457
G01 F480 X33.607 Y59.595
G01 F480 X33.392 Y59.691
G01 F480 X33.163 Y59.740
G01 F480 X32.928 Y59.740
G00 F3000 Z3.000
G00 F3000 X27.848 Y59.740
G00 F1500 Z0
G01 F480 Z-0.200
G01 F480 X27.619 Y59.691
G01 F480 X27.404 Y59.595
G01 F480 X27.214 Y59.457
G01 F480 X27.057 Y59.283
G01 F480 X26.940 Y59.080
G01 F480 X26.867 Y58.857
G01 F480 X26.843 Y58.623
G01 F480 X26.867 Y58.390
G01 F480 X26.940 Y58.167
G01 F480 X27.057 Y57.963
G01 F480 X27.214 Y57.789
G01 F480 X27.404 Y57.651
G01 F480 X27.619 Y57.556
G01 F480 X27.848 Y57.507
G01 F480 X28.083 Y57.507
G01 F480 X28.312 Y57.556
G01 F480 X28.527 Y57.651
G01 F480 X28.717 Y57.789
G01 F480 X28.874 Y57.963
G01 F480 X28.991 Y58.167
G01 F480 X29.063 Y58.390
G01 F480 X29.088 Y58.623
G01 F480 X29.063 Y58.857
G01 F480 X28.991 Y59.080
G01 F480 X28.874 Y59.283
G01 F480 X28.717 Y59.457
G01 F480 X28.527 Y59.595
G01 F480 X28.312 Y59.691
G01 F480 X28.083 Y59.740
G01 F480 X27.848 Y59.740
G00 F3000 Z3.000
G00 F3000 X45.628 Y59.740
G00 F1500 Z0
G01 F480 Z-0.200
G01 F480 X45.399 Y59.691
G01 F480 X45.184 Y59.595
G01 F480 X44.994 Y59.457
G01 F480 X44.837 Y59.283
G01 F480 X44.720 Y59.080
G01 F480 X44.647 Y58.857
G01 F480 X44.623 Y58.623
G01 F480 X44.647 Y58.390
G01 F480 X44.720 Y58.167
G01 F480 X44.837 Y57.963
G01 F480 X44.994 Y57.789
G01 F480 X45.184 Y57.651
G01 F480 X45.399 Y57.556
G01 F480 X45.628 Y57.507
G01 F480 X45.863 Y57.507
G01 F480 X46.092 Y57.556
G01 F480 X46.307 Y57.651
G01 F480 X46.497 Y57.789
G01 F480 X46.654 Y57.963
G01 F480 X46.771 Y58.167
G01 F480 X46.843 Y58.390
G01 F480 X46.868 Y58.623
G01 F480 X46.843 Y58.857
G01 F480 X46.771 Y59.080
G01 F480 X46.654 Y59.283
G01 F480 X46.497 Y59.457
G01 F480 X46.307 Y59.595
G01 F480 X46.092 Y59.691
G01 F480 X45.863 Y59.740
G01 F480 X45.628 Y59.740
G00 F3000 Z3.000
G00 F3000 X12.608 Y59.739
G00 F1500 Z0
G01 F480 Z-0.200
G01 F480 X12.379 Y59.691
G01 F480 X12.164 Y59.595
G01 F480 X11.975 Y59.457
G01 F480 X11.818 Y59.283
G01 F480 X11.700 Y59.080
G01 F480 X11.628 Y58.857
G01 F480 X11.603 Y58.623
G01 F480 X11.628 Y58.390
G01 F480 X11.700 Y58.167
G01 F480 X11.818 Y57.964
G01 F480 X11.975 Y57.789
G01 F480 X12.164 Y57.651
G01 F480 X12.379 Y57.556
G01 F480 X12.608 Y57.507
G01 F480 X12.843 Y57.507
G01 F480 X13.072 Y57.556
G01 F480 X13.287 Y57.651
G01 F480 X13.476 Y57.789
G01 F480 X13.633 Y57.964
G01 F480 X13.751 Y58.167
G01 F480 X13.823 Y58.390
G01 F480 X13.848 Y58.623
G01 F480 X13.823 Y58.857
G01 F480 X13.751 Y59.080
G01 F480 X13.633 Y59.283
G01 F480 X13.476 Y59.457
G01 F480 X13.287 Y59.595
G01 F480 X13.072 Y59.691
G01 F480 X12.843 Y59.739
G01 F480 X12.608 Y59.739
G00 F3000 Z3.000
G00 F3000 X10.068 Y59.739
G00 F1500 Z0
G01 F480 Z-0.200
G01 F480 X9.839 Y59.691
G01 F480 X9.624 Y59.595
G01 F480 X9.434 Y59.457
G01 F480 X9.277 Y59.283
G01 F480 X9.160 Y59.080
G01 F480 X9.088 Y58.857
G01 F480 X9.063 Y58.623
G01 F480 X9.088 Y58.390
G01 F480 X9.160 Y58.167
G01 F480 X9.277 Y57.964
G01 F480 X9.434 Y57.789
G01 F480 X9.624 Y57.651
G01 F480 X9.839 Y57.556
G01 F480 X10.068 Y57.507
G01 F480 X10.303 Y57.507
G01 F480 X10.532 Y57.556
G01 F480 X10.747 Y57.651
G01 F480 X10.936 Y57.789
G01 F480 X11.093 Y57.964
G01 F480 X11.211 Y58.167
G01 F480 X11.283 Y58.390
G01 F480 X11.308 Y58.623
G01 F480 X11.283 Y58.857
G01 F480 X11.211 Y59.080
G01 F480 X11.093 Y59.283
G01 F480 X10.936 Y59.457
G01 F480 X10.747 Y59.595
G01 F480 X10.532 Y59.691
G01 F480 X10.303 Y59.739
G01 F480 X10.068 Y59.739
G00 F3000 Z3.000
G00 F3000 X17.688 Y59.739
G00 F1500 Z0
G01 F480 Z-0.200
G01 F480 X17.459 Y59.691
G01 F480 X17.244 Y59.595
G01 F480 X17.055 Y59.457
G01 F480 X16.898 Y59.283
G01 F480 X16.780 Y59.080
G01 F480 X16.708 Y58.857
G01 F480 X16.683 Y58.623
G01 F480 X16.708 Y58.390
G01 F480 X16.780 Y58.167
G01 F480 X16.898 Y57.964
G01 F480 X17.055 Y57.789
G01 F480 X17.244 Y57.651
G01 F480 X17.459 Y57.556
G01 F480 X17.688 Y57.507
G01 F480 X17.923 Y57.507
G01 F480 X18.152 Y57.556
G01 F480 X18.367 Y57.651
G01 F480 X18.556 Y57.789
G01 F480 X18.713 Y57.964
G01 F480 X18.831 Y58.167
G01 F480 X18.903 Y58.390
G01 F480 X18.928 Y58.623
G01 F480 X18.903 Y58.857
G01 F480 X18.831 Y59.080
G01 F480 X18.713 Y59.283
G01 F480 X18.556 Y59.457
G01 F480 X18.367 Y59.595
G01 F480 X18.152 Y59.691
G01 F480 X17.923 Y59.739
G01 F480 X17.688 Y59.739
G00 F3000 Z3.000
G00 F3000 X7.528 Y59.739
G00 F1500 Z0
G01 F480 Z-0.200
G01 F480 X7.299 Y59.691
G01 F480 X7.084 Y59.595
G01 F480 X6.895 Y59.457
G01 F480 X6.738 Y59.283
G01 F480 X6.620 Y59.080
G01 F480 X6.548 Y58.857
G01 F480 X6.523 Y58.623
G01 F480 X6.548 Y58.390
G01 F480 X6.620 Y58.167
G01 F480 X6.738 Y57.964
G01 F480 X6.895 Y57.789
G01 F480 X7.084 Y57.651
G01 F480 X7.299 Y57.556
G01 F480 X7.528 Y57.507
G01 F480 X7.763 Y57.507
G01 F480 X7.992 Y57.556
G01 F480 X8.207 Y57.651
G01 F480 X8.396 Y57.789
G01 F480 X8.553 Y57.964
G01 F480 X8.671 Y58.167
G01 F480 X8.743 Y58.390
G01 F480 X8.768 Y58.623
G01 F480 X8.743 Y58.857
G01 F480 X8.671 Y59.080
G01 F480 X8.553 Y59.283
G01 F480 X8.396 Y59.457
G01 F480 X8.207 Y59.595
G01 F480 X7.992 Y59.691
G01 F480 X7.763 Y59.739
G01 F480 X7.528 Y59.739
G00 F3000 Z3.000
G00 F3000 X30.388 Y59.739
G00 F1500 Z0
G01 F480 Z-0.200
G01 F480 X30.159 Y59.691
G01 F480 X29.944 Y59.595
G01 F480 X29.755 Y59.457
G01 F480 X29.598 Y59.283
G01 F480 X29.480 Y59.080
G01 F480 X29.408 Y58.857
G01 F480 X29.383 Y58.623
G01 F480 X29.408 Y58.390
G01 F480 X29.480 Y58.167
G01 F480 X29.598 Y57.964
G01 F480 X29.755 Y57.789
G01 F480 X29.944 Y57.651
G01 F480 X30.159 Y57.556
G01 F480 X30.388 Y57.507
G01 F480 X30.623 Y57.507
G01 F480 X30.852 Y57.556
G01 F480 X31.067 Y57.651
G01 F480 X31.256 Y57.789
G01 F480 X31.413 Y57.964
G01 F480 X31.531 Y58.167
G01 F480 X31.603 Y58.390
G01 F480 X31.628 Y58.623
G01 F480 X31.603 Y58.857
G01 F480 X31.531 Y59.080
G01 F480 X31.413 Y59.283
G01 F480 X31.256 Y59.457
G01 F480 X31.067 Y59.595
G01 F480 X30.852 Y59.691
G01 F480 X30.623 Y59.739
G01 F480 X30.388 Y59.739
G00 F3000 Z3.000
G00 F3000 X38.008 Y59.739
G00 F1500 Z0
G01 F480 Z-0.200
G01 F480 X37.779 Y59.691
G01 F480 X37.564 Y59.595
G01 F480 X37.375 Y59.457
G01 F480 X37.218 Y59.283
G01 F480 X37.100 Y59.080
G01 F480 X37.028 Y58.857
G01 F480 X37.003 Y58.623
G01 F480 X37.028 Y58.390
G01 F480 X37.100 Y58.167
G01 F480 X37.218 Y57.964
G01 F480 X37.375 Y57.789
G01 F480 X37.564 Y57.651
G01 F480 X37.779 Y57.556
G01 F480 X38.008 Y57.507
G01 F480 X38.243 Y57.507
G01 F480 X38.472 Y57.556
G01 F480 X38.687 Y57.651
G01 F480 X38.876 Y57.789
G01 F480 X39.033 Y57.964
G01 F480 X39.151 Y58.167
G01 F480 X39.223 Y58.390
G01 F480 X39.248 Y58.623
G01 F480 X39.223 Y58.857
G01 F480 X39.151 Y59.080
G01 F480 X39.033 Y59.283
G01 F480 X38.876 Y59.457
G01 F480 X38.687 Y59.595
G01 F480 X38.472 Y59.691
G01 F480 X38.243 Y59.739
G01 F480 X38.008 Y59.739
G00 F3000 Z3.000
G00 F3000 X35.468 Y59.739
G00 F1500 Z0
G01 F480 Z-0.200
G01 F480 X35.239 Y59.691
G01 F480 X35.024 Y59.595
G01 F480 X34.834 Y59.457
G01 F480 X34.678 Y59.283
G01 F480 X34.560 Y59.080
G01 F480 X34.488 Y58.857
G01 F480 X34.463 Y58.623
G01 F480 X34.488 Y58.390
G01 F480 X34.560 Y58.167
G01 F480 X34.678 Y57.964
G01 F480 X34.834 Y57.789
G01 F480 X35.024 Y57.651
G01 F480 X35.239 Y57.556
G01 F480 X35.468 Y57.507
G01 F480 X35.703 Y57.507
G01 F480 X35.932 Y57.556
G01 F480 X36.147 Y57.651
G01 F480 X36.336 Y57.789
G01 F480 X36.493 Y57.964
G01 F480 X36.611 Y58.167
G01 F480 X36.683 Y58.390
G01 F480 X36.708 Y58.623
G01 F480 X36.683 Y58.857
G01 F480 X36.611 Y59.080
G01 F480 X36.493 Y59.283
G01 F480 X36.336 Y59.457
G01 F480 X36.147 Y59.595
G01 F480 X35.932 Y59.691
G01 F480 X35.703 Y59.739
G01 F480 X35.468 Y59.739
G00 F3000 Z3.000
G00 F3000 X22.768 Y59.739
G00 F1500 Z0
G01 F480 Z-0.200
G01 F480 X22.539 Y59.691
G01 F480 X22.324 Y59.595
G01 F480 X22.135 Y59.457
G01 F480 X21.978 Y59.283
G01 F480 X21.860 Y59.080
G01 F480 X21.788 Y58.857
G01 F480 X21.763 Y58.623
G01 F480 X21.788 Y58.390
G01 F480 X21.860 Y58.167
G01 F480 X21.978 Y57.964
G01 F480 X22.135 Y57.789
G01 F480 X22.324 Y57.651
G01 F480 X22.539 Y57.556
G01 F480 X22.768 Y57.507
G01 F480 X23.003 Y57.507
G01 F480 X23.232 Y57.556
G01 F480 X23.447 Y57.651
G01 F480 X23.636 Y57.789
G01 F480 X23.793 Y57.964
G01 F480 X23.911 Y58.167
G01 F480 X23.983 Y58.390
G01 F480 X24.008 Y58.623
G01 F480 X23.983 Y58.857
G01 F480 X23.911 Y59.080
G01 F480 X23.793 Y59.283
G01 F480 X23.636 Y59.457
G01 F480 X23.447 Y59.595
G01 F480 X23.232 Y59.691
G01 F480 X23.003 Y59.739
G01 F480 X22.768 Y59.739
G00 F3000 Z3.000
G00 F3000 X20.228 Y59.739
G00 F1500 Z0
G01 F480 Z-0.200
G01 F480 X19.999 Y59.691
G01 F480 X19.784 Y59.595
G01 F480 X19.595 Y59.457
G01 F480 X19.438 Y59.283
G01 F480 X19.320 Y59.080
G01 F480 X19.248 Y58.857
G01 F480 X19.223 Y58.623
G01 F480 X19.248 Y58.390
G01 F480 X19.320 Y58.167
G01 F480 X19.438 Y57.964
G01 F480 X19.595 Y57.789
G01 F480 X19.784 Y57.651
G01 F480 X19.999 Y57.556
G01 F480 X20.228 Y57.507
G01 F480 X20.463 Y57.507
G01 F480 X20.692 Y57.556
G01 F480 X20.907 Y57.651
G01 F480 X21.096 Y57.789
G01 F480 X21.253 Y57.964
G01 F480 X21.371 Y58.167
G01 F480 X21.443 Y58.390
G01 F480 X21.468 Y58.623
G01 F480 X21.443 Y58.857
G01 F480 X21.371 Y59.080
G01 F480 X21.253 Y59.283
G01 F480 X21.096 Y59.457
G01 F480 X20.907 Y59.595
G01 F480 X20.692 Y59.691
G01 F480 X20.463 Y59.739
G01 F480 X20.228 Y59.739
G00 F3000 Z3.000
G00 F3000 X25.308 Y59.739
G00 F1500 Z0
G01 F480 Z-0.200
G01 F480 X25.079 Y59.691
G01 F480 X24.864 Y59.595
G01 F480 X24.675 Y59.457
G01 F480 X24.518 Y59.283
G01 F480 X24.400 Y59.080
G01 F480 X24.328 Y58.857
G01 F480 X24.303 Y58.623
G01 F480 X24.328 Y58.390
G01 F480 X24.400 Y58.167
G01 F480 X24.518 Y57.964
G01 F480 X24.675 Y57.789
G01 F480 X24.864 Y57.651
G01 F480 X25.079 Y57.556
G01 F480 X25.308 Y57.507
G01 F480 X25.543 Y57.507
G01 F480 X25.772 Y57.556
G01 F480 X25.986 Y57.651
G01 F480 X26.176 Y57.789
G01 F480 X26.333 Y57.964
G01 F480 X26.451 Y58.167
G01 F480 X26.523 Y58.390
G01 F480 X26.548 Y58.623
G01 F480 X26.523 Y58.857
G01 F480 X26.451 Y59.080
G01 F480 X26.333 Y59.283
G01 F480 X26.176 Y59.457
G01 F480 X25.986 Y59.595
G01 F480 X25.772 Y59.691
G01 F480 X25.543 Y59.739
G01 F480 X25.308 Y59.739
G00 F3000 Z3.000
G00 F3000 X53.248 Y59.739
G00 F1500 Z0
G01 F480 Z-0.200
G01 F480 X53.019 Y59.691
G01 F480 X52.804 Y59.595
G01 F480 X52.614 Y59.457
G01 F480 X52.458 Y59.283
G01 F480 X52.340 Y59.080
G01 F480 X52.268 Y58.857
G01 F480 X52.243 Y58.623
G01 F480 X52.268 Y58.390
G01 F480 X52.340 Y58.167
G01 F480 X52.458 Y57.964
G01 F480 X52.614 Y57.789
G01 F480 X52.804 Y57.651
G01 F480 X53.019 Y57.556
G01 F480 X53.248 Y57.507
G01 F480 X53.483 Y57.507
G01 F480 X53.712 Y57.556
G01 F480 X53.927 Y57.651
G01 F480 X54.116 Y57.789
G01 F480 X54.273 Y57.964
G01 F480 X54.391 Y58.167
G01 F480 X54.463 Y58.390
G01 F480 X54.488 Y58.623
G01 F480 X54.463 Y58.857
G01 F480 X54.391 Y59.080
G01 F480 X54.273 Y59.283
G01 F480 X54.116 Y59.457
G01 F480 X53.927 Y59.595
G01 F480 X53.712 Y59.691
G01 F480 X53.483 Y59.739
G01 F480 X53.248 Y59.739
G00 F3000 Z3.000
G00 F3000 X50.708 Y59.739
G00 F1500 Z0
G01 F480 Z-0.200
G01 F480 X50.479 Y59.691
G01 F480 X50.264 Y59.595
G01 F480 X50.075 Y59.457
G01 F480 X49.918 Y59.283
G01 F480 X49.800 Y59.080
G01 F480 X49.728 Y58.857
G01 F480 X49.703 Y58.623
G01 F480 X49.728 Y58.390
G01 F480 X49.800 Y58.167
G01 F480 X49.918 Y57.964
G01 F480 X50.075 Y57.789
G01 F480 X50.264 Y57.651
G01 F480 X50.479 Y57.556
G01 F480 X50.708 Y57.507
G01 F480 X50.943 Y57.507
G01 F480 X51.172 Y57.556
G01 F480 X51.387 Y57.651
G01 F480 X51.576 Y57.789
G01 F480 X51.733 Y57.964
G01 F480 X51.851 Y58.167
G01 F480 X51.923 Y58.390
G01 F480 X51.948 Y58.623
G01 F480 X51.923 Y58.857
G01 F480 X51.851 Y59.080
G01 F480 X51.733 Y59.283
G01 F480 X51.576 Y59.457
G01 F480 X51.387 Y59.595
G01 F480 X51.172 Y59.691
G01 F480 X50.943 Y59.739
G01 F480 X50.708 Y59.739
G00 F3000 Z3.000
G00 F3000 X55.788 Y59.739
G00 F1500 Z0
G01 F480 Z-0.200
G01 F480 X55.559 Y59.691
G01 F480 X55.344 Y59.595
G01 F480 X55.155 Y59.457
G01 F480 X54.998 Y59.283
G01 F480 X54.880 Y59.080
G01 F480 X54.808 Y58.857
G01 F480 X54.783 Y58.623
G01 F480 X54.808 Y58.390
G01 F480 X54.880 Y58.167
G01 F480 X54.998 Y57.964
G01 F480 X55.155 Y57.789
G01 F480 X55.344 Y57.651
G01 F480 X55.559 Y57.556
G01 F480 X55.788 Y57.507
G01 F480 X56.023 Y57.507
G01 F480 X56.252 Y57.556
G01 F480 X56.467 Y57.651
G01 F480 X56.656 Y57.789
G01 F480 X56.813 Y57.964
G01 F480 X56.931 Y58.167
G01 F480 X57.003 Y58.390
G01 F480 X57.028 Y58.623
G01 F480 X57.003 Y58.857
G01 F480 X56.931 Y59.080
G01 F480 X56.813 Y59.283
G01 F480 X56.656 Y59.457
G01 F480 X56.467 Y59.595
G01 F480 X56.252 Y59.691
G01 F480 X56.023 Y59.739
G01 F480 X55.788 Y59.739
G00 F3000 Z3.000
G00 F3000 X43.088 Y59.739
G00 F1500 Z0
G01 F480 Z-0.200
G01 F480 X42.859 Y59.691
G01 F480 X42.644 Y59.595
G01 F480 X42.455 Y59.457
G01 F480 X42.297 Y59.283
G01 F480 X42.180 Y59.080
G01 F480 X42.108 Y58.857
G01 F480 X42.083 Y58.623
G01 F480 X42.108 Y58.390
G01 F480 X42.180 Y58.167
G01 F480 X42.297 Y57.964
G01 F480 X42.455 Y57.789
G01 F480 X42.644 Y57.651
G01 F480 X42.859 Y57.556
G01 F480 X43.088 Y57.507
G01 F480 X43.323 Y57.507
G01 F480 X43.552 Y57.556
G01 F480 X43.767 Y57.651
G01 F480 X43.956 Y57.789
G01 F480 X44.113 Y57.964
G01 F480 X44.231 Y58.167
G01 F480 X44.303 Y58.390
G01 F480 X44.328 Y58.623
G01 F480 X44.303 Y58.857
G01 F480 X44.231 Y59.080
G01 F480 X44.113 Y59.283
G01 F480 X43.956 Y59.457
G01 F480 X43.767 Y59.595
G01 F480 X43.552 Y59.691
G01 F480 X43.323 Y59.739
G01 F480 X43.088 Y59.739
G00 F3000 Z3.000
G00 F3000 X40.548 Y59.739
G00 F1500 Z0
G01 F480 Z-0.200
G01 F480 X40.319 Y59.691
G01 F480 X40.104 Y59.595
G01 F480 X39.915 Y59.457
G01 F480 X39.758 Y59.283
G01 F480 X39.640 Y59.080
G01 F480 X39.568 Y58.857
G01 F480 X39.543 Y58.623
G01 F480 X39.568 Y58.390
G01 F480 X39.640 Y58.167
G01 F480 X39.758 Y57.964
G01 F480 X39.915 Y57.789
G01 F480 X40.104 Y57.651
G01 F480 X40.319 Y57.556
G01 F480 X40.548 Y57.507
G01 F480 X40.783 Y57.507
G01 F480 X41.012 Y57.556
G01 F480 X41.227 Y57.651
G01 F480 X41.416 Y57.789
G01 F480 X41.573 Y57.964
G01 F480 X41.691 Y58.167
G01 F480 X41.763 Y58.390
G01 F480 X41.788 Y58.623
G01 F480 X41.763 Y58.857
G01 F480 X41.691 Y59.080
G01 F480 X41.573 Y59.283
G01 F480 X41.416 Y59.457
G01 F480 X41.227 Y59.595
G01 F480 X41.012 Y59.691
G01 F480 X40.783 Y59.739
G01 F480 X40.548 Y59.739
G00 F3000 Z3.000
G00 F3000 X48.168 Y59.739
G00 F1500 Z0
G01 F480 Z-0.200
G01 F480 X47.939 Y59.691
G01 F480 X47.724 Y59.595
G01 F480 X47.535 Y59.457
G01 F480 X47.378 Y59.283
G01 F480 X47.260 Y59.080
G01 F480 X47.188 Y58.857
G01 F480 X47.163 Y58.623
G01 F480 X47.188 Y58.390
G01 F480 X47.260 Y58.167
G01 F480 X47.378 Y57.964
G01 F480 X47.535 Y57.789
G01 F480 X47.724 Y57.651
G01 F480 X47.939 Y57.556
G01 F480 X48.168 Y57.507
G01 F480 X48.403 Y57.507
G01 F480 X48.632 Y57.556
G01 F480 X48.846 Y57.651
G01 F480 X49.036 Y57.789
G01 F480 X49.193 Y57.964
G01 F480 X49.311 Y58.167
G01 F480 X49.383 Y58.390
G01 F480 X49.408 Y58.623
G01 F480 X49.383 Y58.857
G01 F480 X49.311 Y59.080
G01 F480 X49.193 Y59.283
G01 F480 X49.036 Y59.457
G01 F480 X48.846 Y59.595
G01 F480 X48.632 Y59.691
G01 F480 X48.403 Y59.739
G01 F480 X48.168 Y59.739
G00 F3000 Z3.000
G00 F3000 X45.628 Y57.200
G00 F1500 Z0
G01 F480 Z-0.200
G01 F480 X45.399 Y57.151
G01 F480 X45.184 Y57.055
G01 F480 X44.994 Y56.917
G01 F480 X44.837 Y56.743
G01 F480 X44.720 Y56.540
G01 F480 X44.647 Y56.317
G01 F480 X44.623 Y56.083
G01 F480 X44.647 Y55.850
G01 F480 X44.720 Y55.627
G01 F480 X44.837 Y55.423
G01 F480 X44.994 Y55.249
G01 F480 X45.184 Y55.111
G01 F480 X45.399 Y55.016
G01 F480 X45.628 Y54.967
G01 F480 X45.863 Y54.967
G01 F480 X46.092 Y55.016
G01 F480 X46.307 Y55.111
G01 F480 X46.497 Y55.249
G01 F480 X46.654 Y55.423
G01 F480 X46.771 Y55.627
G01 F480 X46.843 Y55.850
G01 F480 X46.868 Y56.083
G01 F480 X46.843 Y56.317
G01 F480 X46.771 Y56.540
G01 F480 X46.654 Y56.743
G01 F480 X46.497 Y56.917
G01 F480 X46.307 Y57.055
G01 F480 X46.092 Y57.151
G01 F480 X45.863 Y57.200
G01 F480 X45.628 Y57.200
G00 F3000 Z3.000
G00 F3000 X15.148 Y57.200
G00 F1500 Z0
G01 F480 Z-0.200
G01 F480 X14.918 Y57.151
G01 F480 X14.704 Y57.055
G01 F480 X14.514 Y56.917
G01 F480 X14.357 Y56.743
G01 F480 X14.240 Y56.540
G01 F480 X14.167 Y56.317
G01 F480 X14.143 Y56.083
G01 F480 X14.167 Y55.850
G01 F480 X14.240 Y55.627
G01 F480 X14.357 Y55.423
G01 F480 X14.514 Y55.249
G01 F480 X14.704 Y55.111
G01 F480 X14.918 Y55.016
G01 F480 X15.148 Y54.967
G01 F480 X15.383 Y54.967
G01 F480 X15.612 Y55.016
G01 F480 X15.827 Y55.111
G01 F480 X16.017 Y55.249
G01 F480 X16.174 Y55.423
G01 F480 X16.291 Y55.627
G01 F480 X16.363 Y55.850
G01 F480 X16.388 Y56.083
G01 F480 X16.363 Y56.317
G01 F480 X16.291 Y56.540
G01 F480 X16.174 Y56.743
G01 F480 X16.017 Y56.917
G01 F480 X15.827 Y57.055
G01 F480 X15.612 Y57.151
G01 F480 X15.383 Y57.200
G01 F480 X15.148 Y57.200
G00 F3000 Z3.000
G00 F3000 X32.928 Y57.200
G00 F1500 Z0
G01 F480 Z-0.200
G01 F480 X32.699 Y57.151
G01 F480 X32.484 Y57.055
G01 F480 X32.303 Y56.924
G01 F480 X32.232 Y56.863
G01 F480 X31.306 Y56.863
G01 F480 X31.256 Y56.917
G01 F480 X31.067 Y57.055
G01 F480 X30.852 Y57.151
G01 F480 X30.623 Y57.199
G01 F480 X30.388 Y57.199
G01 F480 X30.159 Y57.151
G01 F480 X29.944 Y57.055
G01 F480 X29.755 Y56.917
G01 F480 X29.598 Y56.743
G01 F480 X29.480 Y56.540
G01 F480 X29.408 Y56.317
G01 F480 X29.383 Y56.083
G01 F480 X29.408 Y55.850
G01 F480 X29.480 Y55.627
G01 F480 X29.598 Y55.424
G01 F480 X29.723 Y55.284
G01 F480 X29.723 Y54.348
G01 F480 X25.318 Y54.348
G01 F480 X25.158 Y54.314
G01 F480 X25.008 Y54.247
G01 F480 X24.876 Y54.151
G01 F480 X24.766 Y54.029
G01 F480 X24.684 Y53.887
G01 F480 X24.634 Y53.732
G01 F480 X24.617 Y53.577
G01 F480 X24.642 Y48.652
G01 F480 X24.634 Y48.626
G01 F480 X24.617 Y48.472
G01 F480 X24.617 Y41.001
G01 F480 X22.168 Y36.102
G01 F480 X22.119 Y35.952
G01 F480 X22.103 Y35.798
G01 F480 X22.103 Y26.417
G01 F480 X22.072 Y26.382
G01 F480 X16.238 Y26.359
G01 F480 X16.238 Y26.525
G01 F480 X14.292 Y26.525
G01 F480 X14.292 Y24.579
G01 F480 X16.238 Y24.579
G01 F480 X16.238 Y24.799
G01 F480 X22.073 Y24.823
G01 F480 X22.128 Y24.762
G01 F480 X22.319 Y24.623
G01 F480 X22.536 Y24.527
G01 F480 X22.767 Y24.477
G01 F480 X23.004 Y24.477
G01 F480 X23.235 Y24.527
G01 F480 X23.451 Y24.623
G01 F480 X23.643 Y24.762
G01 F480 X23.801 Y24.938
G01 F480 X23.920 Y25.143
G01 F480 X23.993 Y25.368
G01 F480 X24.017 Y25.603
G01 F480 X23.993 Y25.838
G01 F480 X23.920 Y26.064
G01 F480 X23.801 Y26.268
G01 F480 X23.668 Y26.417
G01 F480 X23.668 Y35.605
G01 F480 X26.117 Y40.504
G01 F480 X26.166 Y40.655
G01 F480 X26.183 Y40.808
G01 F480 X26.208 Y48.463
G01 F480 X26.187 Y52.789
G01 F480 X30.587 Y52.789
G01 F480 X30.748 Y52.823
G01 F480 X30.897 Y52.890
G01 F480 X31.030 Y52.986
G01 F480 X31.139 Y53.108
G01 F480 X31.221 Y53.250
G01 F480 X31.272 Y53.406
G01 F480 X31.288 Y53.559
G01 F480 X31.288 Y55.284
G01 F480 X31.306 Y55.304
G01 F480 X32.241 Y55.308
G01 F480 X32.294 Y55.249
G01 F480 X32.484 Y55.111
G01 F480 X32.699 Y55.016
G01 F480 X32.928 Y54.967
G01 F480 X33.163 Y54.967
G01 F480 X33.392 Y55.016
G01 F480 X33.607 Y55.111
G01 F480 X33.797 Y55.249
G01 F480 X33.954 Y55.423
G01 F480 X34.071 Y55.627
G01 F480 X34.143 Y55.850
G01 F480 X34.168 Y56.083
G01 F480 X34.143 Y56.317
G01 F480 X34.071 Y56.540
G01 F480 X33.954 Y56.743
G01 F480 X33.797 Y56.917
G01 F480 X33.607 Y57.055
G01 F480 X33.392 Y57.151
G01 F480 X33.163 Y57.200
G01 F480 X32.928 Y57.200
G00 F3000 Z3.000
G00 F3000 X27.848 Y57.200
G00 F1500 Z0
G01 F480 Z-0.200
G01 F480 X27.619 Y57.151
G01 F480 X27.404 Y57.055
G01 F480 X27.214 Y56.917
G01 F480 X27.057 Y56.743
G01 F480 X26.940 Y56.540
G01 F480 X26.867 Y56.317
G01 F480 X26.843 Y56.083
G01 F480 X26.867 Y55.850
G01 F480 X26.940 Y55.627
G01 F480 X27.057 Y55.423
G01 F480 X27.214 Y55.249
G01 F480 X27.404 Y55.111
G01 F480 X27.619 Y55.016
G01 F480 X27.848 Y54.967
G01 F480 X28.083 Y54.967
G01 F480 X28.312 Y55.016
G01 F480 X28.527 Y55.111
G01 F480 X28.717 Y55.249
G01 F480 X28.874 Y55.423
G01 F480 X28.991 Y55.627
G01 F480 X29.063 Y55.850
G01 F480 X29.088 Y56.083
G01 F480 X29.063 Y56.317
G01 F480 X28.991 Y56.540
G01 F480 X28.874 Y56.743
G01 F480 X28.717 Y56.917
G01 F480 X28.527 Y57.055
G01 F480 X28.312 Y57.151
G01 F480 X28.083 Y57.200
G01 F480 X27.848 Y57.200
G00 F3000 Z3.000
G00 F3000 X10.068 Y57.199
G00 F1500 Z0
G01 F480 Z-0.200
G01 F480 X9.839 Y57.151
G01 F480 X9.624 Y57.055
G01 F480 X9.434 Y56.917
G01 F480 X9.277 Y56.743
G01 F480 X9.160 Y56.540
G01 F480 X9.088 Y56.317
G01 F480 X9.063 Y56.083
G01 F480 X9.088 Y55.850
G01 F480 X9.160 Y55.627
G01 F480 X9.277 Y55.424
G01 F480 X9.434 Y55.249
G01 F480 X9.624 Y55.111
G01 F480 X9.839 Y55.016
G01 F480 X10.068 Y54.967
G01 F480 X10.303 Y54.967
G01 F480 X10.532 Y55.016
G01 F480 X10.747 Y55.111
G01 F480 X10.936 Y55.249
G01 F480 X11.093 Y55.424
G01 F480 X11.211 Y55.627
G01 F480 X11.283 Y55.850
G01 F480 X11.308 Y56.083
G01 F480 X11.283 Y56.317
G01 F480 X11.211 Y56.540
G01 F480 X11.093 Y56.743
G01 F480 X10.936 Y56.917
G01 F480 X10.747 Y57.055
G01 F480 X10.532 Y57.151
G01 F480 X10.303 Y57.199
G01 F480 X10.068 Y57.199
G00 F3000 Z3.000
G00 F3000 X12.608 Y57.199
G00 F1500 Z0
G01 F480 Z-0.200
G01 F480 X12.379 Y57.151
G01 F480 X12.164 Y57.055
G01 F480 X11.975 Y56.917
G01 F480 X11.818 Y56.743
G01 F480 X11.700 Y56.540
G01 F480 X11.628 Y56.317
G01 F480 X11.603 Y56.083
G01 F480 X11.628 Y55.850
G01 F480 X11.700 Y55.627
G01 F480 X11.818 Y55.424
G01 F480 X11.975 Y55.249
G01 F480 X12.164 Y55.111
G01 F480 X12.379 Y55.016
G01 F480 X12.608 Y54.967
G01 F480 X12.843 Y54.967
G01 F480 X13.072 Y55.016
G01 F480 X13.287 Y55.111
G01 F480 X13.476 Y55.249
G01 F480 X13.633 Y55.424
G01 F480 X13.751 Y55.627
G01 F480 X13.823 Y55.850
G01 F480 X13.848 Y56.083
G01 F480 X13.823 Y56.317
G01 F480 X13.751 Y56.540
G01 F480 X13.633 Y56.743
G01 F480 X13.476 Y56.917
G01 F480 X13.287 Y57.055
G01 F480 X13.072 Y57.151
G01 F480 X12.843 Y57.199
G01 F480 X12.608 Y57.199
G00 F3000 Z3.000
G00 F3000 X7.528 Y57.199
G00 F1500 Z0
G01 F480 Z-0.200
G01 F480 X7.299 Y57.151
G01 F480 X7.084 Y57.055
G01 F480 X6.895 Y56.917
G01 F480 X6.738 Y56.743
G01 F480 X6.620 Y56.540
G01 F480 X6.548 Y56.317
G01 F480 X6.524 Y56.090
G01 F480 X6.515 Y56.084
G01 F480 X4.597 Y54.166
G01 F480 X4.497 Y54.055
G01 F480 X4.415 Y53.913
G01 F480 X4.364 Y53.757
G01 F480 X4.348 Y53.603
G01 F480 X4.348 Y30.700
G01 F480 X4.364 Y30.546
G01 F480 X4.415 Y30.390
G01 F480 X4.497 Y30.248
G01 F480 X4.598 Y30.136
G01 F480 X7.151 Y27.609
G01 F480 X7.279 Y27.515
G01 F480 X7.429 Y27.449
G01 F480 X7.589 Y27.415
G01 F480 X11.943 Y27.415
G01 F480 X11.944 Y18.789
G01 F480 X11.814 Y18.645
G01 F480 X11.696 Y18.441
G01 F480 X11.624 Y18.217
G01 F480 X11.599 Y17.983
G01 F480 X11.624 Y17.749
G01 F480 X11.694 Y17.531
G01 F480 X11.774 Y17.367
G01 F480 X11.764 Y17.272
G01 F480 X11.781 Y17.109
G01 F480 X11.832 Y16.953
G01 F480 X11.914 Y16.812
G01 F480 X11.943 Y16.779
G01 F480 X11.943 Y13.435
G01 F480 X11.824 Y13.304
G01 F480 X11.708 Y13.102
G01 F480 X11.636 Y12.881
G01 F480 X11.612 Y12.649
G01 F480 X11.636 Y12.418
G01 F480 X11.708 Y12.196
G01 F480 X11.824 Y11.995
G01 F480 X11.980 Y11.822
G01 F480 X12.168 Y11.685
G01 F480 X12.381 Y11.590
G01 F480 X12.609 Y11.542
G01 F480 X12.842 Y11.542
G01 F480 X13.070 Y11.590
G01 F480 X13.282 Y11.685
G01 F480 X13.471 Y11.822
G01 F480 X13.626 Y11.995
G01 F480 X13.743 Y12.196
G01 F480 X13.815 Y12.418
G01 F480 X13.839 Y12.649
G01 F480 X13.815 Y12.881
G01 F480 X13.743 Y13.102
G01 F480 X13.626 Y13.304
G01 F480 X13.508 Y13.435
G01 F480 X13.508 Y17.178
G01 F480 X13.637 Y17.321
G01 F480 X13.755 Y17.525
G01 F480 X13.827 Y17.749
G01 F480 X13.852 Y17.983
G01 F480 X13.827 Y18.217
G01 F480 X13.755 Y18.441
G01 F480 X13.637 Y18.645
G01 F480 X13.508 Y18.788
G01 F480 X13.527 Y34.744
G01 F480 X13.626 Y34.855
G01 F480 X13.743 Y35.056
G01 F480 X13.815 Y35.278
G01 F480 X13.839 Y35.509
G01 F480 X13.815 Y35.741
G01 F480 X13.743 Y35.962
G01 F480 X13.626 Y36.166
G01 F480 X13.508 Y36.290
G01 F480 X13.507 Y40.037
G01 F480 X13.637 Y40.181
G01 F480 X13.755 Y40.385
G01 F480 X13.827 Y40.609
G01 F480 X13.852 Y40.843
G01 F480 X13.827 Y41.077
G01 F480 X13.755 Y41.301
G01 F480 X13.637 Y41.505
G01 F480 X13.479 Y41.680
G01 F480 X13.289 Y41.819
G01 F480 X13.074 Y41.915
G01 F480 X12.843 Y41.964
G01 F480 X12.608 Y41.964
G01 F480 X12.377 Y41.915
G01 F480 X12.162 Y41.819
G01 F480 X11.972 Y41.680
G01 F480 X11.814 Y41.505
G01 F480 X11.696 Y41.301
G01 F480 X11.624 Y41.077
G01 F480 X11.599 Y40.843
G01 F480 X11.624 Y40.609
G01 F480 X11.696 Y40.385
G01 F480 X11.814 Y40.181
G01 F480 X11.943 Y40.038
G01 F480 X11.924 Y36.274
G01 F480 X11.824 Y36.164
G01 F480 X11.708 Y35.962
G01 F480 X11.636 Y35.741
G01 F480 X11.612 Y35.509
G01 F480 X11.636 Y35.278
G01 F480 X11.708 Y35.056
G01 F480 X11.825 Y34.853
G01 F480 X11.943 Y34.728
G01 F480 X11.943 Y28.973
G01 F480 X7.995 Y28.973
G01 F480 X5.913 Y31.034
G01 F480 X5.913 Y53.271
G01 F480 X7.563 Y54.921
G01 F480 X7.614 Y54.967
G01 F480 X7.763 Y54.967
G01 F480 X7.992 Y55.016
G01 F480 X8.207 Y55.111
G01 F480 X8.396 Y55.249
G01 F480 X8.553 Y55.424
G01 F480 X8.671 Y55.627
G01 F480 X8.743 Y55.850
G01 F480 X8.768 Y56.083
G01 F480 X8.743 Y56.317
G01 F480 X8.671 Y56.540
G01 F480 X8.553 Y56.743
G01 F480 X8.396 Y56.917
G01 F480 X8.207 Y57.055
G01 F480 X7.992 Y57.151
G01 F480 X7.763 Y57.199
G01 F480 X7.528 Y57.199
G00 F3000 Z3.000
G00 F3000 X40.548 Y57.199
G00 F1500 Z0
G01 F480 Z-0.200
G01 F480 X40.319 Y57.151
G01 F480 X40.104 Y57.055
G01 F480 X39.915 Y56.917
G01 F480 X39.758 Y56.743
G01 F480 X39.640 Y56.540
G01 F480 X39.568 Y56.317
G01 F480 X39.543 Y56.083
G01 F480 X39.568 Y55.850
G01 F480 X39.640 Y55.627
G01 F480 X39.758 Y55.424
G01 F480 X39.915 Y55.249
G01 F480 X40.104 Y55.111
G01 F480 X40.319 Y55.016
G01 F480 X40.548 Y54.967
G01 F480 X40.783 Y54.967
G01 F480 X41.012 Y55.016
G01 F480 X41.227 Y55.111
G01 F480 X41.416 Y55.249
G01 F480 X41.573 Y55.424
G01 F480 X41.691 Y55.627
G01 F480 X41.763 Y55.850
G01 F480 X41.788 Y56.083
G01 F480 X41.763 Y56.317
G01 F480 X41.691 Y56.540
G01 F480 X41.573 Y56.743
G01 F480 X41.416 Y56.917
G01 F480 X41.227 Y57.055
G01 F480 X41.012 Y57.151
G01 F480 X40.783 Y57.199
G01 F480 X40.548 Y57.199
G00 F3000 Z3.000
G00 F3000 X43.088 Y57.199
G00 F1500 Z0
G01 F480 Z-0.200
G01 F480 X42.859 Y57.151
G01 F480 X42.644 Y57.055
G01 F480 X42.455 Y56.917
G01 F480 X42.297 Y56.743
G01 F480 X42.180 Y56.540
G01 F480 X42.108 Y56.317
G01 F480 X42.083 Y56.083
G01 F480 X42.108 Y55.850
G01 F480 X42.180 Y55.627
G01 F480 X42.297 Y55.424
G01 F480 X42.455 Y55.249
G01 F480 X42.467 Y55.240
G01 F480 X42.439 Y55.154
G01 F480 X42.423 Y54.999
G01 F480 X42.443 Y53.861
G01 F480 X40.339 Y51.757
G01 F480 X35.504 Y51.757
G01 F480 X35.343 Y51.723
G01 F480 X35.194 Y51.656
G01 F480 X35.061 Y51.560
G01 F480 X34.952 Y51.438
G01 F480 X34.870 Y51.297
G01 F480 X34.819 Y51.141
G01 F480 X34.803 Y50.987
G01 F480 X34.803 Y49.231
G01 F480 X34.018 Y49.218
G01 F480 X34.018 Y49.385
G01 F480 X32.072 Y49.385
G01 F480 X32.072 Y49.222
G01 F480 X30.570 Y49.242
G01 F480 X30.424 Y49.242
G01 F480 X30.263 Y49.208
G01 F480 X30.114 Y49.142
G01 F480 X29.985 Y49.048
G01 F480 X27.407 Y46.496
G01 F480 X27.306 Y46.384
G01 F480 X27.224 Y46.242
G01 F480 X27.174 Y46.086
G01 F480 X27.156 Y45.923
G01 F480 X27.174 Y45.760
G01 F480 X27.183 Y45.732
G01 F480 X27.183 Y40.994
G01 F480 X25.114 Y36.660
G01 F480 X25.085 Y36.569
G01 F480 X25.081 Y36.569
G01 F480 X24.869 Y36.474
G01 F480 X24.680 Y36.337
G01 F480 X24.524 Y36.164
G01 F480 X24.408 Y35.962
G01 F480 X24.336 Y35.741
G01 F480 X24.312 Y35.509
G01 F480 X24.336 Y35.278
G01 F480 X24.408 Y35.056
G01 F480 X24.524 Y34.855
G01 F480 X24.680 Y34.681
G01 F480 X24.869 Y34.545
G01 F480 X25.081 Y34.450
G01 F480 X25.309 Y34.401
G01 F480 X25.542 Y34.401
G01 F480 X25.770 Y34.450
G01 F480 X25.982 Y34.545
G01 F480 X26.171 Y34.681
G01 F480 X26.326 Y34.855
G01 F480 X26.443 Y35.056
G01 F480 X26.515 Y35.278
G01 F480 X26.539 Y35.509
G01 F480 X26.515 Y35.741
G01 F480 X26.467 Y35.889
G01 F480 X26.542 Y36.019
G01 F480 X28.683 Y40.506
G01 F480 X28.732 Y40.655
G01 F480 X28.748 Y40.809
G01 F480 X28.748 Y45.623
G01 F480 X30.824 Y47.679
G01 F480 X32.072 Y47.662
G01 F480 X32.072 Y47.439
G01 F480 X34.018 Y47.439
G01 F480 X34.018 Y47.659
G01 F480 X34.076 Y47.659
G01 F480 X35.669 Y47.684
G01 F480 X35.828 Y47.718
G01 F480 X35.977 Y47.785
G01 F480 X36.110 Y47.881
G01 F480 X36.219 Y48.003
G01 F480 X36.301 Y48.145
G01 F480 X36.352 Y48.300
G01 F480 X36.368 Y48.454
G01 F480 X36.368 Y50.199
G01 F480 X40.747 Y50.199
G01 F480 X40.907 Y50.233
G01 F480 X41.057 Y50.299
G01 F480 X41.186 Y50.393
G01 F480 X43.764 Y52.971
G01 F480 X43.865 Y53.083
G01 F480 X43.947 Y53.224
G01 F480 X43.997 Y53.380
G01 F480 X44.014 Y53.536
G01 F480 X43.988 Y55.002
G01 F480 X43.972 Y55.154
G01 F480 X43.944 Y55.240
G01 F480 X43.956 Y55.249
G01 F480 X44.113 Y55.424
G01 F480 X44.231 Y55.627
G01 F480 X44.303 Y55.850
G01 F480 X44.328 Y56.083
G01 F480 X44.303 Y56.317
G01 F480 X44.231 Y56.540
G01 F480 X44.113 Y56.743
G01 F480 X43.956 Y56.917
G01 F480 X43.767 Y57.055
G01 F480 X43.552 Y57.151
G01 F480 X43.323 Y57.199
G01 F480 X43.088 Y57.199
G00 F3000 Z3.000
G00 F3000 X35.468 Y57.199
G00 F1500 Z0
G01 F480 Z-0.200
G01 F480 X35.239 Y57.151
G01 F480 X35.024 Y57.055
G01 F480 X34.834 Y56.917
G01 F480 X34.678 Y56.743
G01 F480 X34.560 Y56.540
G01 F480 X34.488 Y56.317
G01 F480 X34.463 Y56.083
G01 F480 X34.488 Y55.850
G01 F480 X34.560 Y55.627
G01 F480 X34.678 Y55.424
G01 F480 X34.834 Y55.249
G01 F480 X35.024 Y55.111
G01 F480 X35.239 Y55.016
G01 F480 X35.468 Y54.967
G01 F480 X35.703 Y54.967
G01 F480 X35.932 Y55.016
G01 F480 X36.147 Y55.111
G01 F480 X36.336 Y55.249
G01 F480 X36.493 Y55.424
G01 F480 X36.611 Y55.627
G01 F480 X36.683 Y55.850
G01 F480 X36.708 Y56.083
G01 F480 X36.683 Y56.317
G01 F480 X36.611 Y56.540
G01 F480 X36.493 Y56.743
G01 F480 X36.336 Y56.917
G01 F480 X36.147 Y57.055
G01 F480 X35.932 Y57.151
G01 F480 X35.703 Y57.199
G01 F480 X35.468 Y57.199
G00 F3000 Z3.000
G00 F3000 X38.008 Y57.199
G00 F1500 Z0
G01 F480 Z-0.200
G01 F480 X37.779 Y57.151
G01 F480 X37.564 Y57.055
G01 F480 X37.375 Y56.917
G01 F480 X37.218 Y56.743
G01 F480 X37.100 Y56.540
G01 F480 X37.028 Y56.317
G01 F480 X37.003 Y56.083
G01 F480 X37.028 Y55.850
G01 F480 X37.100 Y55.627
G01 F480 X37.218 Y55.424
G01 F480 X37.375 Y55.249
G01 F480 X37.387 Y55.240
G01 F480 X37.359 Y55.154
G01 F480 X37.343 Y55.000
G01 F480 X37.343 Y54.348
G01 F480 X32.964 Y54.348
G01 F480 X32.803 Y54.314
G01 F480 X32.654 Y54.247
G01 F480 X32.521 Y54.151
G01 F480 X32.412 Y54.029
G01 F480 X32.330 Y53.887
G01 F480 X32.279 Y53.732
G01 F480 X32.263 Y53.578
G01 F480 X32.263 Y51.783
G01 F480 X31.440 Y51.783
G01 F480 X31.338 Y51.761
G01 F480 X31.263 Y51.844
G01 F480 X31.071 Y51.983
G01 F480 X30.855 Y52.080
G01 F480 X30.624 Y52.129
G01 F480 X30.387 Y52.129
G01 F480 X30.156 Y52.080
G01 F480 X29.939 Y51.983
G01 F480 X29.748 Y51.844
G01 F480 X29.590 Y51.669
G01 F480 X29.471 Y51.464
G01 F480 X29.398 Y51.239
G01 F480 X29.373 Y51.003
G01 F480 X29.398 Y50.768
G01 F480 X29.471 Y50.543
G01 F480 X29.590 Y50.338
G01 F480 X29.748 Y50.162
G01 F480 X29.939 Y50.023
G01 F480 X30.156 Y49.927
G01 F480 X30.387 Y49.877
G01 F480 X30.624 Y49.877
G01 F480 X30.855 Y49.927
G01 F480 X31.071 Y50.023
G01 F480 X31.263 Y50.162
G01 F480 X31.337 Y50.246
G01 F480 X31.440 Y50.224
G01 F480 X33.127 Y50.224
G01 F480 X33.288 Y50.258
G01 F480 X33.437 Y50.325
G01 F480 X33.570 Y50.421
G01 F480 X33.679 Y50.543
G01 F480 X33.761 Y50.684
G01 F480 X33.812 Y50.840
G01 F480 X33.828 Y50.994
G01 F480 X33.828 Y52.789
G01 F480 X38.207 Y52.789
G01 F480 X38.367 Y52.823
G01 F480 X38.517 Y52.890
G01 F480 X38.650 Y52.986
G01 F480 X38.759 Y53.108
G01 F480 X38.841 Y53.250
G01 F480 X38.892 Y53.406
G01 F480 X38.908 Y53.559
G01 F480 X38.908 Y55.000
G01 F480 X38.892 Y55.154
G01 F480 X38.864 Y55.240
G01 F480 X38.876 Y55.249
G01 F480 X39.033 Y55.424
G01 F480 X39.151 Y55.627
G01 F480 X39.223 Y55.850
G01 F480 X39.248 Y56.083
G01 F480 X39.223 Y56.317
G01 F480 X39.151 Y56.540
G01 F480 X39.033 Y56.743
G01 F480 X38.876 Y56.917
G01 F480 X38.687 Y57.055
G01 F480 X38.472 Y57.151
G01 F480 X38.243 Y57.199
G01 F480 X38.008 Y57.199
G00 F3000 Z3.000
G00 F3000 X50.708 Y57.199
G00 F1500 Z0
G01 F480 Z-0.200
G01 F480 X50.479 Y57.151
G01 F480 X50.264 Y57.055
G01 F480 X50.075 Y56.917
G01 F480 X49.918 Y56.743
G01 F480 X49.800 Y56.540
G01 F480 X49.728 Y56.317
G01 F480 X49.703 Y56.083
G01 F480 X49.728 Y55.850
G01 F480 X49.800 Y55.627
G01 F480 X49.918 Y55.424
G01 F480 X50.075 Y55.249
G01 F480 X50.264 Y55.111
G01 F480 X50.479 Y55.016
G01 F480 X50.708 Y54.967
G01 F480 X50.943 Y54.967
G01 F480 X51.172 Y55.016
G01 F480 X51.387 Y55.111
G01 F480 X51.576 Y55.249
G01 F480 X51.733 Y55.424
G01 F480 X51.851 Y55.627
G01 F480 X51.923 Y55.850
G01 F480 X51.948 Y56.083
G01 F480 X51.923 Y56.317
G01 F480 X51.851 Y56.540
G01 F480 X51.733 Y56.743
G01 F480 X51.576 Y56.917
G01 F480 X51.387 Y57.055
G01 F480 X51.172 Y57.151
G01 F480 X50.943 Y57.199
G01 F480 X50.708 Y57.199
G00 F3000 Z3.000
G00 F3000 X53.248 Y57.199
G00 F1500 Z0
G01 F480 Z-0.200
G01 F480 X53.019 Y57.151
G01 F480 X52.804 Y57.055
G01 F480 X52.614 Y56.917
G01 F480 X52.458 Y56.743
G01 F480 X52.340 Y56.540
G01 F480 X52.268 Y56.317
G01 F480 X52.243 Y56.083
G01 F480 X52.268 Y55.850
G01 F480 X52.340 Y55.627
G01 F480 X52.458 Y55.424
G01 F480 X52.614 Y55.249
G01 F480 X52.627 Y55.240
G01 F480 X52.599 Y55.154
G01 F480 X52.583 Y54.998
G01 F480 X52.594 Y54.345
G01 F480 X45.663 Y54.322
G01 F480 X45.503 Y54.288
G01 F480 X45.354 Y54.222
G01 F480 X45.221 Y54.126
G01 F480 X45.111 Y54.004
G01 F480 X45.030 Y53.862
G01 F480 X44.979 Y53.706
G01 F480 X44.963 Y53.552
G01 F480 X44.963 Y51.301
G01 F480 X42.904 Y49.242
G01 F480 X39.059 Y49.242
G01 F480 X38.958 Y49.221
G01 F480 X38.883 Y49.304
G01 F480 X38.691 Y49.444
G01 F480 X38.475 Y49.540
G01 F480 X38.244 Y49.589
G01 F480 X38.007 Y49.589
G01 F480 X37.776 Y49.540
G01 F480 X37.559 Y49.444
G01 F480 X37.368 Y49.304
G01 F480 X37.210 Y49.129
G01 F480 X37.091 Y48.924
G01 F480 X37.018 Y48.699
G01 F480 X36.993 Y48.463
G01 F480 X37.018 Y48.228
G01 F480 X37.091 Y48.003
G01 F480 X37.210 Y47.798
G01 F480 X37.368 Y47.622
G01 F480 X37.559 Y47.483
G01 F480 X37.776 Y47.387
G01 F480 X38.007 Y47.337
G01 F480 X38.244 Y47.337
G01 F480 X38.475 Y47.387
G01 F480 X38.691 Y47.483
G01 F480 X38.883 Y47.622
G01 F480 X38.957 Y47.706
G01 F480 X39.059 Y47.684
G01 F480 X43.313 Y47.684
G01 F480 X43.473 Y47.718
G01 F480 X43.623 Y47.785
G01 F480 X43.751 Y47.878
G01 F480 X46.279 Y50.406
G01 F480 X46.379 Y50.517
G01 F480 X46.461 Y50.659
G01 F480 X46.512 Y50.815
G01 F480 X46.528 Y50.969
G01 F480 X46.528 Y52.766
G01 F480 X53.455 Y52.789
G01 F480 X58.137 Y52.813
G01 F480 X60.203 Y50.642
G01 F480 X60.203 Y38.626
G01 F480 X58.140 Y36.563
G01 F480 X56.889 Y36.542
G01 F480 X56.746 Y36.512
G01 F480 X56.726 Y36.507
G01 F480 X56.651 Y36.591
G01 F480 X56.462 Y36.728
G01 F480 X56.250 Y36.822
G01 F480 X56.022 Y36.871
G01 F480 X55.789 Y36.871
G01 F480 X55.561 Y36.822
G01 F480 X55.349 Y36.728
G01 F480 X55.160 Y36.591
G01 F480 X55.004 Y36.418
G01 F480 X54.888 Y36.216
G01 F480 X54.816 Y35.995
G01 F480 X54.792 Y35.763
G01 F480 X54.816 Y35.532
G01 F480 X54.888 Y35.310
G01 F480 X55.004 Y35.109
G01 F480 X55.160 Y34.936
G01 F480 X55.349 Y34.799
G01 F480 X55.561 Y34.704
G01 F480 X55.789 Y34.656
G01 F480 X55.910 Y34.656
G01 F480 X55.931 Y34.631
G01 F480 X57.914 Y32.700
G01 F480 X60.178 Y30.344
G01 F480 X60.203 Y15.443
G01 F480 X60.203 Y13.682
G01 F480 X56.696 Y13.680
G01 F480 X56.651 Y13.731
G01 F480 X56.462 Y13.868
G01 F480 X56.250 Y13.962
G01 F480 X56.022 Y14.011
G01 F480 X55.789 Y14.011
G01 F480 X55.561 Y13.962
G01 F480 X55.349 Y13.868
G01 F480 X55.160 Y13.731
G01 F480 X55.004 Y13.558
G01 F480 X54.888 Y13.356
G01 F480 X54.816 Y13.135
G01 F480 X54.792 Y12.903
G01 F480 X54.816 Y12.672
G01 F480 X54.888 Y12.450
G01 F480 X55.004 Y12.249
G01 F480 X55.123 Y12.117
G01 F480 X55.144 Y10.681
G01 F480 X53.090 Y8.627
G01 F480 X41.016 Y8.603
G01 F480 X38.908 Y10.712
G01 F480 X38.908 Y12.117
G01 F480 X39.026 Y12.249
G01 F480 X39.143 Y12.450
G01 F480 X39.215 Y12.672
G01 F480 X39.239 Y12.903
G01 F480 X39.215 Y13.135
G01 F480 X39.143 Y13.356
G01 F480 X39.026 Y13.558
G01 F480 X38.871 Y13.731
G01 F480 X38.682 Y13.868
G01 F480 X38.470 Y13.962
G01 F480 X38.242 Y14.011
G01 F480 X38.009 Y14.011
G01 F480 X37.781 Y13.962
G01 F480 X37.569 Y13.868
G01 F480 X37.380 Y13.731
G01 F480 X37.224 Y13.558
G01 F480 X37.108 Y13.356
G01 F480 X37.036 Y13.135
G01 F480 X37.012 Y12.903
G01 F480 X37.036 Y12.672
G01 F480 X37.108 Y12.450
G01 F480 X37.224 Y12.249
G01 F480 X37.343 Y12.117
G01 F480 X37.343 Y10.380
G01 F480 X37.359 Y10.226
G01 F480 X37.410 Y10.070
G01 F480 X37.492 Y9.928
G01 F480 X37.592 Y9.817
G01 F480 X40.170 Y7.238
G01 F480 X40.299 Y7.145
G01 F480 X40.449 Y7.078
G01 F480 X40.609 Y7.044
G01 F480 X40.755 Y7.044
G01 F480 X53.498 Y7.069
G01 F480 X53.658 Y7.103
G01 F480 X53.808 Y7.170
G01 F480 X53.937 Y7.264
G01 F480 X56.464 Y9.791
G01 F480 X56.565 Y9.903
G01 F480 X56.647 Y10.045
G01 F480 X56.697 Y10.200
G01 F480 X56.714 Y10.355
G01 F480 X56.688 Y12.113
G01 F480 X56.699 Y12.124
G01 F480 X60.195 Y12.124
G01 F480 X60.181 Y10.664
G01 F480 X55.579 Y6.063
G01 F480 X25.845 Y6.063
G01 F480 X21.434 Y12.668
G01 F480 X21.435 Y12.672
G01 F480 X21.459 Y12.903
G01 F480 X21.435 Y13.135
G01 F480 X21.363 Y13.356
G01 F480 X21.246 Y13.558
G01 F480 X21.091 Y13.731
G01 F480 X20.902 Y13.868
G01 F480 X20.690 Y13.962
G01 F480 X20.462 Y14.011
G01 F480 X20.229 Y14.011
G01 F480 X20.001 Y13.962
G01 F480 X19.789 Y13.868
G01 F480 X19.600 Y13.731
G01 F480 X19.444 Y13.558
G01 F480 X19.328 Y13.356
G01 F480 X19.256 Y13.135
G01 F480 X19.232 Y12.903
G01 F480 X19.256 Y12.672
G01 F480 X19.328 Y12.450
G01 F480 X19.444 Y12.249
G01 F480 X19.600 Y12.075
G01 F480 X19.789 Y11.939
G01 F480 X20.001 Y11.844
G01 F480 X20.123 Y11.818
G01 F480 X20.137 Y11.793
G01 F480 X24.795 Y4.818
G01 F480 X24.901 Y4.701
G01 F480 X25.034 Y4.605
G01 F480 X25.183 Y4.538
G01 F480 X25.344 Y4.504
G01 F480 X55.987 Y4.504
G01 F480 X56.148 Y4.538
G01 F480 X56.297 Y4.605
G01 F480 X56.426 Y4.698
G01 F480 X61.493 Y9.766
G01 F480 X61.594 Y9.877
G01 F480 X61.676 Y10.019
G01 F480 X61.726 Y10.175
G01 F480 X61.742 Y10.328
G01 F480 X61.768 Y12.902
G01 F480 X61.768 Y15.443
G01 F480 X61.743 Y30.667
G01 F480 X61.726 Y30.821
G01 F480 X61.676 Y30.977
G01 F480 X61.594 Y31.118
G01 F480 X61.495 Y31.229
G01 F480 X58.976 Y33.849
G01 F480 X57.798 Y34.997
G01 F480 X58.554 Y35.010
G01 F480 X58.713 Y35.043
G01 F480 X58.863 Y35.110
G01 F480 X58.991 Y35.204
G01 F480 X61.519 Y37.731
G01 F480 X61.619 Y37.843
G01 F480 X61.701 Y37.985
G01 F480 X61.752 Y38.140
G01 F480 X61.768 Y38.294
G01 F480 X61.768 Y50.962
G01 F480 X61.752 Y51.115
G01 F480 X61.701 Y51.271
G01 F480 X61.619 Y51.413
G01 F480 X61.520 Y51.523
G01 F480 X58.993 Y54.178
G01 F480 X58.863 Y54.273
G01 F480 X58.713 Y54.339
G01 F480 X58.553 Y54.373
G01 F480 X58.407 Y54.373
G01 F480 X54.159 Y54.352
G01 F480 X54.148 Y55.002
G01 F480 X54.132 Y55.154
G01 F480 X54.104 Y55.240
G01 F480 X54.116 Y55.249
G01 F480 X54.273 Y55.424
G01 F480 X54.391 Y55.627
G01 F480 X54.463 Y55.850
G01 F480 X54.488 Y56.083
G01 F480 X54.463 Y56.317
G01 F480 X54.391 Y56.540
G01 F480 X54.273 Y56.743
G01 F480 X54.116 Y56.917
G01 F480 X53.927 Y57.055
G01 F480 X53.712 Y57.151
G01 F480 X53.483 Y57.199
G01 F480 X53.248 Y57.199
G00 F3000 Z3.000
G00 F3000 X48.168 Y57.199
G00 F1500 Z0
G01 F480 Z-0.200
G01 F480 X47.939 Y57.151
G01 F480 X47.724 Y57.055
G01 F480 X47.535 Y56.917
G01 F480 X47.378 Y56.743
G01 F480 X47.260 Y56.540
G01 F480 X47.188 Y56.317
G01 F480 X47.163 Y56.083
G01 F480 X47.188 Y55.850
G01 F480 X47.260 Y55.627
G01 F480 X47.378 Y55.424
G01 F480 X47.535 Y55.249
G01 F480 X47.724 Y55.111
G01 F480 X47.939 Y55.016
G01 F480 X48.168 Y54.967
G01 F480 X48.403 Y54.967
G01 F480 X48.632 Y55.016
G01 F480 X48.846 Y55.111
G01 F480 X49.036 Y55.249
G01 F480 X49.193 Y55.424
G01 F480 X49.311 Y55.627
G01 F480 X49.383 Y55.850
G01 F480 X49.408 Y56.083
G01 F480 X49.383 Y56.317
G01 F480 X49.311 Y56.540
G01 F480 X49.193 Y56.743
G01 F480 X49.036 Y56.917
G01 F480 X48.846 Y57.055
G01 F480 X48.632 Y57.151
G01 F480 X48.403 Y57.199
G01 F480 X48.168 Y57.199
G00 F3000 Z3.000
G00 F3000 X20.228 Y57.199
G00 F1500 Z0
G01 F480 Z-0.200
G01 F480 X19.999 Y57.151
G01 F480 X19.784 Y57.055
G01 F480 X19.595 Y56.917
G01 F480 X19.438 Y56.743
G01 F480 X19.320 Y56.540
G01 F480 X19.248 Y56.317
G01 F480 X19.223 Y56.083
G01 F480 X19.248 Y55.850
G01 F480 X19.320 Y55.627
G01 F480 X19.438 Y55.424
G01 F480 X19.595 Y55.249
G01 F480 X19.784 Y55.111
G01 F480 X19.999 Y55.016
G01 F480 X20.228 Y54.967
G01 F480 X20.463 Y54.967
G01 F480 X20.692 Y55.016
G01 F480 X20.907 Y55.111
G01 F480 X21.096 Y55.249
G01 F480 X21.253 Y55.424
G01 F480 X21.371 Y55.627
G01 F480 X21.443 Y55.850
G01 F480 X21.468 Y56.083
G01 F480 X21.443 Y56.317
G01 F480 X21.371 Y56.540
G01 F480 X21.253 Y56.743
G01 F480 X21.096 Y56.917
G01 F480 X20.907 Y57.055
G01 F480 X20.692 Y57.151
G01 F480 X20.463 Y57.199
G01 F480 X20.228 Y57.199
G00 F3000 Z3.000
G00 F3000 X22.768 Y57.199
G00 F1500 Z0
G01 F480 Z-0.200
G01 F480 X22.539 Y57.151
G01 F480 X22.324 Y57.055
G01 F480 X22.135 Y56.917
G01 F480 X21.978 Y56.743
G01 F480 X21.860 Y56.540
G01 F480 X21.788 Y56.317
G01 F480 X21.763 Y56.083
G01 F480 X21.788 Y55.850
G01 F480 X21.860 Y55.627
G01 F480 X21.978 Y55.424
G01 F480 X22.135 Y55.249
G01 F480 X22.324 Y55.111
G01 F480 X22.539 Y55.016
G01 F480 X22.768 Y54.967
G01 F480 X23.003 Y54.967
G01 F480 X23.232 Y55.016
G01 F480 X23.447 Y55.111
G01 F480 X23.636 Y55.249
G01 F480 X23.793 Y55.424
G01 F480 X23.911 Y55.627
G01 F480 X23.983 Y55.850
G01 F480 X24.008 Y56.083
G01 F480 X23.983 Y56.317
G01 F480 X23.911 Y56.540
G01 F480 X23.793 Y56.743
G01 F480 X23.636 Y56.917
G01 F480 X23.447 Y57.055
G01 F480 X23.232 Y57.151
G01 F480 X23.003 Y57.199
G01 F480 X22.768 Y57.199
G00 F3000 Z3.000
G00 F3000 X17.688 Y57.199
G00 F1500 Z0
G01 F480 Z-0.200
G01 F480 X17.459 Y57.151
G01 F480 X17.244 Y57.055
G01 F480 X17.055 Y56.917
G01 F480 X16.898 Y56.743
G01 F480 X16.780 Y56.540
G01 F480 X16.708 Y56.317
G01 F480 X16.683 Y56.083
G01 F480 X16.708 Y55.850
G01 F480 X16.780 Y55.627
G01 F480 X16.898 Y55.424
G01 F480 X17.055 Y55.249
G01 F480 X17.244 Y55.111
G01 F480 X17.459 Y55.016
G01 F480 X17.688 Y54.967
G01 F480 X17.923 Y54.967
G01 F480 X18.152 Y55.016
G01 F480 X18.367 Y55.111
G01 F480 X18.556 Y55.249
G01 F480 X18.713 Y55.424
G01 F480 X18.831 Y55.627
G01 F480 X18.903 Y55.850
G01 F480 X18.928 Y56.083
G01 F480 X18.903 Y56.317
G01 F480 X18.831 Y56.540
G01 F480 X18.713 Y56.743
G01 F480 X18.556 Y56.917
G01 F480 X18.367 Y57.055
G01 F480 X18.152 Y57.151
G01 F480 X17.923 Y57.199
G01 F480 X17.688 Y57.199
G00 F3000 Z3.000
G00 F3000 X25.308 Y57.199
G00 F1500 Z0
G01 F480 Z-0.200
G01 F480 X25.079 Y57.151
G01 F480 X24.864 Y57.055
G01 F480 X24.675 Y56.917
G01 F480 X24.518 Y56.743
G01 F480 X24.400 Y56.540
G01 F480 X24.328 Y56.317
G01 F480 X24.303 Y56.083
G01 F480 X24.328 Y55.850
G01 F480 X24.400 Y55.627
G01 F480 X24.518 Y55.424
G01 F480 X24.675 Y55.249
G01 F480 X24.864 Y55.111
G01 F480 X25.079 Y55.016
G01 F480 X25.308 Y54.967
G01 F480 X25.543 Y54.967
G01 F480 X25.772 Y55.016
G01 F480 X25.986 Y55.111
G01 F480 X26.176 Y55.249
G01 F480 X26.333 Y55.424
G01 F480 X26.451 Y55.627
G01 F480 X26.523 Y55.850
G01 F480 X26.548 Y56.083
G01 F480 X26.523 Y56.317
G01 F480 X26.451 Y56.540
G01 F480 X26.333 Y56.743
G01 F480 X26.176 Y56.917
G01 F480 X25.986 Y57.055
G01 F480 X25.772 Y57.151
G01 F480 X25.543 Y57.199
G01 F480 X25.308 Y57.199
G00 F3000 Z3.000
G00 F3000 X55.788 Y57.199
G00 F1500 Z0
G01 F480 Z-0.200
G01 F480 X55.559 Y57.151
G01 F480 X55.344 Y57.055
G01 F480 X55.155 Y56.917
G01 F480 X54.998 Y56.743
G01 F480 X54.880 Y56.540
G01 F480 X54.808 Y56.317
G01 F480 X54.783 Y56.083
G01 F480 X54.808 Y55.850
G01 F480 X54.880 Y55.627
G01 F480 X54.998 Y55.424
G01 F480 X55.155 Y55.249
G01 F480 X55.344 Y55.111
G01 F480 X55.559 Y55.016
G01 F480 X55.788 Y54.967
G01 F480 X56.023 Y54.967
G01 F480 X56.252 Y55.016
G01 F480 X56.467 Y55.111
G01 F480 X56.656 Y55.249
G01 F480 X56.813 Y55.424
G01 F480 X56.931 Y55.627
G01 F480 X57.003 Y55.850
G01 F480 X57.028 Y56.083
G01 F480 X57.003 Y56.317
G01 F480 X56.931 Y56.540
G01 F480 X56.813 Y56.743
G01 F480 X56.656 Y56.917
G01 F480 X56.467 Y57.055
G01 F480 X56.252 Y57.151
G01 F480 X56.023 Y57.199
G01 F480 X55.788 Y57.199
G00 F3000 Z3.000
G00 F3000 X49.852 Y49.385
G00 F1500 Z0
G01 F480 Z-0.200
G01 F480 X49.852 Y49.192
G01 F480 X45.613 Y49.192
G01 F480 X45.453 Y49.158
G01 F480 X45.303 Y49.091
G01 F480 X45.174 Y48.997
G01 F480 X42.647 Y46.470
G01 F480 X42.546 Y46.358
G01 F480 X42.464 Y46.217
G01 F480 X42.414 Y46.061
G01 F480 X42.397 Y45.907
G01 F480 X42.423 Y36.295
G01 F480 X42.304 Y36.164
G01 F480 X42.188 Y35.962
G01 F480 X42.116 Y35.741
G01 F480 X42.092 Y35.509
G01 F480 X42.116 Y35.278
G01 F480 X42.188 Y35.056
G01 F480 X42.304 Y34.855
G01 F480 X42.460 Y34.681
G01 F480 X42.648 Y34.545
G01 F480 X42.861 Y34.450
G01 F480 X43.089 Y34.401
G01 F480 X43.322 Y34.401
G01 F480 X43.550 Y34.450
G01 F480 X43.762 Y34.545
G01 F480 X43.951 Y34.681
G01 F480 X44.106 Y34.855
G01 F480 X44.223 Y35.056
G01 F480 X44.295 Y35.278
G01 F480 X44.319 Y35.509
G01 F480 X44.295 Y35.741
G01 F480 X44.223 Y35.962
G01 F480 X44.106 Y36.164
G01 F480 X43.988 Y36.296
G01 F480 X43.964 Y45.576
G01 F480 X46.021 Y47.633
G01 F480 X49.852 Y47.633
G01 F480 X49.852 Y47.439
G01 F480 X51.798 Y47.439
G01 F480 X51.798 Y49.385
G01 F480 X49.852 Y49.385
G00 F3000 Z3.000
G00 F3000 X14.292 Y49.385
G00 F1500 Z0
G01 F480 Z-0.200
G01 F480 X14.292 Y47.439
G01 F480 X16.238 Y47.439
G01 F480 X16.238 Y49.385
G01 F480 X14.292 Y49.385
G00 F3000 Z3.000
G00 F3000 X32.944 Y46.892
G00 F1500 Z0
G01 F480 Z-0.200
G01 F480 X32.744 Y46.849
G01 F480 X32.558 Y46.767
G01 F480 X32.394 Y46.647
G01 F480 X32.258 Y46.496
G01 F480 X32.156 Y46.319
G01 F480 X32.093 Y46.126
G01 F480 X32.071 Y45.923
G01 F480 X32.093 Y45.721
G01 F480 X32.156 Y45.527
G01 F480 X32.258 Y45.351
G01 F480 X32.394 Y45.199
G01 F480 X32.558 Y45.080
G01 F480 X32.744 Y44.997
G01 F480 X32.944 Y44.955
G01 F480 X33.147 Y44.955
G01 F480 X33.346 Y44.997
G01 F480 X33.533 Y45.080
G01 F480 X33.626 Y45.149
G01 F480 X33.649 Y45.144
G01 F480 X37.796 Y45.120
G01 F480 X39.857 Y43.038
G01 F480 X39.855 Y41.618
G01 F480 X39.754 Y41.505
G01 F480 X39.636 Y41.301
G01 F480 X39.564 Y41.077
G01 F480 X39.555 Y40.991
G01 F480 X39.447 Y40.872
G01 F480 X39.365 Y40.730
G01 F480 X39.315 Y40.574
G01 F480 X39.298 Y40.411
G01 F480 X39.315 Y40.248
G01 F480 X39.365 Y40.093
G01 F480 X39.447 Y39.951
G01 F480 X39.557 Y39.829
G01 F480 X39.689 Y39.733
G01 F480 X39.839 Y39.666
G01 F480 X39.999 Y39.632
G01 F480 X40.163 Y39.632
G01 F480 X40.323 Y39.666
G01 F480 X40.473 Y39.733
G01 F480 X40.479 Y39.737
G01 F480 X40.548 Y39.723
G01 F480 X40.783 Y39.723
G01 F480 X41.014 Y39.772
G01 F480 X41.229 Y39.868
G01 F480 X41.419 Y40.006
G01 F480 X41.577 Y40.181
G01 F480 X41.695 Y40.385
G01 F480 X41.767 Y40.609
G01 F480 X41.792 Y40.843
G01 F480 X41.767 Y41.077
G01 F480 X41.695 Y41.301
G01 F480 X41.577 Y41.505
G01 F480 X41.423 Y41.677
G01 F480 X41.423 Y43.367
G01 F480 X41.406 Y43.521
G01 F480 X41.356 Y43.677
G01 F480 X41.274 Y43.818
G01 F480 X41.174 Y43.930
G01 F480 X38.646 Y46.483
G01 F480 X38.517 Y46.576
G01 F480 X38.367 Y46.643
G01 F480 X38.208 Y46.677
G01 F480 X33.795 Y46.703
G01 F480 X33.656 Y46.703
G01 F480 X33.626 Y46.699
G01 F480 X33.532 Y46.767
G01 F480 X33.346 Y46.849
G01 F480 X33.147 Y46.892
G01 F480 X32.944 Y46.892
G00 F3000 Z3.000
G00 F3000 X50.724 Y46.892
G00 F1500 Z0
G01 F480 Z-0.200
G01 F480 X50.524 Y46.849
G01 F480 X50.338 Y46.767
G01 F480 X50.174 Y46.647
G01 F480 X50.038 Y46.496
G01 F480 X49.936 Y46.319
G01 F480 X49.873 Y46.126
G01 F480 X49.851 Y45.923
G01 F480 X49.873 Y45.721
G01 F480 X49.936 Y45.527
G01 F480 X50.038 Y45.351
G01 F480 X50.174 Y45.199
G01 F480 X50.338 Y45.080
G01 F480 X50.524 Y44.997
G01 F480 X50.724 Y44.955
G01 F480 X50.914 Y44.955
G01 F480 X51.024 Y44.886
G01 F480 X51.168 Y44.822
G01 F480 X51.328 Y44.788
G01 F480 X51.492 Y44.788
G01 F480 X51.652 Y44.822
G01 F480 X51.801 Y44.889
G01 F480 X51.934 Y44.985
G01 F480 X52.044 Y45.107
G01 F480 X52.050 Y45.119
G01 F480 X55.605 Y45.119
G01 F480 X57.684 Y43.039
G01 F480 X57.665 Y41.650
G01 F480 X57.534 Y41.505
G01 F480 X57.416 Y41.301
G01 F480 X57.344 Y41.077
G01 F480 X57.319 Y40.843
G01 F480 X57.344 Y40.609
G01 F480 X57.416 Y40.385
G01 F480 X57.534 Y40.181
G01 F480 X57.692 Y40.006
G01 F480 X57.882 Y39.868
G01 F480 X58.097 Y39.772
G01 F480 X58.328 Y39.723
G01 F480 X58.563 Y39.723
G01 F480 X58.794 Y39.772
G01 F480 X59.009 Y39.868
G01 F480 X59.199 Y40.006
G01 F480 X59.357 Y40.181
G01 F480 X59.475 Y40.385
G01 F480 X59.547 Y40.609
G01 F480 X59.572 Y40.843
G01 F480 X59.547 Y41.077
G01 F480 X59.475 Y41.301
G01 F480 X59.357 Y41.505
G01 F480 X59.229 Y41.647
G01 F480 X59.254 Y43.366
G01 F480 X59.237 Y43.521
G01 F480 X59.187 Y43.677
G01 F480 X59.105 Y43.818
G01 F480 X59.004 Y43.930
G01 F480 X56.451 Y46.483
G01 F480 X56.323 Y46.576
G01 F480 X56.173 Y46.643
G01 F480 X56.013 Y46.677
G01 F480 X51.417 Y46.691
G01 F480 X51.312 Y46.767
G01 F480 X51.126 Y46.849
G01 F480 X50.927 Y46.892
G01 F480 X50.724 Y46.892
G00 F3000 Z3.000
G00 F3000 X15.164 Y46.892
G00 F1500 Z0
G01 F480 Z-0.200
G01 F480 X14.964 Y46.849
G01 F480 X14.778 Y46.767
G01 F480 X14.614 Y46.647
G01 F480 X14.478 Y46.496
G01 F480 X14.376 Y46.319
G01 F480 X14.313 Y46.126
G01 F480 X14.291 Y45.923
G01 F480 X14.313 Y45.721
G01 F480 X14.376 Y45.527
G01 F480 X14.478 Y45.351
G01 F480 X14.614 Y45.199
G01 F480 X14.778 Y45.080
G01 F480 X14.964 Y44.997
G01 F480 X15.164 Y44.955
G01 F480 X15.367 Y44.955
G01 F480 X15.566 Y44.997
G01 F480 X15.753 Y45.080
G01 F480 X15.846 Y45.149
G01 F480 X15.869 Y45.144
G01 F480 X19.967 Y45.120
G01 F480 X22.052 Y43.035
G01 F480 X22.052 Y41.592
G01 F480 X21.974 Y41.505
G01 F480 X21.934 Y41.437
G01 F480 X21.932 Y41.436
G01 F480 X21.782 Y41.369
G01 F480 X21.650 Y41.273
G01 F480 X21.540 Y41.151
G01 F480 X21.458 Y41.010
G01 F480 X21.408 Y40.854
G01 F480 X21.391 Y40.691
G01 F480 X21.408 Y40.528
G01 F480 X21.458 Y40.372
G01 F480 X21.540 Y40.230
G01 F480 X21.650 Y40.108
G01 F480 X21.782 Y40.012
G01 F480 X21.932 Y39.946
G01 F480 X22.092 Y39.912
G01 F480 X22.254 Y39.912
G01 F480 X22.260 Y39.913
G01 F480 X22.322 Y39.868
G01 F480 X22.537 Y39.772
G01 F480 X22.768 Y39.723
G01 F480 X23.003 Y39.723
G01 F480 X23.233 Y39.772
G01 F480 X23.449 Y39.868
G01 F480 X23.639 Y40.006
G01 F480 X23.797 Y40.181
G01 F480 X23.915 Y40.385
G01 F480 X23.987 Y40.609
G01 F480 X24.012 Y40.843
G01 F480 X23.987 Y41.077
G01 F480 X23.915 Y41.301
G01 F480 X23.797 Y41.505
G01 F480 X23.639 Y41.680
G01 F480 X23.617 Y41.696
G01 F480 X23.617 Y43.367
G01 F480 X23.601 Y43.521
G01 F480 X23.550 Y43.677
G01 F480 X23.469 Y43.818
G01 F480 X23.368 Y43.930
G01 F480 X20.815 Y46.483
G01 F480 X20.686 Y46.576
G01 F480 X20.537 Y46.643
G01 F480 X20.377 Y46.677
G01 F480 X16.015 Y46.703
G01 F480 X15.876 Y46.703
G01 F480 X15.846 Y46.699
G01 F480 X15.752 Y46.767
G01 F480 X15.566 Y46.849
G01 F480 X15.367 Y46.892
G01 F480 X15.164 Y46.892
G00 F3000 Z3.000
G00 F3000 X30.388 Y41.964
G00 F1500 Z0
G01 F480 Z-0.200
G01 F480 X30.157 Y41.915
G01 F480 X29.942 Y41.819
G01 F480 X29.752 Y41.680
G01 F480 X29.594 Y41.505
G01 F480 X29.476 Y41.301
G01 F480 X29.404 Y41.077
G01 F480 X29.379 Y40.843
G01 F480 X29.404 Y40.609
G01 F480 X29.476 Y40.385
G01 F480 X29.594 Y40.181
G01 F480 X29.724 Y40.037
G01 F480 X29.748 Y38.303
G01 F480 X29.723 Y36.295
G01 F480 X29.604 Y36.164
G01 F480 X29.488 Y35.962
G01 F480 X29.416 Y35.741
G01 F480 X29.392 Y35.509
G01 F480 X29.416 Y35.278
G01 F480 X29.488 Y35.056
G01 F480 X29.604 Y34.855
G01 F480 X29.723 Y34.723
G01 F480 X29.724 Y18.789
G01 F480 X29.594 Y18.645
G01 F480 X29.476 Y18.441
G01 F480 X29.404 Y18.217
G01 F480 X29.379 Y17.983
G01 F480 X29.404 Y17.749
G01 F480 X29.476 Y17.525
G01 F480 X29.594 Y17.321
G01 F480 X29.723 Y17.178
G01 F480 X29.745 Y13.460
G01 F480 X29.604 Y13.304
G01 F480 X29.488 Y13.102
G01 F480 X29.416 Y12.881
G01 F480 X29.392 Y12.649
G01 F480 X29.416 Y12.418
G01 F480 X29.488 Y12.196
G01 F480 X29.604 Y11.995
G01 F480 X29.760 Y11.822
G01 F480 X29.949 Y11.685
G01 F480 X30.161 Y11.590
G01 F480 X30.389 Y11.542
G01 F480 X30.622 Y11.542
G01 F480 X30.850 Y11.590
G01 F480 X31.062 Y11.685
G01 F480 X31.251 Y11.822
G01 F480 X31.406 Y11.995
G01 F480 X31.523 Y12.196
G01 F480 X31.595 Y12.418
G01 F480 X31.619 Y12.649
G01 F480 X31.595 Y12.881
G01 F480 X31.523 Y13.102
G01 F480 X31.406 Y13.304
G01 F480 X31.358 Y13.358
G01 F480 X31.365 Y13.438
G01 F480 X31.348 Y13.600
G01 F480 X31.309 Y13.718
G01 F480 X31.288 Y17.178
G01 F480 X31.417 Y17.321
G01 F480 X31.535 Y17.525
G01 F480 X31.607 Y17.749
G01 F480 X31.632 Y17.983
G01 F480 X31.607 Y18.217
G01 F480 X31.535 Y18.441
G01 F480 X31.417 Y18.645
G01 F480 X31.288 Y18.788
G01 F480 X31.288 Y34.723
G01 F480 X31.406 Y34.855
G01 F480 X31.523 Y35.056
G01 F480 X31.595 Y35.278
G01 F480 X31.619 Y35.509
G01 F480 X31.595 Y35.741
G01 F480 X31.523 Y35.962
G01 F480 X31.406 Y36.164
G01 F480 X31.288 Y36.295
G01 F480 X31.313 Y38.303
G01 F480 X31.288 Y40.038
G01 F480 X31.417 Y40.181
G01 F480 X31.535 Y40.385
G01 F480 X31.607 Y40.609
G01 F480 X31.632 Y40.843
G01 F480 X31.607 Y41.077
G01 F480 X31.535 Y41.301
G01 F480 X31.417 Y41.505
G01 F480 X31.259 Y41.680
G01 F480 X31.069 Y41.819
G01 F480 X30.854 Y41.915
G01 F480 X30.623 Y41.964
G01 F480 X30.388 Y41.964
G00 F3000 Z3.000
G00 F3000 X48.168 Y41.964
G00 F1500 Z0
G01 F480 Z-0.200
G01 F480 X47.937 Y41.915
G01 F480 X47.722 Y41.819
G01 F480 X47.532 Y41.680
G01 F480 X47.374 Y41.505
G01 F480 X47.334 Y41.437
G01 F480 X47.332 Y41.436
G01 F480 X47.182 Y41.369
G01 F480 X47.050 Y41.273
G01 F480 X46.940 Y41.151
G01 F480 X46.858 Y41.010
G01 F480 X46.808 Y40.854
G01 F480 X46.791 Y40.691
G01 F480 X46.808 Y40.528
G01 F480 X46.858 Y40.372
G01 F480 X46.940 Y40.230
G01 F480 X47.050 Y40.108
G01 F480 X47.182 Y40.012
G01 F480 X47.332 Y39.946
G01 F480 X47.462 Y39.918
G01 F480 X47.503 Y36.295
G01 F480 X47.384 Y36.164
G01 F480 X47.268 Y35.962
G01 F480 X47.196 Y35.741
G01 F480 X47.172 Y35.509
G01 F480 X47.196 Y35.278
G01 F480 X47.268 Y35.056
G01 F480 X47.384 Y34.855
G01 F480 X47.540 Y34.681
G01 F480 X47.543 Y34.679
G01 F480 X47.519 Y34.605
G01 F480 X47.503 Y34.452
G01 F480 X47.503 Y33.572
G01 F480 X45.187 Y31.255
G01 F480 X45.086 Y31.144
G01 F480 X45.004 Y31.002
G01 F480 X44.954 Y30.846
G01 F480 X44.937 Y30.692
G01 F480 X44.963 Y20.514
G01 F480 X44.979 Y20.360
G01 F480 X45.030 Y20.204
G01 F480 X45.111 Y20.063
G01 F480 X45.212 Y19.951
G01 F480 X47.155 Y18.008
G01 F480 X47.161 Y18.004
G01 F480 X47.159 Y17.983
G01 F480 X47.184 Y17.749
G01 F480 X47.256 Y17.525
G01 F480 X47.374 Y17.321
G01 F480 X47.502 Y17.179
G01 F480 X47.463 Y13.834
G01 F480 X47.417 Y13.755
G01 F480 X47.367 Y13.600
G01 F480 X47.349 Y13.437
G01 F480 X47.365 Y13.285
G01 F480 X47.367 Y13.274
G01 F480 X47.268 Y13.102
G01 F480 X47.196 Y12.881
G01 F480 X47.172 Y12.649
G01 F480 X47.196 Y12.418
G01 F480 X47.268 Y12.196
G01 F480 X47.384 Y11.995
G01 F480 X47.540 Y11.822
G01 F480 X47.729 Y11.685
G01 F480 X47.941 Y11.590
G01 F480 X48.169 Y11.542
G01 F480 X48.402 Y11.542
G01 F480 X48.630 Y11.590
G01 F480 X48.842 Y11.685
G01 F480 X49.031 Y11.822
G01 F480 X49.186 Y11.995
G01 F480 X49.303 Y12.196
G01 F480 X49.375 Y12.418
G01 F480 X49.399 Y12.649
G01 F480 X49.375 Y12.881
G01 F480 X49.303 Y13.102
G01 F480 X49.186 Y13.304
G01 F480 X49.031 Y13.477
G01 F480 X49.024 Y13.482
G01 F480 X49.066 Y17.176
G01 F480 X49.197 Y17.321
G01 F480 X49.315 Y17.525
G01 F480 X49.387 Y17.749
G01 F480 X49.412 Y17.983
G01 F480 X49.387 Y18.217
G01 F480 X49.315 Y18.441
G01 F480 X49.197 Y18.645
G01 F480 X49.039 Y18.820
G01 F480 X48.849 Y18.959
G01 F480 X48.634 Y19.055
G01 F480 X48.403 Y19.104
G01 F480 X48.265 Y19.104
G01 F480 X48.209 Y19.165
G01 F480 X46.527 Y20.847
G01 F480 X46.503 Y30.361
G01 F480 X48.819 Y32.677
G01 F480 X48.919 Y32.788
G01 F480 X49.001 Y32.930
G01 F480 X49.052 Y33.086
G01 F480 X49.068 Y33.239
G01 F480 X49.068 Y34.452
G01 F480 X49.052 Y34.605
G01 F480 X49.028 Y34.679
G01 F480 X49.031 Y34.681
G01 F480 X49.186 Y34.855
G01 F480 X49.303 Y35.056
G01 F480 X49.375 Y35.278
G01 F480 X49.399 Y35.509
G01 F480 X49.375 Y35.741
G01 F480 X49.303 Y35.962
G01 F480 X49.186 Y36.164
G01 F480 X49.068 Y36.295
G01 F480 X49.026 Y39.997
G01 F480 X49.039 Y40.006
G01 F480 X49.197 Y40.181
G01 F480 X49.315 Y40.385
G01 F480 X49.387 Y40.609
G01 F480 X49.412 Y40.843
G01 F480 X49.387 Y41.077
G01 F480 X49.315 Y41.301
G01 F480 X49.197 Y41.505
G01 F480 X49.039 Y41.680
G01 F480 X48.849 Y41.819
G01 F480 X48.634 Y41.915
G01 F480 X48.403 Y41.964
G01 F480 X48.168 Y41.964
G00 F3000 Z3.000
G00 F3000 X27.849 Y36.871
G00 F1500 Z0
G01 F480 Z-0.200
G01 F480 X27.621 Y36.822
G01 F480 X27.409 Y36.728
G01 F480 X27.220 Y36.591
G01 F480 X27.064 Y36.418
G01 F480 X26.948 Y36.216
G01 F480 X26.876 Y35.995
G01 F480 X26.852 Y35.763
G01 F480 X26.876 Y35.532
G01 F480 X26.948 Y35.310
G01 F480 X27.064 Y35.109
G01 F480 X27.220 Y34.936
G01 F480 X27.409 Y34.799
G01 F480 X27.621 Y34.704
G01 F480 X27.849 Y34.656
G01 F480 X28.082 Y34.656
G01 F480 X28.310 Y34.704
G01 F480 X28.522 Y34.799
G01 F480 X28.711 Y34.936
G01 F480 X28.866 Y35.109
G01 F480 X28.983 Y35.310
G01 F480 X29.055 Y35.532
G01 F480 X29.079 Y35.763
G01 F480 X29.055 Y35.995
G01 F480 X28.983 Y36.216
G01 F480 X28.866 Y36.418
G01 F480 X28.711 Y36.591
G01 F480 X28.522 Y36.728
G01 F480 X28.310 Y36.822
G01 F480 X28.082 Y36.871
G01 F480 X27.849 Y36.871
G00 F3000 Z3.000
G00 F3000 X45.629 Y36.871
G00 F1500 Z0
G01 F480 Z-0.200
G01 F480 X45.401 Y36.822
G01 F480 X45.189 Y36.728
G01 F480 X45.000 Y36.591
G01 F480 X44.844 Y36.418
G01 F480 X44.728 Y36.216
G01 F480 X44.656 Y35.995
G01 F480 X44.632 Y35.763
G01 F480 X44.656 Y35.532
G01 F480 X44.728 Y35.310
G01 F480 X44.844 Y35.109
G01 F480 X45.000 Y34.936
G01 F480 X45.189 Y34.799
G01 F480 X45.401 Y34.704
G01 F480 X45.629 Y34.656
G01 F480 X45.862 Y34.656
G01 F480 X46.090 Y34.704
G01 F480 X46.302 Y34.799
G01 F480 X46.491 Y34.936
G01 F480 X46.646 Y35.109
G01 F480 X46.763 Y35.310
G01 F480 X46.835 Y35.532
G01 F480 X46.859 Y35.763
G01 F480 X46.835 Y35.995
G01 F480 X46.763 Y36.216
G01 F480 X46.646 Y36.418
G01 F480 X46.491 Y36.591
G01 F480 X46.302 Y36.728
G01 F480 X46.090 Y36.822
G01 F480 X45.862 Y36.871
G01 F480 X45.629 Y36.871
G00 F3000 Z3.000
G00 F3000 X50.709 Y36.871
G00 F1500 Z0
G01 F480 Z-0.200
G01 F480 X50.481 Y36.822
G01 F480 X50.269 Y36.728
G01 F480 X50.080 Y36.591
G01 F480 X49.924 Y36.418
G01 F480 X49.808 Y36.216
G01 F480 X49.736 Y35.995
G01 F480 X49.712 Y35.763
G01 F480 X49.736 Y35.532
G01 F480 X49.808 Y35.310
G01 F480 X49.924 Y35.109
G01 F480 X50.056 Y34.962
G01 F480 X50.043 Y34.833
G01 F480 X50.043 Y31.006
G01 F480 X47.752 Y28.715
G01 F480 X47.652 Y28.604
G01 F480 X47.570 Y28.462
G01 F480 X47.519 Y28.306
G01 F480 X47.503 Y28.152
G01 F480 X47.503 Y23.054
G01 F480 X47.519 Y22.900
G01 F480 X47.568 Y22.750
G01 F480 X50.043 Y17.800
G01 F480 X50.043 Y13.834
G01 F480 X50.056 Y13.705
G01 F480 X49.924 Y13.558
G01 F480 X49.808 Y13.356
G01 F480 X49.736 Y13.135
G01 F480 X49.712 Y12.903
G01 F480 X49.736 Y12.672
G01 F480 X49.808 Y12.450
G01 F480 X49.924 Y12.249
G01 F480 X50.080 Y12.075
G01 F480 X50.269 Y11.939
G01 F480 X50.481 Y11.844
G01 F480 X50.709 Y11.796
G01 F480 X50.942 Y11.796
G01 F480 X51.170 Y11.844
G01 F480 X51.382 Y11.939
G01 F480 X51.571 Y12.075
G01 F480 X51.726 Y12.249
G01 F480 X51.843 Y12.450
G01 F480 X51.915 Y12.672
G01 F480 X51.939 Y12.903
G01 F480 X51.915 Y13.135
G01 F480 X51.843 Y13.356
G01 F480 X51.726 Y13.558
G01 F480 X51.594 Y13.705
G01 F480 X51.608 Y13.834
G01 F480 X51.608 Y17.992
G01 F480 X51.592 Y18.146
G01 F480 X51.543 Y18.297
G01 F480 X49.068 Y23.247
G01 F480 X49.068 Y27.820
G01 F480 X51.359 Y30.111
G01 F480 X51.459 Y30.223
G01 F480 X51.541 Y30.365
G01 F480 X51.592 Y30.520
G01 F480 X51.608 Y30.674
G01 F480 X51.608 Y34.833
G01 F480 X51.594 Y34.962
G01 F480 X51.726 Y35.109
G01 F480 X51.843 Y35.310
G01 F480 X51.915 Y35.532
G01 F480 X51.939 Y35.763
G01 F480 X51.915 Y35.995
G01 F480 X51.843 Y36.216
G01 F480 X51.726 Y36.418
G01 F480 X51.571 Y36.591
G01 F480 X51.382 Y36.728
G01 F480 X51.170 Y36.822
G01 F480 X50.942 Y36.871
G01 F480 X50.709 Y36.871
G00 F3000 Z3.000
G00 F3000 X10.069 Y36.871
G00 F1500 Z0
G01 F480 Z-0.200
G01 F480 X9.841 Y36.822
G01 F480 X9.629 Y36.728
G01 F480 X9.440 Y36.591
G01 F480 X9.284 Y36.418
G01 F480 X9.168 Y36.216
G01 F480 X9.096 Y35.995
G01 F480 X9.072 Y35.763
G01 F480 X9.096 Y35.532
G01 F480 X9.168 Y35.310
G01 F480 X9.284 Y35.109
G01 F480 X9.440 Y34.936
G01 F480 X9.629 Y34.799
G01 F480 X9.841 Y34.704
G01 F480 X10.069 Y34.656
G01 F480 X10.302 Y34.656
G01 F480 X10.530 Y34.704
G01 F480 X10.742 Y34.799
G01 F480 X10.931 Y34.936
G01 F480 X11.086 Y35.109
G01 F480 X11.203 Y35.310
G01 F480 X11.275 Y35.532
G01 F480 X11.299 Y35.763
G01 F480 X11.275 Y35.995
G01 F480 X11.203 Y36.216
G01 F480 X11.086 Y36.418
G01 F480 X10.931 Y36.591
G01 F480 X10.742 Y36.728
G01 F480 X10.530 Y36.822
G01 F480 X10.302 Y36.871
G01 F480 X10.069 Y36.871
G00 F3000 Z3.000
G00 F3000 X15.149 Y36.871
G00 F1500 Z0
G01 F480 Z-0.200
G01 F480 X14.921 Y36.822
G01 F480 X14.709 Y36.728
G01 F480 X14.520 Y36.591
G01 F480 X14.364 Y36.418
G01 F480 X14.248 Y36.216
G01 F480 X14.176 Y35.995
G01 F480 X14.152 Y35.763
G01 F480 X14.176 Y35.532
G01 F480 X14.248 Y35.310
G01 F480 X14.364 Y35.109
G01 F480 X14.520 Y34.936
G01 F480 X14.709 Y34.799
G01 F480 X14.921 Y34.704
G01 F480 X15.149 Y34.656
G01 F480 X15.382 Y34.656
G01 F480 X15.610 Y34.704
G01 F480 X15.822 Y34.799
G01 F480 X16.011 Y34.936
G01 F480 X16.166 Y35.109
G01 F480 X16.283 Y35.310
G01 F480 X16.355 Y35.532
G01 F480 X16.379 Y35.763
G01 F480 X16.355 Y35.995
G01 F480 X16.283 Y36.216
G01 F480 X16.166 Y36.418
G01 F480 X16.011 Y36.591
G01 F480 X15.822 Y36.728
G01 F480 X15.610 Y36.822
G01 F480 X15.382 Y36.871
G01 F480 X15.149 Y36.871
G00 F3000 Z3.000
G00 F3000 X32.929 Y36.871
G00 F1500 Z0
G01 F480 Z-0.200
G01 F480 X32.701 Y36.822
G01 F480 X32.489 Y36.728
G01 F480 X32.300 Y36.591
G01 F480 X32.144 Y36.418
G01 F480 X32.028 Y36.216
G01 F480 X31.956 Y35.995
G01 F480 X31.932 Y35.763
G01 F480 X31.956 Y35.532
G01 F480 X32.028 Y35.310
G01 F480 X32.144 Y35.109
G01 F480 X32.300 Y34.936
G01 F480 X32.489 Y34.799
G01 F480 X32.701 Y34.704
G01 F480 X32.929 Y34.656
G01 F480 X33.162 Y34.656
G01 F480 X33.390 Y34.704
G01 F480 X33.602 Y34.799
G01 F480 X33.791 Y34.936
G01 F480 X33.946 Y35.109
G01 F480 X34.063 Y35.310
G01 F480 X34.135 Y35.532
G01 F480 X34.159 Y35.763
G01 F480 X34.135 Y35.995
G01 F480 X34.063 Y36.216
G01 F480 X33.946 Y36.418
G01 F480 X33.791 Y36.591
G01 F480 X33.602 Y36.728
G01 F480 X33.390 Y36.822
G01 F480 X33.162 Y36.871
G01 F480 X32.929 Y36.871
G00 F3000 Z3.000
G00 F3000 X38.009 Y36.871
G00 F1500 Z0
G01 F480 Z-0.200
G01 F480 X37.781 Y36.822
G01 F480 X37.569 Y36.728
G01 F480 X37.380 Y36.591
G01 F480 X37.224 Y36.418
G01 F480 X37.108 Y36.216
G01 F480 X37.036 Y35.995
G01 F480 X37.012 Y35.763
G01 F480 X37.036 Y35.532
G01 F480 X37.108 Y35.310
G01 F480 X37.224 Y35.109
G01 F480 X37.380 Y34.936
G01 F480 X37.569 Y34.799
G01 F480 X37.781 Y34.704
G01 F480 X38.009 Y34.656
G01 F480 X38.242 Y34.656
G01 F480 X38.470 Y34.704
G01 F480 X38.682 Y34.799
G01 F480 X38.871 Y34.936
G01 F480 X39.026 Y35.109
G01 F480 X39.143 Y35.310
G01 F480 X39.215 Y35.532
G01 F480 X39.239 Y35.763
G01 F480 X39.215 Y35.995
G01 F480 X39.143 Y36.216
G01 F480 X39.026 Y36.418
G01 F480 X38.871 Y36.591
G01 F480 X38.682 Y36.728
G01 F480 X38.470 Y36.822
G01 F480 X38.242 Y36.871
G01 F480 X38.009 Y36.871
G00 F3000 Z3.000
G00 F3000 X20.229 Y36.871
G00 F1500 Z0
G01 F480 Z-0.200
G01 F480 X20.001 Y36.822
G01 F480 X19.789 Y36.728
G01 F480 X19.600 Y36.591
G01 F480 X19.444 Y36.418
G01 F480 X19.328 Y36.216
G01 F480 X19.256 Y35.995
G01 F480 X19.232 Y35.763
G01 F480 X19.256 Y35.532
G01 F480 X19.328 Y35.310
G01 F480 X19.444 Y35.109
G01 F480 X19.600 Y34.936
G01 F480 X19.789 Y34.799
G01 F480 X20.001 Y34.704
G01 F480 X20.229 Y34.656
G01 F480 X20.462 Y34.656
G01 F480 X20.690 Y34.704
G01 F480 X20.902 Y34.799
G01 F480 X21.091 Y34.936
G01 F480 X21.246 Y35.109
G01 F480 X21.363 Y35.310
G01 F480 X21.435 Y35.532
G01 F480 X21.459 Y35.763
G01 F480 X21.435 Y35.995
G01 F480 X21.363 Y36.216
G01 F480 X21.246 Y36.418
G01 F480 X21.091 Y36.591
G01 F480 X20.902 Y36.728
G01 F480 X20.690 Y36.822
G01 F480 X20.462 Y36.871
G01 F480 X20.229 Y36.871
G00 F3000 Z3.000
G00 F3000 X53.249 Y36.617
G00 F1500 Z0
G01 F480 Z-0.200
G01 F480 X53.021 Y36.568
G01 F480 X52.809 Y36.474
G01 F480 X52.620 Y36.337
G01 F480 X52.464 Y36.164
G01 F480 X52.348 Y35.962
G01 F480 X52.276 Y35.741
G01 F480 X52.252 Y35.509
G01 F480 X52.276 Y35.278
G01 F480 X52.348 Y35.056
G01 F480 X52.464 Y34.855
G01 F480 X52.620 Y34.681
G01 F480 X52.809 Y34.545
G01 F480 X53.021 Y34.450
G01 F480 X53.249 Y34.401
G01 F480 X53.482 Y34.401
G01 F480 X53.710 Y34.450
G01 F480 X53.922 Y34.545
G01 F480 X54.111 Y34.681
G01 F480 X54.266 Y34.855
G01 F480 X54.383 Y35.056
G01 F480 X54.455 Y35.278
G01 F480 X54.479 Y35.509
G01 F480 X54.455 Y35.741
G01 F480 X54.383 Y35.962
G01 F480 X54.266 Y36.164
G01 F480 X54.111 Y36.337
G01 F480 X53.922 Y36.474
G01 F480 X53.710 Y36.568
G01 F480 X53.482 Y36.617
G01 F480 X53.249 Y36.617
G00 F3000 Z3.000
G00 F3000 X7.529 Y36.617
G00 F1500 Z0
G01 F480 Z-0.200
G01 F480 X7.301 Y36.568
G01 F480 X7.089 Y36.474
G01 F480 X6.900 Y36.337
G01 F480 X6.744 Y36.164
G01 F480 X6.628 Y35.962
G01 F480 X6.556 Y35.741
G01 F480 X6.532 Y35.509
G01 F480 X6.556 Y35.278
G01 F480 X6.628 Y35.056
G01 F480 X6.744 Y34.855
G01 F480 X6.900 Y34.681
G01 F480 X7.089 Y34.545
G01 F480 X7.301 Y34.450
G01 F480 X7.529 Y34.401
G01 F480 X7.762 Y34.401
G01 F480 X7.990 Y34.450
G01 F480 X8.202 Y34.545
G01 F480 X8.391 Y34.681
G01 F480 X8.546 Y34.855
G01 F480 X8.663 Y35.056
G01 F480 X8.735 Y35.278
G01 F480 X8.759 Y35.509
G01 F480 X8.735 Y35.741
G01 F480 X8.663 Y35.962
G01 F480 X8.546 Y36.164
G01 F480 X8.391 Y36.337
G01 F480 X8.202 Y36.474
G01 F480 X7.990 Y36.568
G01 F480 X7.762 Y36.617
G01 F480 X7.529 Y36.617
G00 F3000 Z3.000
G00 F3000 X35.469 Y36.617
G00 F1500 Z0
G01 F480 Z-0.200
G01 F480 X35.241 Y36.568
G01 F480 X35.029 Y36.474
G01 F480 X34.840 Y36.337
G01 F480 X34.684 Y36.164
G01 F480 X34.568 Y35.962
G01 F480 X34.496 Y35.741
G01 F480 X34.472 Y35.509
G01 F480 X34.496 Y35.278
G01 F480 X34.568 Y35.056
G01 F480 X34.684 Y34.855
G01 F480 X34.840 Y34.681
G01 F480 X35.029 Y34.545
G01 F480 X35.241 Y34.450
G01 F480 X35.469 Y34.401
G01 F480 X35.702 Y34.401
G01 F480 X35.930 Y34.450
G01 F480 X36.142 Y34.545
G01 F480 X36.331 Y34.681
G01 F480 X36.486 Y34.855
G01 F480 X36.603 Y35.056
G01 F480 X36.675 Y35.278
G01 F480 X36.699 Y35.509
G01 F480 X36.675 Y35.741
G01 F480 X36.603 Y35.962
G01 F480 X36.486 Y36.164
G01 F480 X36.331 Y36.337
G01 F480 X36.142 Y36.474
G01 F480 X35.930 Y36.568
G01 F480 X35.702 Y36.617
G01 F480 X35.469 Y36.617
G00 F3000 Z3.000
G00 F3000 X17.689 Y36.617
G00 F1500 Z0
G01 F480 Z-0.200
G01 F480 X17.461 Y36.568
G01 F480 X17.248 Y36.474
G01 F480 X17.060 Y36.337
G01 F480 X16.904 Y36.164
G01 F480 X16.788 Y35.962
G01 F480 X16.716 Y35.741
G01 F480 X16.692 Y35.509
G01 F480 X16.716 Y35.278
G01 F480 X16.788 Y35.056
G01 F480 X16.904 Y34.855
G01 F480 X17.060 Y34.681
G01 F480 X17.248 Y34.545
G01 F480 X17.461 Y34.450
G01 F480 X17.689 Y34.401
G01 F480 X17.922 Y34.401
G01 F480 X18.150 Y34.450
G01 F480 X18.362 Y34.545
G01 F480 X18.551 Y34.681
G01 F480 X18.706 Y34.855
G01 F480 X18.823 Y35.056
G01 F480 X18.895 Y35.278
G01 F480 X18.919 Y35.509
G01 F480 X18.895 Y35.741
G01 F480 X18.823 Y35.962
G01 F480 X18.706 Y36.164
G01 F480 X18.551 Y36.337
G01 F480 X18.362 Y36.474
G01 F480 X18.150 Y36.568
G01 F480 X17.922 Y36.617
G01 F480 X17.689 Y36.617
G00 F3000 Z3.000
G00 F3000 X32.072 Y26.525
G00 F1500 Z0
G01 F480 Z-0.200
G01 F480 X32.072 Y24.579
G01 F480 X34.018 Y24.579
G01 F480 X34.018 Y26.525
G01 F480 X32.072 Y26.525
G00 F3000 Z3.000
G00 F3000 X49.852 Y26.525
G00 F1500 Z0
G01 F480 Z-0.200
G01 F480 X49.852 Y24.579
G01 F480 X51.798 Y24.579
G01 F480 X51.798 Y26.525
G01 F480 X49.852 Y26.525
G00 F3000 Z3.000
G00 F3000 X50.724 Y24.032
G00 F1500 Z0
G01 F480 Z-0.200
G01 F480 X50.524 Y23.989
G01 F480 X50.338 Y23.907
G01 F480 X50.174 Y23.787
G01 F480 X50.038 Y23.636
G01 F480 X49.936 Y23.459
G01 F480 X49.873 Y23.266
G01 F480 X49.851 Y23.063
G01 F480 X49.873 Y22.861
G01 F480 X49.936 Y22.667
G01 F480 X50.038 Y22.491
G01 F480 X50.174 Y22.339
G01 F480 X50.338 Y22.220
G01 F480 X50.524 Y22.137
G01 F480 X50.724 Y22.095
G01 F480 X50.927 Y22.095
G01 F480 X51.126 Y22.137
G01 F480 X51.313 Y22.220
G01 F480 X51.406 Y22.289
G01 F480 X51.428 Y22.284
G01 F480 X55.604 Y22.236
G01 F480 X57.688 Y20.172
G01 F480 X57.688 Y18.817
G01 F480 X57.534 Y18.645
G01 F480 X57.416 Y18.441
G01 F480 X57.344 Y18.217
G01 F480 X57.319 Y17.983
G01 F480 X57.344 Y17.749
G01 F480 X57.416 Y17.525
G01 F480 X57.534 Y17.321
G01 F480 X57.692 Y17.146
G01 F480 X57.882 Y17.008
G01 F480 X58.097 Y16.912
G01 F480 X58.328 Y16.863
G01 F480 X58.360 Y16.863
G01 F480 X58.378 Y16.842
G01 F480 X58.511 Y16.746
G01 F480 X58.661 Y16.679
G01 F480 X58.821 Y16.645
G01 F480 X58.985 Y16.645
G01 F480 X59.145 Y16.679
G01 F480 X59.294 Y16.746
G01 F480 X59.427 Y16.842
G01 F480 X59.537 Y16.964
G01 F480 X59.618 Y17.106
G01 F480 X59.669 Y17.262
G01 F480 X59.686 Y17.424
G01 F480 X59.669 Y17.587
G01 F480 X59.618 Y17.743
G01 F480 X59.558 Y17.848
G01 F480 X59.572 Y17.983
G01 F480 X59.547 Y18.217
G01 F480 X59.475 Y18.441
G01 F480 X59.357 Y18.646
G01 F480 X59.253 Y18.759
G01 F480 X59.253 Y20.507
G01 F480 X59.237 Y20.661
G01 F480 X59.187 Y20.817
G01 F480 X59.105 Y20.958
G01 F480 X59.004 Y21.070
G01 F480 X56.451 Y23.598
G01 F480 X56.323 Y23.691
G01 F480 X56.173 Y23.758
G01 F480 X56.014 Y23.792
G01 F480 X51.576 Y23.843
G01 F480 X51.436 Y23.843
G01 F480 X51.406 Y23.838
G01 F480 X51.312 Y23.907
G01 F480 X51.126 Y23.989
G01 F480 X50.927 Y24.032
G01 F480 X50.724 Y24.032
G00 F3000 Z3.000
G00 F3000 X32.944 Y24.032
G00 F1500 Z0
G01 F480 Z-0.200
G01 F480 X32.744 Y23.989
G01 F480 X32.558 Y23.907
G01 F480 X32.394 Y23.787
G01 F480 X32.258 Y23.636
G01 F480 X32.156 Y23.459
G01 F480 X32.093 Y23.266
G01 F480 X32.071 Y23.063
G01 F480 X32.093 Y22.861
G01 F480 X32.156 Y22.667
G01 F480 X32.258 Y22.491
G01 F480 X32.394 Y22.339
G01 F480 X32.558 Y22.220
G01 F480 X32.744 Y22.137
G01 F480 X32.944 Y22.095
G01 F480 X33.147 Y22.095
G01 F480 X33.346 Y22.137
G01 F480 X33.533 Y22.220
G01 F480 X33.626 Y22.289
G01 F480 X33.648 Y22.284
G01 F480 X37.796 Y22.236
G01 F480 X39.857 Y20.175
G01 F480 X39.855 Y18.758
G01 F480 X39.754 Y18.645
G01 F480 X39.636 Y18.441
G01 F480 X39.564 Y18.217
G01 F480 X39.539 Y17.983
G01 F480 X39.564 Y17.749
G01 F480 X39.568 Y17.735
G01 F480 X39.543 Y17.692
G01 F480 X39.493 Y17.537
G01 F480 X39.475 Y17.374
G01 F480 X39.493 Y17.211
G01 F480 X39.543 Y17.055
G01 F480 X39.625 Y16.913
G01 F480 X39.735 Y16.791
G01 F480 X39.867 Y16.695
G01 F480 X40.017 Y16.628
G01 F480 X40.177 Y16.594
G01 F480 X40.341 Y16.594
G01 F480 X40.501 Y16.628
G01 F480 X40.651 Y16.695
G01 F480 X40.785 Y16.793
G01 F480 X40.859 Y16.879
G01 F480 X41.014 Y16.912
G01 F480 X41.229 Y17.008
G01 F480 X41.419 Y17.146
G01 F480 X41.577 Y17.321
G01 F480 X41.695 Y17.525
G01 F480 X41.767 Y17.749
G01 F480 X41.792 Y17.983
G01 F480 X41.767 Y18.217
G01 F480 X41.695 Y18.441
G01 F480 X41.577 Y18.645
G01 F480 X41.423 Y18.817
G01 F480 X41.423 Y20.507
G01 F480 X41.406 Y20.661
G01 F480 X41.356 Y20.817
G01 F480 X41.274 Y20.958
G01 F480 X41.173 Y21.070
G01 F480 X38.646 Y23.597
G01 F480 X38.517 Y23.691
G01 F480 X38.367 Y23.758
G01 F480 X38.208 Y23.792
G01 F480 X33.796 Y23.843
G01 F480 X33.656 Y23.843
G01 F480 X33.626 Y23.838
G01 F480 X33.532 Y23.907
G01 F480 X33.346 Y23.989
G01 F480 X33.147 Y24.032
G01 F480 X32.944 Y24.032
G00 F3000 Z3.000
G00 F3000 X15.164 Y24.032
G00 F1500 Z0
G01 F480 Z-0.200
G01 F480 X14.964 Y23.989
G01 F480 X14.778 Y23.907
G01 F480 X14.614 Y23.787
G01 F480 X14.478 Y23.636
G01 F480 X14.376 Y23.459
G01 F480 X14.313 Y23.266
G01 F480 X14.291 Y23.063
G01 F480 X14.313 Y22.861
G01 F480 X14.376 Y22.667
G01 F480 X14.478 Y22.491
G01 F480 X14.614 Y22.339
G01 F480 X14.778 Y22.220
G01 F480 X14.964 Y22.137
G01 F480 X15.164 Y22.095
G01 F480 X15.367 Y22.095
G01 F480 X15.566 Y22.137
G01 F480 X15.753 Y22.220
G01 F480 X15.846 Y22.289
G01 F480 X15.868 Y22.284
G01 F480 X19.967 Y22.236
G01 F480 X22.052 Y20.172
G01 F480 X22.052 Y18.732
G01 F480 X21.974 Y18.645
G01 F480 X21.856 Y18.441
G01 F480 X21.828 Y18.353
G01 F480 X21.701 Y18.261
G01 F480 X21.591 Y18.139
G01 F480 X21.509 Y17.997
G01 F480 X21.459 Y17.841
G01 F480 X21.441 Y17.678
G01 F480 X21.459 Y17.515
G01 F480 X21.509 Y17.360
G01 F480 X21.591 Y17.218
G01 F480 X21.701 Y17.096
G01 F480 X21.833 Y17.000
G01 F480 X21.983 Y16.933
G01 F480 X22.143 Y16.899
G01 F480 X22.307 Y16.899
G01 F480 X22.467 Y16.933
G01 F480 X22.478 Y16.938
G01 F480 X22.537 Y16.912
G01 F480 X22.768 Y16.863
G01 F480 X23.003 Y16.863
G01 F480 X23.233 Y16.912
G01 F480 X23.449 Y17.008
G01 F480 X23.639 Y17.146
G01 F480 X23.797 Y17.321
G01 F480 X23.915 Y17.525
G01 F480 X23.987 Y17.749
G01 F480 X24.012 Y17.983
G01 F480 X23.987 Y18.217
G01 F480 X23.915 Y18.441
G01 F480 X23.797 Y18.645
G01 F480 X23.639 Y18.820
G01 F480 X23.617 Y18.836
G01 F480 X23.617 Y20.507
G01 F480 X23.601 Y20.661
G01 F480 X23.550 Y20.817
G01 F480 X23.469 Y20.958
G01 F480 X23.368 Y21.070
G01 F480 X20.815 Y23.598
G01 F480 X20.686 Y23.691
G01 F480 X20.537 Y23.758
G01 F480 X20.378 Y23.791
G01 F480 X16.016 Y23.843
G01 F480 X15.876 Y23.843
G01 F480 X15.846 Y23.838
G01 F480 X15.752 Y23.907
G01 F480 X15.566 Y23.989
G01 F480 X15.367 Y24.032
G01 F480 X15.164 Y24.032
G00 F3000 Z3.000
G00 F3000 X10.069 Y14.011
G00 F1500 Z0
G01 F480 Z-0.200
G01 F480 X9.841 Y13.962
G01 F480 X9.629 Y13.868
G01 F480 X9.440 Y13.731
G01 F480 X9.284 Y13.558
G01 F480 X9.168 Y13.356
G01 F480 X9.096 Y13.135
G01 F480 X9.072 Y12.903
G01 F480 X9.096 Y12.672
G01 F480 X9.168 Y12.450
G01 F480 X9.284 Y12.249
G01 F480 X9.440 Y12.075
G01 F480 X9.629 Y11.939
G01 F480 X9.841 Y11.844
G01 F480 X10.069 Y11.796
G01 F480 X10.302 Y11.796
G01 F480 X10.530 Y11.844
G01 F480 X10.742 Y11.939
G01 F480 X10.931 Y12.075
G01 F480 X11.086 Y12.249
G01 F480 X11.203 Y12.450
G01 F480 X11.275 Y12.672
G01 F480 X11.299 Y12.903
G01 F480 X11.275 Y13.135
G01 F480 X11.203 Y13.356
G01 F480 X11.086 Y13.558
G01 F480 X10.931 Y13.731
G01 F480 X10.742 Y13.868
G01 F480 X10.530 Y13.962
G01 F480 X10.302 Y14.011
G01 F480 X10.069 Y14.011
G00 F3000 Z3.000
G00 F3000 X27.849 Y14.011
G00 F1500 Z0
G01 F480 Z-0.200
G01 F480 X27.621 Y13.962
G01 F480 X27.409 Y13.868
G01 F480 X27.220 Y13.731
G01 F480 X27.064 Y13.558
G01 F480 X26.948 Y13.356
G01 F480 X26.876 Y13.135
G01 F480 X26.852 Y12.903
G01 F480 X26.876 Y12.672
G01 F480 X26.948 Y12.450
G01 F480 X27.064 Y12.249
G01 F480 X27.220 Y12.075
G01 F480 X27.409 Y11.939
G01 F480 X27.621 Y11.844
G01 F480 X27.849 Y11.796
G01 F480 X28.082 Y11.796
G01 F480 X28.310 Y11.844
G01 F480 X28.522 Y11.939
G01 F480 X28.711 Y12.075
G01 F480 X28.866 Y12.249
G01 F480 X28.983 Y12.450
G01 F480 X29.055 Y12.672
G01 F480 X29.079 Y12.903
G01 F480 X29.055 Y13.135
G01 F480 X28.983 Y13.356
G01 F480 X28.866 Y13.558
G01 F480 X28.711 Y13.731
G01 F480 X28.522 Y13.868
G01 F480 X28.310 Y13.962
G01 F480 X28.082 Y14.011
G01 F480 X27.849 Y14.011
G00 F3000 Z3.000
G00 F3000 X32.929 Y14.011
G00 F1500 Z0
G01 F480 Z-0.200
G01 F480 X32.701 Y13.962
G01 F480 X32.489 Y13.868
G01 F480 X32.300 Y13.731
G01 F480 X32.144 Y13.558
G01 F480 X32.028 Y13.356
G01 F480 X31.956 Y13.135
G01 F480 X31.932 Y12.903
G01 F480 X31.956 Y12.672
G01 F480 X32.028 Y12.450
G01 F480 X32.144 Y12.249
G01 F480 X32.300 Y12.075
G01 F480 X32.489 Y11.939
G01 F480 X32.701 Y11.844
G01 F480 X32.929 Y11.796
G01 F480 X33.162 Y11.796
G01 F480 X33.390 Y11.844
G01 F480 X33.602 Y11.939
G01 F480 X33.753 Y12.048
G01 F480 X34.725 Y11.946
G01 F480 X34.728 Y11.946
G01 F480 X34.840 Y11.822
G01 F480 X35.029 Y11.685
G01 F480 X35.241 Y11.590
G01 F480 X35.469 Y11.542
G01 F480 X35.702 Y11.542
G01 F480 X35.930 Y11.590
G01 F480 X36.142 Y11.685
G01 F480 X36.331 Y11.822
G01 F480 X36.486 Y11.995
G01 F480 X36.603 Y12.196
G01 F480 X36.675 Y12.418
G01 F480 X36.699 Y12.649
G01 F480 X36.675 Y12.881
G01 F480 X36.603 Y13.102
G01 F480 X36.486 Y13.304
G01 F480 X36.331 Y13.477
G01 F480 X36.142 Y13.614
G01 F480 X35.930 Y13.708
G01 F480 X35.702 Y13.757
G01 F480 X35.469 Y13.757
G01 F480 X35.241 Y13.708
G01 F480 X35.029 Y13.614
G01 F480 X34.878 Y13.504
G01 F480 X33.906 Y13.606
G01 F480 X33.903 Y13.606
G01 F480 X33.791 Y13.731
G01 F480 X33.602 Y13.868
G01 F480 X33.390 Y13.962
G01 F480 X33.162 Y14.011
G01 F480 X32.929 Y14.011
G00 F3000 Z3.000
G00 F3000 X15.149 Y14.011
G00 F1500 Z0
G01 F480 Z-0.200
G01 F480 X14.921 Y13.962
G01 F480 X14.709 Y13.868
G01 F480 X14.520 Y13.731
G01 F480 X14.364 Y13.558
G01 F480 X14.248 Y13.356
G01 F480 X14.176 Y13.135
G01 F480 X14.152 Y12.903
G01 F480 X14.176 Y12.672
G01 F480 X14.248 Y12.450
G01 F480 X14.364 Y12.249
G01 F480 X14.520 Y12.075
G01 F480 X14.709 Y11.939
G01 F480 X14.921 Y11.844
G01 F480 X15.149 Y11.796
G01 F480 X15.382 Y11.796
G01 F480 X15.610 Y11.844
G01 F480 X15.822 Y11.939
G01 F480 X16.011 Y12.075
G01 F480 X16.166 Y12.249
G01 F480 X16.283 Y12.450
G01 F480 X16.355 Y12.672
G01 F480 X16.379 Y12.903
G01 F480 X16.355 Y13.135
G01 F480 X16.283 Y13.356
G01 F480 X16.166 Y13.558
G01 F480 X16.011 Y13.731
G01 F480 X15.822 Y13.868
G01 F480 X15.610 Y13.962
G01 F480 X15.382 Y14.011
G01 F480 X15.149 Y14.011
G00 F3000 Z3.000
G00 F3000 X45.629 Y14.011
G00 F1500 Z0
G01 F480 Z-0.200
G01 F480 X45.401 Y13.962
G01 F480 X45.189 Y13.868
G01 F480 X45.000 Y13.731
G01 F480 X44.844 Y13.558
G01 F480 X44.728 Y13.356
G01 F480 X44.656 Y13.135
G01 F480 X44.632 Y12.903
G01 F480 X44.656 Y12.672
G01 F480 X44.728 Y12.450
G01 F480 X44.844 Y12.249
G01 F480 X45.000 Y12.075
G01 F480 X45.189 Y11.939
G01 F480 X45.401 Y11.844
G01 F480 X45.629 Y11.796
G01 F480 X45.862 Y11.796
G01 F480 X46.090 Y11.844
G01 F480 X46.302 Y11.939
G01 F480 X46.491 Y12.075
G01 F480 X46.646 Y12.249
G01 F480 X46.763 Y12.450
G01 F480 X46.835 Y12.672
G01 F480 X46.859 Y12.903
G01 F480 X46.835 Y13.135
G01 F480 X46.763 Y13.356
G01 F480 X46.646 Y13.558
G01 F480 X46.491 Y13.731
G01 F480 X46.302 Y13.868
G01 F480 X46.090 Y13.962
G01 F480 X45.862 Y14.011
G01 F480 X45.629 Y14.011
G00 F3000 Z3.000
G00 F3000 X7.529 Y13.757
G00 F1500 Z0
G01 F480 Z-0.200
G01 F480 X7.301 Y13.708
G01 F480 X7.089 Y13.614
G01 F480 X6.900 Y13.477
G01 F480 X6.744 Y13.304
G01 F480 X6.628 Y13.102
G01 F480 X6.556 Y12.881
G01 F480 X6.532 Y12.649
G01 F480 X6.556 Y12.418
G01 F480 X6.628 Y12.196
G01 F480 X6.744 Y11.995
G01 F480 X6.900 Y11.822
G01 F480 X7.089 Y11.685
G01 F480 X7.301 Y11.590
G01 F480 X7.529 Y11.542
G01 F480 X7.762 Y11.542
G01 F480 X7.990 Y11.590
G01 F480 X8.202 Y11.685
G01 F480 X8.391 Y11.822
G01 F480 X8.546 Y11.995
G01 F480 X8.663 Y12.196
G01 F480 X8.735 Y12.418
G01 F480 X8.759 Y12.649
G01 F480 X8.735 Y12.881
G01 F480 X8.663 Y13.102
G01 F480 X8.546 Y13.304
G01 F480 X8.391 Y13.477
G01 F480 X8.202 Y13.614
G01 F480 X7.990 Y13.708
G01 F480 X7.762 Y13.757
G01 F480 X7.529 Y13.757
G00 F3000 Z3.000
G00 F3000 X25.309 Y13.757
G00 F1500 Z0
G01 F480 Z-0.200
G01 F480 X25.081 Y13.708
G01 F480 X24.869 Y13.614
G01 F480 X24.680 Y13.477
G01 F480 X24.524 Y13.304
G01 F480 X24.408 Y13.102
G01 F480 X24.336 Y12.881
G01 F480 X24.312 Y12.649
G01 F480 X24.336 Y12.418
G01 F480 X24.408 Y12.196
G01 F480 X24.524 Y11.995
G01 F480 X24.680 Y11.822
G01 F480 X24.869 Y11.685
G01 F480 X25.081 Y11.590
G01 F480 X25.309 Y11.542
G01 F480 X25.542 Y11.542
G01 F480 X25.770 Y11.590
G01 F480 X25.982 Y11.685
G01 F480 X26.171 Y11.822
G01 F480 X26.326 Y11.995
G01 F480 X26.443 Y12.196
G01 F480 X26.515 Y12.418
G01 F480 X26.539 Y12.649
G01 F480 X26.515 Y12.881
G01 F480 X26.443 Y13.102
G01 F480 X26.326 Y13.304
G01 F480 X26.171 Y13.477
G01 F480 X25.982 Y13.614
G01 F480 X25.770 Y13.708
G01 F480 X25.542 Y13.757
G01 F480 X25.309 Y13.757
G00 F3000 Z3.000
G00 F3000 X17.689 Y13.757
G00 F1500 Z0
G01 F480 Z-0.200
G01 F480 X17.461 Y13.708
G01 F480 X17.248 Y13.614
G01 F480 X17.060 Y13.477
G01 F480 X16.904 Y13.304
G01 F480 X16.788 Y13.102
G01 F480 X16.716 Y12.881
G01 F480 X16.692 Y12.649
G01 F480 X16.716 Y12.418
G01 F480 X16.788 Y12.196
G01 F480 X16.904 Y11.995
G01 F480 X17.060 Y11.822
G01 F480 X17.248 Y11.685
G01 F480 X17.461 Y11.590
G01 F480 X17.689 Y11.542
G01 F480 X17.922 Y11.542
G01 F480 X18.150 Y11.590
G01 F480 X18.362 Y11.685
G01 F480 X18.551 Y11.822
G01 F480 X18.706 Y11.995
G01 F480 X18.823 Y12.196
G01 F480 X18.895 Y12.418
G01 F480 X18.919 Y12.649
G01 F480 X18.895 Y12.881
G01 F480 X18.823 Y13.102
G01 F480 X18.706 Y13.304
G01 F480 X18.551 Y13.477
G01 F480 X18.362 Y13.614
G01 F480 X18.150 Y13.708
G01 F480 X17.922 Y13.757
G01 F480 X17.689 Y13.757
G00 F3000 Z3.000
G00 F3000 X53.249 Y13.757
G00 F1500 Z0
G01 F480 Z-0.200
G01 F480 X53.021 Y13.708
G01 F480 X52.809 Y13.614
G01 F480 X52.620 Y13.477
G01 F480 X52.464 Y13.304
G01 F480 X52.348 Y13.102
G01 F480 X52.276 Y12.881
G01 F480 X52.252 Y12.649
G01 F480 X52.276 Y12.418
G01 F480 X52.348 Y12.196
G01 F480 X52.464 Y11.995
G01 F480 X52.620 Y11.822
G01 F480 X52.809 Y11.685
G01 F480 X53.021 Y11.590
G01 F480 X53.249 Y11.542
G01 F480 X53.482 Y11.542
G01 F480 X53.710 Y11.590
G01 F480 X53.922 Y11.685
G01 F480 X54.111 Y11.822
G01 F480 X54.266 Y11.995
G01 F480 X54.383 Y12.196
G01 F480 X54.455 Y12.418
G01 F480 X54.479 Y12.649
G01 F480 X54.455 Y12.881
G01 F480 X54.383 Y13.102
G01 F480 X54.266 Y13.304
G01 F480 X54.111 Y13.477
G01 F480 X53.922 Y13.614
G01 F480 X53.710 Y13.708
G01 F480 X53.482 Y13.757
G01 F480 X53.249 Y13.757
G00 F3000 Z3.000
G00 F3000 X43.089 Y13.757
G00 F1500 Z0
G01 F480 Z-0.200
G01 F480 X42.861 Y13.708
G01 F480 X42.648 Y13.614
G01 F480 X42.460 Y13.477
G01 F480 X42.304 Y13.304
G01 F480 X42.188 Y13.102
G01 F480 X42.116 Y12.881
G01 F480 X42.092 Y12.649
G01 F480 X42.116 Y12.418
G01 F480 X42.188 Y12.196
G01 F480 X42.304 Y11.995
G01 F480 X42.460 Y11.822
G01 F480 X42.648 Y11.685
G01 F480 X42.861 Y11.590
G01 F480 X43.089 Y11.542
G01 F480 X43.322 Y11.542
G01 F480 X43.550 Y11.590
G01 F480 X43.762 Y11.685
G01 F480 X43.951 Y11.822
G01 F480 X44.106 Y11.995
G01 F480 X44.223 Y12.196
G01 F480 X44.295 Y12.418
G01 F480 X44.319 Y12.649
G01 F480 X44.295 Y12.881
G01 F480 X44.223 Y13.102
G01 F480 X44.106 Y13.304
G01 F480 X43.951 Y13.477
G01 F480 X43.762 Y13.614
G01 F480 X43.550 Y13.708
G01 F480 X43.322 Y13.757
G01 F480 X43.089 Y13.757
G00 F3000 Z3.000
G00 F3000 Z3.000
G00 F3000 X0.000 Y0.000
M05
M30
%